; generated by Slic3r 1.3.1-dev on 2019-07-03 at 15:35:49

; external perimeters extrusion width = 0.66mm (6.20mm^3/s)
; perimeters extrusion width = 0.40mm (7.54mm^3/s)
; infill extrusion width = 0.75mm (21.25mm^3/s)
; solid infill extrusion width = 0.79mm (6.79mm^3/s)
; top infill extrusion width = 0.60mm (3.95mm^3/s)

M107
M190 S80 ; set bed temperature and wait for it to be reached
M104 S230 ; set temperature
G28 ; home all axes
G1 X150 Y150 Z50 F10000
; Filament gcode
; layer 1
M109 S230 ; set temperature and wait for it to be reached
G21 ; set units to millimeters
G90 ; use absolute coordinates
M82 ; use absolute distances for extrusion
G92 E0
G92 E0
G1 Z0.400 F15000.000
G1 X102.491 Y98.156 F15000.000
G1 F857.634
G1 X102.820 Y97.827 E0.07727
G1 X111.285 Y97.827 E1.48494
G1 X111.613 Y98.156 E1.56220
G1 X111.613 Y106.620 E2.96987
G1 X111.285 Y106.949 E3.04714
G1 X102.820 Y106.949 E4.45481
G1 X102.491 Y106.620 E4.53208
G1 X102.491 Y98.246 E5.92478
G92 E0
G1 X110.652 Y105.988 F15000.000
G1 F3600
G1 X103.452 Y105.988 E0.85511
G1 X103.452 Y98.788 E1.71022
G1 X110.652 Y98.788 E2.56533
G1 X110.652 Y105.898 E3.40975
G1 X110.073 Y105.833 F15000.000
G1 X109.938 Y105.274 F15000.000
G1 F857.634
G1 X104.166 Y105.274 E4.09522
G1 X104.166 Y99.502 E4.78070
G1 X109.938 Y99.502 E5.46617
G1 X109.938 Y105.184 E6.14096
G1 X109.224 Y104.560 F15000.000
G1 F857.634
G1 X104.881 Y104.560 E6.65680
G1 X104.881 Y100.216 E7.17264
G1 X109.224 Y100.216 E7.68848
G1 X109.224 Y104.470 E8.19363
G92 E0
G1 X106.324 Y101.659 F15000.000
G1 F857.634
G1 X107.781 Y101.659 E0.17665
G1 X107.781 Y103.117 E0.35329
G1 X106.324 Y103.117 E0.52994
G1 X106.324 Y101.749 E0.69568
G1 X105.595 Y100.930 F15000.000
G1 F857.634
G1 X108.510 Y100.930 E1.04898
G1 X108.510 Y103.846 E1.40227
G1 X105.595 Y103.846 E1.75557
G1 X105.595 Y101.020 E2.09795
M104 S205 ; set temperature
M140 S55 ; set bed temperature
G1 Z0.800 F15000.000
G92 E0
G1 X109.964 Y105.300 F15000.000
G1 F876.889
G1 X104.141 Y105.300 E0.30424
G1 X104.141 Y99.476 E0.60848
G1 X109.964 Y99.476 E0.91272
G1 X109.964 Y105.210 E1.21226
G1 X110.278 Y105.614 F15000.000
G1 F876.889
G1 X103.826 Y105.614 E1.54933
G1 X103.826 Y99.162 E1.88640
G1 X110.278 Y99.162 E2.22346
G1 X110.278 Y105.524 E2.55583
G1 X110.722 Y106.058 F15000.000
G1 F1080
G1 X103.382 Y106.058 E3.25668
G1 X103.382 Y98.718 E3.95752
G1 X110.722 Y98.718 E4.65837
G1 X110.722 Y105.968 E5.35062
G1 X110.143 Y105.903 F15000.000
G92 E0
G1 X109.530 Y99.987 F15000.000
G1 F1169.19
G1 X104.575 Y99.987 E0.65959
G1 X104.575 Y100.787 E0.76612
G1 X109.530 Y100.787 E1.42571
G1 X109.530 Y101.588 E1.53223
G1 X104.575 Y101.588 E2.19182
G1 X104.575 Y102.388 E2.29835
G1 X109.530 Y102.388 E2.95794
G1 X109.530 Y103.188 E3.06447
G1 X104.575 Y103.188 E3.72406
G1 X104.575 Y103.989 E3.83059
G1 X109.530 Y103.989 E4.49017
G1 X109.530 Y104.789 E4.59670
G1 X104.575 Y104.789 E5.25629
G1 Z1.200 F15000.000
G92 E0
G1 X109.964 Y105.300 F15000.000
G1 F876.889
G1 X104.141 Y105.300 E0.30424
G1 X104.141 Y99.476 E0.60848
G1 X109.964 Y99.476 E0.91272
G1 X109.964 Y105.210 E1.21226
G1 X110.278 Y105.614 F15000.000
G1 F876.889
G1 X103.826 Y105.614 E1.54933
G1 X103.826 Y99.162 E1.88640
G1 X110.278 Y99.162 E2.22346
G1 X110.278 Y105.524 E2.55583
G1 X110.722 Y106.058 F15000.000
G1 F1080
G1 X103.382 Y106.058 E3.25668
G1 X103.382 Y98.718 E3.95752
G1 X110.722 Y98.718 E4.65837
G1 X110.722 Y105.968 E5.35062
G1 X110.143 Y105.903 F15000.000
G1 X109.453 Y104.866 F15000.000
G1 F1169.19
G1 X109.453 Y99.910 E6.01021
G1 X108.653 Y99.910 E6.11674
G1 X108.653 Y104.866 E6.77633
G1 X107.853 Y104.866 E6.88285
G1 X107.853 Y99.910 E7.54244
G1 X107.052 Y99.910 E7.64897
G1 X107.052 Y104.866 E8.30856
G1 X106.252 Y104.866 E8.41509
G1 X106.252 Y99.910 E9.07468
G1 X105.452 Y99.910 E9.18121
G1 X105.452 Y104.866 E9.84079
G1 X104.651 Y104.866 E9.94732
G1 X104.651 Y99.910 E10.60691
M106 S255
G1 Z1.600 F15000.000
G92 E0
G1 X109.964 Y105.300 F15000.000
G1 F656.577
G1 X104.141 Y105.300 E0.30424
G1 X104.141 Y99.476 E0.60848
G1 X109.964 Y99.476 E0.91272
G1 X109.964 Y105.210 E1.21226
G1 X110.278 Y105.614 F15000.000
G1 F656.577
G1 X103.826 Y105.614 E1.54933
G1 X103.826 Y99.162 E1.88640
G1 X110.278 Y99.162 E2.22346
G1 X110.278 Y105.524 E2.55583
G1 X110.722 Y106.058 F15000.000
G1 F1080
G1 X103.382 Y106.058 E3.25668
G1 X103.382 Y98.718 E3.95752
G1 X110.722 Y98.718 E4.65837
G1 X110.722 Y105.968 E5.35062
G1 X110.143 Y105.903 F15000.000
G92 E0
G1 X106.706 Y102.042 F15000.000
G1 F2918.12
G1 X107.398 Y102.042 E0.07645
G1 X107.398 Y102.734 E0.15290
G1 X106.706 Y102.734 E0.22935
G1 X106.706 Y102.132 E0.29585
G1 X106.014 Y101.350 F15000.000
G1 F2918.12
G1 X108.091 Y101.350 E0.52520
G1 X108.091 Y103.426 E0.75454
G1 X106.014 Y103.426 E0.98389
G1 X106.014 Y101.440 E1.20330
G1 X105.322 Y100.658 F15000.000
G1 F2918.12
G1 X108.783 Y100.658 E1.58554
G1 X108.783 Y104.118 E1.96778
G1 X105.322 Y104.118 E2.35002
G1 X105.322 Y100.748 E2.72232
G1 X104.630 Y99.965 F15000.000
G1 F2918.12
G1 X109.475 Y99.965 E3.25746
G1 X109.475 Y104.811 E3.79260
G1 X104.630 Y104.811 E4.32774
G1 X104.630 Y100.055 E4.85294
G1 Z2.000 F15000.000
G92 E0
G1 X109.964 Y105.300 F15000.000
G1 F656.577
G1 X104.141 Y105.300 E0.30424
G1 X104.141 Y99.476 E0.60848
G1 X109.964 Y99.476 E0.91272
G1 X109.964 Y105.210 E1.21226
G1 X110.278 Y105.614 F15000.000
G1 F656.577
G1 X103.826 Y105.614 E1.54933
G1 X103.826 Y99.162 E1.88640
G1 X110.278 Y99.162 E2.22346
G1 X110.278 Y105.524 E2.55583
G1 X110.722 Y106.058 F15000.000
G1 F1080
G1 X103.382 Y106.058 E3.25668
G1 X103.382 Y98.718 E3.95752
G1 X110.722 Y98.718 E4.65837
G1 X110.722 Y105.968 E5.35062
G1 X110.143 Y105.903 F15000.000
G92 E0
G1 X106.706 Y102.042 F15000.000
G1 F2918.12
G1 X107.398 Y102.042 E0.07645
G1 X107.398 Y102.734 E0.15290
G1 X106.706 Y102.734 E0.22935
G1 X106.706 Y102.132 E0.29585
G1 X106.014 Y101.350 F15000.000
G1 F2918.12
G1 X108.091 Y101.350 E0.52520
G1 X108.091 Y103.426 E0.75454
G1 X106.014 Y103.426 E0.98389
G1 X106.014 Y101.440 E1.20330
G1 X105.322 Y100.658 F15000.000
G1 F2918.12
G1 X108.783 Y100.658 E1.58554
G1 X108.783 Y104.118 E1.96778
G1 X105.322 Y104.118 E2.35002
G1 X105.322 Y100.748 E2.72232
G1 X104.630 Y99.965 F15000.000
G1 F2918.12
G1 X109.475 Y99.965 E3.25746
G1 X109.475 Y104.811 E3.79260
G1 X104.630 Y104.811 E4.32774
G1 X104.630 Y100.055 E4.85294
G1 Z2.400 F15000.000
G92 E0
G1 X109.964 Y105.300 F15000.000
G1 F656.577
G1 X104.141 Y105.300 E0.30424
G1 X104.141 Y99.476 E0.60848
G1 X109.964 Y99.476 E0.91272
G1 X109.964 Y105.210 E1.21226
G1 X110.278 Y105.614 F15000.000
G1 F656.577
G1 X103.826 Y105.614 E1.54933
G1 X103.826 Y99.162 E1.88640
G1 X110.278 Y99.162 E2.22346
G1 X110.278 Y105.524 E2.55583
G1 X110.722 Y106.058 F15000.000
G1 F1080
G1 X103.382 Y106.058 E3.25668
G1 X103.382 Y98.718 E3.95752
G1 X110.722 Y98.718 E4.65837
G1 X110.722 Y105.968 E5.35062
G1 X110.143 Y105.903 F15000.000
G92 E0
G1 X106.706 Y102.042 F15000.000
G1 F2918.12
G1 X107.398 Y102.042 E0.07645
G1 X107.398 Y102.734 E0.15290
G1 X106.706 Y102.734 E0.22935
G1 X106.706 Y102.132 E0.29585
G1 X106.014 Y101.350 F15000.000
G1 F2918.12
G1 X108.091 Y101.350 E0.52520
G1 X108.091 Y103.426 E0.75454
G1 X106.014 Y103.426 E0.98389
G1 X106.014 Y101.440 E1.20330
G1 X105.322 Y100.658 F15000.000
G1 F2918.12
G1 X108.783 Y100.658 E1.58554
G1 X108.783 Y104.118 E1.96778
G1 X105.322 Y104.118 E2.35002
G1 X105.322 Y100.748 E2.72232
G1 X104.630 Y99.965 F15000.000
G1 F2918.12
G1 X109.475 Y99.965 E3.25746
G1 X109.475 Y104.811 E3.79260
G1 X104.630 Y104.811 E4.32774
G1 X104.630 Y100.055 E4.85294
G1 Z2.800 F15000.000
G92 E0
G1 X109.964 Y105.300 F15000.000
G1 F656.577
G1 X104.141 Y105.300 E0.30424
G1 X104.141 Y99.476 E0.60848
G1 X109.964 Y99.476 E0.91272
G1 X109.964 Y105.210 E1.21226
G1 X110.278 Y105.614 F15000.000
G1 F656.577
G1 X103.826 Y105.614 E1.54933
G1 X103.826 Y99.162 E1.88640
G1 X110.278 Y99.162 E2.22346
G1 X110.278 Y105.524 E2.55583
G1 X110.722 Y106.058 F15000.000
G1 F1080
G1 X103.382 Y106.058 E3.25668
G1 X103.382 Y98.718 E3.95752
G1 X110.722 Y98.718 E4.65837
G1 X110.722 Y105.968 E5.35062
G1 X110.143 Y105.903 F15000.000
G92 E0
G1 X106.706 Y102.042 F15000.000
G1 F2918.12
G1 X107.398 Y102.042 E0.07645
G1 X107.398 Y102.734 E0.15290
G1 X106.706 Y102.734 E0.22935
G1 X106.706 Y102.132 E0.29585
G1 X106.014 Y101.350 F15000.000
G1 F2918.12
G1 X108.091 Y101.350 E0.52520
G1 X108.091 Y103.426 E0.75454
G1 X106.014 Y103.426 E0.98389
G1 X106.014 Y101.440 E1.20330
G1 X105.322 Y100.658 F15000.000
G1 F2918.12
G1 X108.783 Y100.658 E1.58554
G1 X108.783 Y104.118 E1.96778
G1 X105.322 Y104.118 E2.35002
G1 X105.322 Y100.748 E2.72232
G1 X104.630 Y99.965 F15000.000
G1 F2918.12
G1 X109.475 Y99.965 E3.25746
G1 X109.475 Y104.811 E3.79260
G1 X104.630 Y104.811 E4.32774
G1 X104.630 Y100.055 E4.85294
G1 Z3.200 F15000.000
G92 E0
G1 X109.964 Y105.300 F15000.000
G1 F656.577
G1 X104.141 Y105.300 E0.30424
G1 X104.141 Y99.476 E0.60848
G1 X109.964 Y99.476 E0.91272
G1 X109.964 Y105.210 E1.21226
G1 X110.278 Y105.614 F15000.000
G1 F656.577
G1 X103.826 Y105.614 E1.54933
G1 X103.826 Y99.162 E1.88640
G1 X110.278 Y99.162 E2.22346
G1 X110.278 Y105.524 E2.55583
G1 X110.722 Y106.058 F15000.000
G1 F1080
G1 X103.382 Y106.058 E3.25668
G1 X103.382 Y98.718 E3.95752
G1 X110.722 Y98.718 E4.65837
G1 X110.722 Y105.968 E5.35062
G1 X110.143 Y105.903 F15000.000
G92 E0
G1 X106.706 Y102.042 F15000.000
G1 F2918.12
G1 X107.398 Y102.042 E0.07645
G1 X107.398 Y102.734 E0.15290
G1 X106.706 Y102.734 E0.22935
G1 X106.706 Y102.132 E0.29585
G1 X106.014 Y101.350 F15000.000
G1 F2918.12
G1 X108.091 Y101.350 E0.52520
G1 X108.091 Y103.426 E0.75454
G1 X106.014 Y103.426 E0.98389
G1 X106.014 Y101.440 E1.20330
G1 X105.322 Y100.658 F15000.000
G1 F2918.12
G1 X108.783 Y100.658 E1.58554
G1 X108.783 Y104.118 E1.96778
G1 X105.322 Y104.118 E2.35002
G1 X105.322 Y100.748 E2.72232
G1 X104.630 Y99.965 F15000.000
G1 F2918.12
G1 X109.475 Y99.965 E3.25746
G1 X109.475 Y104.811 E3.79260
G1 X104.630 Y104.811 E4.32774
G1 X104.630 Y100.055 E4.85294
G1 Z3.600 F15000.000
G92 E0
G1 X109.964 Y105.300 F15000.000
G1 F656.577
G1 X104.141 Y105.300 E0.30424
G1 X104.141 Y99.476 E0.60848
G1 X109.964 Y99.476 E0.91272
G1 X109.964 Y105.210 E1.21226
G1 X110.278 Y105.614 F15000.000
G1 F656.577
G1 X103.826 Y105.614 E1.54933
G1 X103.826 Y99.162 E1.88640
G1 X110.278 Y99.162 E2.22346
G1 X110.278 Y105.524 E2.55583
G1 X110.722 Y106.058 F15000.000
G1 F1080
G1 X103.382 Y106.058 E3.25668
G1 X103.382 Y98.718 E3.95752
G1 X110.722 Y98.718 E4.65837
G1 X110.722 Y105.968 E5.35062
G1 X110.143 Y105.903 F15000.000
G92 E0
G1 X106.706 Y102.042 F15000.000
G1 F2918.12
G1 X107.398 Y102.042 E0.07645
G1 X107.398 Y102.734 E0.15290
G1 X106.706 Y102.734 E0.22935
G1 X106.706 Y102.132 E0.29585
G1 X106.014 Y101.350 F15000.000
G1 F2918.12
G1 X108.091 Y101.350 E0.52520
G1 X108.091 Y103.426 E0.75454
G1 X106.014 Y103.426 E0.98389
G1 X106.014 Y101.440 E1.20330
G1 X105.322 Y100.658 F15000.000
G1 F2918.12
G1 X108.783 Y100.658 E1.58554
G1 X108.783 Y104.118 E1.96778
G1 X105.322 Y104.118 E2.35002
G1 X105.322 Y100.748 E2.72232
G1 X104.630 Y99.965 F15000.000
G1 F2918.12
G1 X109.475 Y99.965 E3.25746
G1 X109.475 Y104.811 E3.79260
G1 X104.630 Y104.811 E4.32774
G1 X104.630 Y100.055 E4.85294
G1 Z4.000 F15000.000
G92 E0
G1 X109.964 Y105.300 F15000.000
G1 F656.577
G1 X104.141 Y105.300 E0.30424
G1 X104.141 Y99.476 E0.60848
G1 X109.964 Y99.476 E0.91272
G1 X109.964 Y105.210 E1.21226
G1 X110.278 Y105.614 F15000.000
G1 F656.577
G1 X103.826 Y105.614 E1.54933
G1 X103.826 Y99.162 E1.88640
G1 X110.278 Y99.162 E2.22346
G1 X110.278 Y105.524 E2.55583
G1 X110.722 Y106.058 F15000.000
G1 F1080
G1 X103.382 Y106.058 E3.25668
G1 X103.382 Y98.718 E3.95752
G1 X110.722 Y98.718 E4.65837
G1 X110.722 Y105.968 E5.35062
G1 X110.143 Y105.903 F15000.000
G92 E0
G1 X106.706 Y102.042 F15000.000
G1 F2918.12
G1 X107.398 Y102.042 E0.07645
G1 X107.398 Y102.734 E0.15290
G1 X106.706 Y102.734 E0.22935
G1 X106.706 Y102.132 E0.29585
G1 X106.014 Y101.350 F15000.000
G1 F2918.12
G1 X108.091 Y101.350 E0.52520
G1 X108.091 Y103.426 E0.75454
G1 X106.014 Y103.426 E0.98389
G1 X106.014 Y101.440 E1.20330
G1 X105.322 Y100.658 F15000.000
G1 F2918.12
G1 X108.783 Y100.658 E1.58554
G1 X108.783 Y104.118 E1.96778
G1 X105.322 Y104.118 E2.35002
G1 X105.322 Y100.748 E2.72232
G1 X104.630 Y99.965 F15000.000
G1 F2918.12
G1 X109.475 Y99.965 E3.25746
G1 X109.475 Y104.811 E3.79260
G1 X104.630 Y104.811 E4.32774
G1 X104.630 Y100.055 E4.85294
G1 Z4.400 F15000.000
G92 E0
G1 X109.964 Y105.300 F15000.000
G1 F656.577
G1 X104.141 Y105.300 E0.30424
G1 X104.141 Y99.476 E0.60848
G1 X109.964 Y99.476 E0.91272
G1 X109.964 Y105.210 E1.21226
G1 X110.278 Y105.614 F15000.000
G1 F656.577
G1 X103.826 Y105.614 E1.54933
G1 X103.826 Y99.162 E1.88640
G1 X110.278 Y99.162 E2.22346
G1 X110.278 Y105.524 E2.55583
G1 X110.722 Y106.058 F15000.000
G1 F1080
G1 X103.382 Y106.058 E3.25668
G1 X103.382 Y98.718 E3.95752
G1 X110.722 Y98.718 E4.65837
G1 X110.722 Y105.968 E5.35062
G1 X110.143 Y105.903 F15000.000
G92 E0
G1 X106.706 Y102.042 F15000.000
G1 F2918.12
G1 X107.398 Y102.042 E0.07645
G1 X107.398 Y102.734 E0.15290
G1 X106.706 Y102.734 E0.22935
G1 X106.706 Y102.132 E0.29585
G1 X106.014 Y101.350 F15000.000
G1 F2918.12
G1 X108.091 Y101.350 E0.52520
G1 X108.091 Y103.426 E0.75454
G1 X106.014 Y103.426 E0.98389
G1 X106.014 Y101.440 E1.20330
G1 X105.322 Y100.658 F15000.000
G1 F2918.12
G1 X108.783 Y100.658 E1.58554
G1 X108.783 Y104.118 E1.96778
G1 X105.322 Y104.118 E2.35002
G1 X105.322 Y100.748 E2.72232
G1 X104.630 Y99.965 F15000.000
G1 F2918.12
G1 X109.475 Y99.965 E3.25746
G1 X109.475 Y104.811 E3.79260
G1 X104.630 Y104.811 E4.32774
G1 X104.630 Y100.055 E4.85294
G1 Z4.800 F15000.000
G92 E0
G1 X109.964 Y105.300 F15000.000
G1 F656.577
G1 X104.141 Y105.300 E0.30424
G1 X104.141 Y99.476 E0.60848
G1 X109.964 Y99.476 E0.91272
G1 X109.964 Y105.210 E1.21226
G1 X110.278 Y105.614 F15000.000
G1 F656.577
G1 X103.826 Y105.614 E1.54933
G1 X103.826 Y99.162 E1.88640
G1 X110.278 Y99.162 E2.22346
G1 X110.278 Y105.524 E2.55583
G1 X110.722 Y106.058 F15000.000
G1 F1080
G1 X103.382 Y106.058 E3.25668
G1 X103.382 Y98.718 E3.95752
G1 X110.722 Y98.718 E4.65837
G1 X110.722 Y105.968 E5.35062
G1 X110.143 Y105.903 F15000.000
G92 E0
G1 X106.706 Y102.042 F15000.000
G1 F2918.12
G1 X107.398 Y102.042 E0.07645
G1 X107.398 Y102.734 E0.15290
G1 X106.706 Y102.734 E0.22935
G1 X106.706 Y102.132 E0.29585
G1 X106.014 Y101.350 F15000.000
G1 F2918.12
G1 X108.091 Y101.350 E0.52520
G1 X108.091 Y103.426 E0.75454
G1 X106.014 Y103.426 E0.98389
G1 X106.014 Y101.440 E1.20330
G1 X105.322 Y100.658 F15000.000
G1 F2918.12
G1 X108.783 Y100.658 E1.58554
G1 X108.783 Y104.118 E1.96778
G1 X105.322 Y104.118 E2.35002
G1 X105.322 Y100.748 E2.72232
G1 X104.630 Y99.965 F15000.000
G1 F2918.12
G1 X109.475 Y99.965 E3.25746
G1 X109.475 Y104.811 E3.79260
G1 X104.630 Y104.811 E4.32774
G1 X104.630 Y100.055 E4.85294
G1 Z5.200 F15000.000
G92 E0
G1 X109.964 Y105.300 F15000.000
G1 F656.577
G1 X104.141 Y105.300 E0.30424
G1 X104.141 Y99.476 E0.60848
G1 X109.964 Y99.476 E0.91272
G1 X109.964 Y105.210 E1.21226
G1 X110.278 Y105.614 F15000.000
G1 F656.577
G1 X103.826 Y105.614 E1.54933
G1 X103.826 Y99.162 E1.88640
G1 X110.278 Y99.162 E2.22346
G1 X110.278 Y105.524 E2.55583
G1 X110.722 Y106.058 F15000.000
G1 F1080
G1 X103.382 Y106.058 E3.25668
G1 X103.382 Y98.718 E3.95752
G1 X110.722 Y98.718 E4.65837
G1 X110.722 Y105.968 E5.35062
G1 X110.143 Y105.903 F15000.000
G92 E0
G1 X106.706 Y102.042 F15000.000
G1 F2918.12
G1 X107.398 Y102.042 E0.07645
G1 X107.398 Y102.734 E0.15290
G1 X106.706 Y102.734 E0.22935
G1 X106.706 Y102.132 E0.29585
G1 X106.014 Y101.350 F15000.000
G1 F2918.12
G1 X108.091 Y101.350 E0.52520
G1 X108.091 Y103.426 E0.75454
G1 X106.014 Y103.426 E0.98389
G1 X106.014 Y101.440 E1.20330
G1 X105.322 Y100.658 F15000.000
G1 F2918.12
G1 X108.783 Y100.658 E1.58554
G1 X108.783 Y104.118 E1.96778
G1 X105.322 Y104.118 E2.35002
G1 X105.322 Y100.748 E2.72232
G1 X104.630 Y99.965 F15000.000
G1 F2918.12
G1 X109.475 Y99.965 E3.25746
G1 X109.475 Y104.811 E3.79260
G1 X104.630 Y104.811 E4.32774
G1 X104.630 Y100.055 E4.85294
G1 Z5.600 F15000.000
G92 E0
G1 X109.964 Y105.300 F15000.000
G1 F656.577
G1 X104.141 Y105.300 E0.30424
