; generated by Slic3r 1.3.1-dev on 2019-03-08 at 14:16:38

; external perimeters extrusion width = 0.88mm (6.61mm^3/s)
; perimeters extrusion width = 0.40mm (6.04mm^3/s)
; infill extrusion width = 1.00mm (22.45mm^3/s)
; solid infill extrusion width = 1.12mm (7.60mm^3/s)
; top infill extrusion width = 0.45mm (2.22mm^3/s)

M190 S80 ; set bed temperature and wait for it to be reached
M104 S230 ; set temperature
G28 ; home all axes
G1 X150 Y150 Z50 F10000
; Filament gcode

M109 S230 ; set temperature and wait for it to be reached
G21 ; set units to millimeters
G90 ; use absolute coordinates
M82 ; use absolute distances for extrusion
G92 E0
G92 E0
G1 E-6.00000 F2400.00000
G92 E0
G1 Z1.000 F15000.000
G1 X49.200 Y53.992 F15000.000
G1 Z0.300 F15000.000
G1 E6.00000 F2400.00000
G1 F3600
; layer 1
G1 X49.743 Y53.535 E6.08856
G1 X50.343 Y53.129 E6.17889
G1 X50.670 Y52.943 E6.22585
G1 X51.327 Y52.639 E6.31619
G1 X52.013 Y52.405 E6.40652
G1 X52.706 Y52.246 E6.49521
G1 X53.424 Y52.160 E6.58542
G1 X54.148 Y52.150 E6.67575
G1 X54.524 Y52.174 E6.72271
G1 X55.240 Y52.280 E6.81304
G1 X55.942 Y52.460 E6.90338
G1 X56.620 Y52.714 E6.99371
G1 X57.256 Y53.030 E7.08227
G1 X57.867 Y53.419 E7.17260
G1 X58.434 Y53.870 E7.26294
G1 X58.950 Y54.378 E7.35327
G1 X59.409 Y54.938 E7.44361
G1 X59.723 Y55.406 E7.51386
G1 X59.988 Y55.873 E7.58089
G1 X60.285 Y56.534 E7.67122
G1 X60.510 Y57.223 E7.76156
G1 X60.661 Y57.931 E7.85189
G1 X60.736 Y58.637 E7.94045
G1 X60.736 Y59.361 E8.03078
G1 X60.661 Y60.082 E8.12112
G1 X60.592 Y60.452 E8.16808
G1 X60.406 Y61.137 E8.25664
G1 X60.145 Y61.813 E8.34697
G1 X59.892 Y62.316 E8.41722
G1 X59.616 Y62.777 E8.48425
G1 X59.187 Y63.360 E8.57458
G1 X58.699 Y63.895 E8.66492
G1 X58.168 Y64.367 E8.75348
G1 X57.579 Y64.788 E8.84381
G1 X56.949 Y65.145 E8.93415
G1 X56.607 Y65.304 E8.98111
G1 X55.942 Y65.552 E9.06966
G1 X55.240 Y65.733 E9.16000
G1 X54.524 Y65.838 E9.25033
G1 X53.800 Y65.867 E9.34066
G1 X53.078 Y65.820 E9.43100
G1 X52.364 Y65.698 E9.52133
G1 X51.999 Y65.604 E9.56829
G1 X51.314 Y65.369 E9.65862
G1 X50.658 Y65.062 E9.74896
G1 X50.037 Y64.689 E9.83929
G1 X49.471 Y64.261 E9.92785
G1 X48.942 Y63.766 E10.01818
G1 X48.688 Y63.488 E10.06514
G1 X48.244 Y62.916 E10.15548
G1 X47.864 Y62.299 E10.24581
G1 X47.550 Y61.646 E10.33614
G1 X47.311 Y60.978 E10.42471
G1 X47.140 Y60.274 E10.51504
G1 X47.044 Y59.556 E10.60537
G1 X47.024 Y58.832 E10.69571
G1 X47.081 Y58.110 E10.78604
G1 X47.179 Y57.556 E10.85629
G1 X47.311 Y57.035 E10.92332
G1 X47.556 Y56.353 E11.01366
G1 X47.864 Y55.713 E11.10222
G1 X48.244 Y55.097 E11.19255
G1 X48.688 Y54.524 E11.28288
G1 X49.114 Y54.076 E11.36003
G1 E5.36003 F2400.00000
G92 E0
G1 Z1.300 F15000.000
G1 X58.114 Y63.292 F15000.000
G1 Z0.300 F15000.000
G1 E6.00000 F2400.00000
G1 F3600
G1 X57.637 Y63.715 E6.04254
G1 X57.243 Y64.002 E6.07515
G1 X56.850 Y64.247 E6.10606
G1 X56.280 Y64.531 E6.14862
G1 X55.684 Y64.753 E6.19109
G1 X55.068 Y64.911 E6.23355
G1 X54.439 Y65.003 E6.27601
G1 X53.804 Y65.028 E6.31847
G1 X53.170 Y64.986 E6.36094
G1 X52.544 Y64.877 E6.40340
G1 X51.932 Y64.703 E6.44586
G1 X51.342 Y64.465 E6.48840
G1 X50.909 Y64.240 E6.52102
G1 X50.515 Y63.998 E6.55193
G1 X50.006 Y63.614 E6.59449
G1 X49.542 Y63.179 E6.63695
G1 X49.126 Y62.698 E6.67941
G1 X48.764 Y62.176 E6.72187
G1 X48.458 Y61.619 E6.76434
G1 X48.213 Y61.033 E6.80680
G1 X48.030 Y60.420 E6.84953
G1 X47.965 Y60.117 E6.87024
G1 X47.881 Y59.483 E6.91297
G1 X47.864 Y58.847 E6.95543
G1 X47.914 Y58.214 E6.99789
G1 X48.031 Y57.589 E7.04035
G1 X48.213 Y56.979 E7.08290
G1 X48.398 Y56.527 E7.11551
G1 X48.603 Y56.112 E7.14642
G1 X48.938 Y55.570 E7.18898
G1 X49.328 Y55.068 E7.23144
G1 X49.769 Y54.609 E7.27398
G1 X50.140 Y54.292 E7.30660
G1 X50.512 Y54.017 E7.33750
G1 X51.058 Y53.688 E7.38006
G1 X51.634 Y53.420 E7.42253
G1 X52.236 Y53.214 E7.46499
G1 X52.856 Y53.073 E7.50752
G1 X53.488 Y52.997 E7.55000
G1 X53.976 Y52.987 E7.58261
G1 X54.438 Y53.010 E7.61352
G1 X55.068 Y53.102 E7.65608
G1 X55.684 Y53.260 E7.69854
G1 X56.280 Y53.482 E7.74100
G1 X56.849 Y53.765 E7.78352
G1 X57.297 Y54.047 E7.81885
G1 X57.637 Y54.297 E7.84703
G1 X58.114 Y54.720 E7.88963
G1 X58.542 Y55.190 E7.93209
G1 X58.918 Y55.702 E7.97455
G1 X59.239 Y56.252 E8.01710
G1 X59.443 Y56.696 E8.04971
G1 X59.606 Y57.129 E8.08062
G1 X59.772 Y57.744 E8.12318
G1 X59.872 Y58.372 E8.16564
G1 X59.906 Y59.006 E8.20810
G1 X59.872 Y59.641 E8.25057
G1 X59.772 Y60.269 E8.29303
G1 X59.606 Y60.882 E8.33549
G1 X59.375 Y61.479 E8.37822
G1 X59.240 Y61.758 E8.39893
G1 X58.918 Y62.310 E8.44166
G1 X58.542 Y62.823 E8.48412
G1 X58.195 Y63.204 E8.51857
G1 X58.114 Y63.292 F15000.000
G1 X57.392 Y62.541 F15000.000
G1 F3600
G1 X57.126 Y62.797 E8.54323
G1 X56.816 Y63.042 E8.56959
G1 X56.488 Y63.261 E8.59595
G1 X55.974 Y63.535 E8.63484
G1 X55.574 Y63.699 E8.66369
G1 X55.048 Y63.857 E8.70041
G1 X54.473 Y63.959 E8.73943
G1 X54.077 Y63.991 E8.76599
G1 X53.495 Y63.979 E8.80483
G1 X53.101 Y63.933 E8.83139
G1 X52.533 Y63.808 E8.87023
G1 X52.155 Y63.685 E8.89679
G1 X51.622 Y63.452 E8.93563
G1 X51.277 Y63.259 E8.96204
G1 X50.922 Y63.019 E8.99069
G1 X50.497 Y62.669 E9.02742
G1 X50.093 Y62.248 E9.06643
G1 X49.848 Y61.938 E9.09284
G1 X49.611 Y61.580 E9.12149
G1 X49.354 Y61.094 E9.15822
G1 X49.141 Y60.551 E9.19723
G1 X49.033 Y60.170 E9.22364
G1 X48.952 Y59.749 E9.25229
G1 X48.900 Y59.204 E9.28887
G1 X48.902 Y58.773 E9.31769
G1 X48.957 Y58.229 E9.35422
G1 X49.034 Y57.840 E9.38069
G1 X49.188 Y57.320 E9.41690
G1 X49.355 Y56.916 E9.44614
G1 X49.629 Y56.403 E9.48500
G1 X49.850 Y56.072 E9.51156
G1 X50.221 Y55.620 E9.55060
G1 X50.642 Y55.215 E9.58964
G1 X50.952 Y54.971 E9.61600
G1 X51.280 Y54.752 E9.64236
G1 X51.793 Y54.477 E9.68126
G1 X52.193 Y54.314 E9.71010
G1 X52.720 Y54.156 E9.74683
G1 X53.296 Y54.053 E9.78592
G1 X53.740 Y54.021 E9.81567
G1 X54.273 Y54.033 E9.85127
G1 X54.667 Y54.080 E9.87779
G1 X55.235 Y54.205 E9.91663
G1 X55.611 Y54.327 E9.94304
G1 X56.006 Y54.493 E9.97169
G1 X56.490 Y54.753 E10.00842
G1 X56.969 Y55.087 E10.04743
G1 X57.270 Y55.344 E10.07384
G1 X57.572 Y55.649 E10.10249
G1 X57.919 Y56.075 E10.13922
G1 X58.234 Y56.566 E10.17823
G1 X58.415 Y56.921 E10.20479
G1 X58.627 Y57.462 E10.24363
G1 X58.735 Y57.845 E10.27019
G1 X58.837 Y58.417 E10.30903
G1 X58.868 Y58.811 E10.33545
G1 X58.866 Y59.240 E10.36409
G1 X58.811 Y59.787 E10.40082
G1 X58.685 Y60.357 E10.43983
G1 X58.563 Y60.735 E10.46639
G1 X58.330 Y61.268 E10.50523
G1 X58.137 Y61.612 E10.53159
G1 X57.917 Y61.941 E10.55796
G1 X57.478 Y62.458 E10.60332
G1 X57.490 Y62.897 F15000.000
G1 X57.764 Y62.904 F15000.000
G1 F3600
G1 X57.312 Y63.311 E10.63563
G1 X56.953 Y63.573 E10.65926
G1 X56.596 Y63.793 E10.68156
G1 X56.073 Y64.055 E10.71264
G1 X55.528 Y64.256 E10.74351
G1 X55.153 Y64.359 E10.76418
G1 X54.526 Y64.471 E10.79803
G1 X54.080 Y64.504 E10.82184
G1 X53.472 Y64.492 E10.85414
G1 X53.027 Y64.440 E10.87795
G1 X52.410 Y64.306 E10.91153
G1 X51.983 Y64.170 E10.93533
G1 X51.404 Y63.918 E10.96892
G1 X51.016 Y63.702 E10.99251
G1 X50.605 Y63.423 E11.01893
G1 X50.139 Y63.035 E11.05115
G1 X49.714 Y62.594 E11.08371
G1 X49.438 Y62.247 E11.10729
G1 X49.174 Y61.853 E11.13246
G1 X48.892 Y61.322 E11.16444
G1 X48.703 Y60.858 E11.19109
G1 X48.531 Y60.292 E11.22254
G1 X48.442 Y59.811 E11.24853
G1 X48.388 Y59.240 E11.27903
G1 X48.387 Y58.757 E11.30467
G1 X48.446 Y58.164 E11.33635
G1 X48.534 Y57.711 E11.36090
G1 X48.701 Y57.151 E11.39195
G1 X48.894 Y56.685 E11.41878
G1 X49.196 Y56.129 E11.45239
G1 X49.444 Y55.756 E11.47621
G1 X49.854 Y55.261 E11.51034
G1 X50.295 Y54.836 E11.54294
G1 X50.657 Y54.549 E11.56748
G1 X51.027 Y54.306 E11.59100
G1 X51.587 Y54.008 E11.62471
G1 X52.033 Y53.826 E11.65033
G1 X52.587 Y53.660 E11.68106
G1 X53.219 Y53.546 E11.71523
G1 X53.716 Y53.507 E11.74170
G1 X54.321 Y53.520 E11.77384
G1 X54.764 Y53.576 E11.79761
G1 X55.381 Y53.712 E11.83119
G1 X55.799 Y53.850 E11.85458
G1 X56.217 Y54.024 E11.87865
G1 X56.747 Y54.308 E11.91063
G1 X57.295 Y54.686 E11.94599
G1 X57.627 Y54.975 E11.96939
G1 X57.961 Y55.314 E11.99470
G1 X58.343 Y55.785 E12.02693
G1 X58.674 Y56.301 E12.05949
G1 X58.879 Y56.699 E12.08330
G1 X59.113 Y57.288 E12.11698
G1 X59.239 Y57.741 E12.14199
G1 X59.349 Y58.363 E12.17559
G1 X59.381 Y58.802 E12.19898
G1 X59.378 Y59.279 E12.22430
G1 X59.319 Y59.854 E12.25503
G1 X59.183 Y60.480 E12.28909
G1 X59.046 Y60.907 E12.31289
G1 X58.787 Y61.509 E12.34777
G1 X58.484 Y62.026 E12.37959
G1 X58.138 Y62.492 E12.41046
G1 X57.848 Y62.818 E12.43367
M104 S205 ; set temperature
M140 S55 ; set bed temperature
G1 E6.43367 F2400.00000
G92 E0
G1 Z1.300 F15000.000
G1 X57.687 Y62.824 F15000.000
G1 Z0.600 F15000.000
G1 E6.00000 F2400.00000
G1 F1080
G1 X57.396 Y63.103 E6.01688
G1 X57.056 Y63.372 E6.03504
G1 X56.695 Y63.613 E6.05319
G1 X56.144 Y63.907 E6.07933
G1 X55.591 Y64.126 E6.10425
G1 X55.137 Y64.256 E6.12399
G1 X54.559 Y64.360 E6.14859
G1 X54.088 Y64.399 E6.16838
G1 X53.470 Y64.387 E6.19423
G1 X53.030 Y64.335 E6.21281
G1 X52.428 Y64.203 E6.23857
G1 X52.016 Y64.069 E6.25673
G1 X51.615 Y63.903 E6.27488
G1 X51.065 Y63.609 E6.30102
G1 X50.575 Y63.270 E6.32594
G1 X50.222 Y62.971 E6.34531
G1 X49.914 Y62.662 E6.36356
G1 X49.518 Y62.180 E6.38969
G1 X49.196 Y61.679 E6.41462
G1 X48.979 Y61.259 E6.43440
G1 X48.754 Y60.684 E6.46026
G1 X48.634 Y60.256 E6.47884
G1 X48.526 Y59.651 E6.50460
G1 X48.491 Y59.208 E6.52318
G1 X48.503 Y58.592 E6.54896
G1 X48.557 Y58.135 E6.56823
G1 X48.687 Y57.550 E6.59333
G1 X48.821 Y57.139 E6.61144
G1 X48.987 Y56.738 E6.62959
G1 X49.277 Y56.195 E6.65535
G1 X49.524 Y55.826 E6.67393
G1 X49.914 Y55.350 E6.69969
G1 X50.228 Y55.037 E6.71827
G1 X50.711 Y54.640 E6.74445
G1 X51.238 Y54.303 E6.77063
G1 X51.632 Y54.102 E6.78916
G1 X52.177 Y53.887 E6.81366
G1 X52.631 Y53.757 E6.83345
G1 X53.244 Y53.647 E6.85952
G1 X53.742 Y53.613 E6.88038
G1 X54.299 Y53.626 E6.90371
G1 X54.737 Y53.677 E6.92217
G1 X55.309 Y53.802 E6.94667
G1 X55.749 Y53.943 E6.96604
G1 X56.152 Y54.109 E6.98429
G1 X56.703 Y54.404 E7.01042
G1 X57.192 Y54.743 E7.03534
G1 X57.545 Y55.042 E7.05471
G1 X57.853 Y55.350 E7.07296
G1 X58.250 Y55.834 E7.09915
G1 X58.587 Y56.361 E7.12533
G1 X58.784 Y56.747 E7.14349
G1 X58.950 Y57.148 E7.16164
G1 X59.132 Y57.746 E7.18782
G1 X59.242 Y58.362 E7.21401
G1 X59.277 Y58.804 E7.23258
G1 X59.265 Y59.420 E7.25835
G1 X59.214 Y59.850 E7.27650
G1 X59.129 Y60.276 E7.29466
G1 X58.948 Y60.874 E7.32084
G1 X58.697 Y61.447 E7.34702
G1 X58.481 Y61.834 E7.36555
G1 X58.147 Y62.315 E7.39005
G1 X57.774 Y62.741 E7.41378
G1 X57.288 Y62.409 F15000.000
G1 F1080
G1 X57.018 Y62.669 E7.45192
G1 X56.717 Y62.906 E7.49087
G1 X56.399 Y63.119 E7.52981
G1 X55.902 Y63.384 E7.58706
G1 X55.405 Y63.580 E7.64142
G1 X55.006 Y63.694 E7.68364
G1 X54.484 Y63.789 E7.73767
G1 X54.070 Y63.823 E7.77994
G1 X53.510 Y63.812 E7.83690
G1 X53.125 Y63.767 E7.87628
G1 X52.579 Y63.647 E7.93314
G1 X52.215 Y63.529 E7.97208
G1 X51.862 Y63.382 E8.01103
G1 X51.365 Y63.117 E8.06828
G1 X50.926 Y62.812 E8.12264
G1 X50.612 Y62.547 E8.16447
G1 X50.341 Y62.275 E8.20351
G1 X49.984 Y61.840 E8.26076
G1 X49.695 Y61.391 E8.31513
G1 X49.505 Y61.021 E8.35740
G1 X49.301 Y60.500 E8.41435
G1 X49.195 Y60.127 E8.45374
G1 X49.097 Y59.577 E8.51060
G1 X49.067 Y59.191 E8.54998
G1 X49.078 Y58.632 E8.60686
G1 X49.126 Y58.232 E8.64788
G1 X49.243 Y57.701 E8.70315
G1 X49.361 Y57.338 E8.74204
G1 X49.508 Y56.984 E8.78098
G1 X49.771 Y56.491 E8.83784
G1 X49.986 Y56.169 E8.87722
G1 X50.341 Y55.737 E8.93408
G1 X50.615 Y55.464 E8.97346
G1 X51.050 Y55.106 E9.03076
G1 X51.525 Y54.803 E9.08807
G1 X51.869 Y54.627 E9.12740
G1 X52.362 Y54.433 E9.18132
G1 X52.762 Y54.318 E9.22359
G1 X53.315 Y54.219 E9.28077
G1 X53.755 Y54.189 E9.32564
G1 X54.258 Y54.200 E9.37685
G1 X54.642 Y54.246 E9.41611
G1 X55.160 Y54.358 E9.47003
G1 X55.551 Y54.484 E9.51186
G1 X55.906 Y54.630 E9.55090
G1 X56.402 Y54.896 E9.60815
G1 X56.841 Y55.200 E9.66251
G1 X57.155 Y55.466 E9.70435
G1 X57.426 Y55.737 E9.74339
G1 X57.784 Y56.173 E9.80069
G1 X58.087 Y56.647 E9.85799
G1 X58.261 Y56.988 E9.89693
G1 X58.408 Y57.342 E9.93588
G1 X58.571 Y57.881 E9.99318
G1 X58.670 Y58.435 E10.05048
G1 X58.701 Y58.821 E10.08986
G1 X58.690 Y59.380 E10.14672
G1 X58.645 Y59.760 E10.18566
G1 X58.570 Y60.136 E10.22461
G1 X58.407 Y60.675 E10.28191
G1 X58.181 Y61.191 E10.33921
G1 X57.992 Y61.528 E10.37854
G1 X57.690 Y61.964 E10.43246
G1 X57.375 Y62.326 E10.48131
G1 X57.387 Y62.771 F15000.000
G1 X57.879 Y62.948 F15000.000
G1 F1080
G1 X57.385 Y63.397 E10.50925
G1 X56.903 Y63.742 E10.53407
G1 X56.385 Y64.034 E10.55897
G1 X55.911 Y64.242 E10.58062
G1 X55.570 Y64.363 E10.59578
G1 X54.988 Y64.512 E10.62092
G1 X54.402 Y64.598 E10.64573
G1 X53.810 Y64.622 E10.67054
G1 X53.218 Y64.583 E10.69536
G1 X52.634 Y64.481 E10.72017
G1 X52.062 Y64.319 E10.74507
G1 X51.581 Y64.127 E10.76672
G1 X51.255 Y63.970 E10.78189
G1 X50.741 Y63.660 E10.80702
G1 X50.268 Y63.303 E10.83183
G1 X49.835 Y62.898 E10.85665
G1 X49.447 Y62.449 E10.88146
G1 X49.109 Y61.963 E10.90627
G1 X48.823 Y61.441 E10.93118
G1 X48.621 Y60.965 E10.95283
G1 X48.505 Y60.622 E10.96799
G1 X48.363 Y60.038 E10.99313
G1 X48.285 Y59.451 E11.01794
G1 X48.270 Y58.858 E11.04275
G1 X48.317 Y58.267 E11.06757
G1 X48.426 Y57.684 E11.09238
G1 X48.596 Y57.115 E11.11728
G1 X48.793 Y56.636 E11.13893
G1 X48.956 Y56.313 E11.15409
G1 X49.272 Y55.802 E11.17923
G1 X49.635 Y55.334 E11.20404
G1 X50.046 Y54.906 E11.22886
G1 X50.501 Y54.523 E11.25376
G1 X50.928 Y54.232 E11.27541
G1 X51.242 Y54.050 E11.29057
G1 X51.786 Y53.797 E11.31571
G1 X52.347 Y53.605 E11.34052
G1 X52.925 Y53.473 E11.36536
G1 X53.515 Y53.402 E11.39023
G1 X54.033 Y53.393 E11.41189
G1 X54.394 Y53.413 E11.42705
G1 X54.988 Y53.500 E11.45219
G1 X55.563 Y53.647 E11.47700
G1 X56.131 Y53.859 E11.50238
G1 X56.375 Y53.973 E11.51366
G1 X56.903 Y54.271 E11.53904
G1 X57.385 Y54.616 E11.56385
G1 X57.829 Y55.009 E11.58867
G1 X58.228 Y55.447 E11.61348
G1 X58.579 Y55.925 E11.63829
G1 X58.878 Y56.439 E11.66319
G1 X59.092 Y56.910 E11.68485
G1 X59.218 Y57.249 E11.70001
G1 X59.375 Y57.829 E11.72515
G1 X59.468 Y58.414 E11.74996
G1 X59.500 Y59.006 E11.77477
G1 X59.468 Y59.612 E11.80015
G1 X59.432 Y59.879 E11.81144
G1 X59.305 Y60.472 E11.83681
G1 X59.120 Y61.035 E11.86163
G1 X58.877 Y61.576 E11.88644
G1 X58.579 Y62.088 E11.91125
G1 X58.228 Y62.565 E11.93607
G1 X57.960 Y62.859 E11.95271
G1 X58.305 Y63.336 F15000.000
G1 F1080
G1 X57.745 Y63.848 E12.02989
G1 X57.213 Y64.228 E12.09638
G1 X56.643 Y64.550 E12.16296
G1 X56.124 Y64.778 E12.22066
G1 X55.738 Y64.915 E12.26227
G1 X55.102 Y65.078 E12.32910
G1 X54.455 Y65.172 E12.39559
G1 X53.802 Y65.198 E12.46208
G1 X53.150 Y65.155 E12.52857
G1 X52.506 Y65.043 E12.59506
G1 X51.876 Y64.864 E12.66165
G1 X51.349 Y64.655 E12.71935
G1 X50.981 Y64.476 E12.76096
G1 X50.418 Y64.138 E12.82779
G1 X49.896 Y63.744 E12.89428
G1 X49.419 Y63.297 E12.96077
G1 X48.992 Y62.803 E13.02726
G1 X48.619 Y62.266 E13.09375
G1 X48.304 Y61.692 E13.16033
G1 X48.083 Y61.170 E13.21803
G1 X47.951 Y60.783 E13.25964
G1 X47.797 Y60.144 E13.32647
G1 X47.711 Y59.496 E13.39296
G1 X47.694 Y58.843 E13.45946
G1 X47.745 Y58.191 E13.52595
G1 X47.865 Y57.549 E13.59244
G1 X48.053 Y56.922 E13.65902
G1 X48.269 Y56.397 E13.71672
G1 X48.452 Y56.032 E13.75833
G1 X48.798 Y55.473 E13.82516
G1 X49.199 Y54.957 E13.89165
G1 X49.652 Y54.486 E13.95814
G1 X50.153 Y54.064 E14.02472
G1 X50.621 Y53.745 E14.08243
G1 X50.975 Y53.539 E14.12404
G1 X51.571 Y53.262 E14.19087
G1 X52.189 Y53.050 E14.25736
G1 X52.827 Y52.905 E14.32390
G1 X53.476 Y52.827 E14.39043
G1 X54.043 Y52.817 E14.44814
G1 X54.452 Y52.840 E14.48974
G1 X55.102 Y52.935 E14.55657
G1 X55.735 Y53.097 E14.62306
G1 X56.353 Y53.327 E14.69014
G1 X56.639 Y53.460 E14.72222
G1 X57.213 Y53.785 E14.78930
G1 X57.745 Y54.165 E14.85579
G1 X58.233 Y54.599 E14.92228
G1 X58.674 Y55.082 E14.98877
G1 X59.061 Y55.609 E15.05526
G1 X59.390 Y56.174 E15.12185
G1 X59.625 Y56.690 E15.17955
G1 X59.767 Y57.074 E15.22116
G1 X59.938 Y57.708 E15.28799
G1 X60.042 Y58.354 E15.35448
G1 X60.076 Y59.006 E15.42097
G1 X60.041 Y59.665 E15.48805
G1 X60.000 Y59.977 E15.52013
G1 X59.862 Y60.622 E15.58721
G1 X59.658 Y61.243 E15.65370
G1 X59.390 Y61.839 E15.72019
G1 X59.061 Y62.404 E15.78668
G1 X58.674 Y62.931 E15.85317
G1 X58.385 Y63.247 E15.89671
