; generated by Slic3r 1.3.1-dev on 2019-07-19 at 09:34:26

; external perimeters extrusion width = 0.44mm (2.61mm^3/s)
; perimeters extrusion width = 0.40mm (5.20mm^3/s)
; infill extrusion width = 0.50mm (8.93mm^3/s)
; solid infill extrusion width = 0.56mm (3.02mm^3/s)
; top infill extrusion width = 0.38mm (1.54mm^3/s)

M107
M104 S230 ; set temperature
G28 ; home all axes
G1 X150 Y150 Z50 F10000
; Filament gcode
; layer 1
M109 S230 ; set temperature and wait for it to be reached
G21 ; set units to millimeters
G90 ; use absolute coordinates
M82 ; use absolute distances for extrusion
G92 E0
G92 E0
G1 Z1.350 F15000.000
G1 X71.094 Y44.788 F15000.000
G1 F745.449
G1 X71.377 Y44.352 E0.07560
G1 X71.686 Y43.974 E0.14663
G1 X72.057 Y43.610 E0.22223
G1 X72.467 Y43.292 E0.29782
G1 X72.939 Y43.007 E0.37799
G1 X73.412 Y42.793 E0.45358
G1 X73.907 Y42.634 E0.52918
G1 X74.386 Y42.537 E0.60021
G1 X74.903 Y42.491 E0.67581
G1 X75.454 Y42.507 E0.75597
G1 X75.968 Y42.583 E0.83157
G1 X76.470 Y42.716 E0.90717
G1 X76.925 Y42.893 E0.97820
G1 X77.385 Y43.134 E1.05380
G1 X77.840 Y43.445 E1.13396
G1 X78.231 Y43.787 E1.20956
G1 X78.581 Y44.171 E1.28515
G1 X78.868 Y44.566 E1.35619
G1 X79.125 Y45.017 E1.43178
G1 X79.329 Y45.495 E1.50738
G1 X79.477 Y45.993 E1.58298
G1 X79.571 Y46.536 E1.66314
G1 X79.599 Y47.023 E1.73417
G1 X79.571 Y47.542 E1.80977
G1 X79.484 Y48.054 E1.88537
G1 X79.339 Y48.553 E1.96096
G1 X79.125 Y49.061 E2.04113
G1 X78.868 Y49.512 E2.11673
G1 X78.561 Y49.931 E2.19232
G1 X78.231 Y50.291 E2.26335
G1 X77.840 Y50.633 E2.33895
G1 X77.353 Y50.960 E2.42427
G1 X76.925 Y51.184 E2.49468
G1 X76.440 Y51.371 E2.57028
G1 X75.968 Y51.495 E2.64131
G1 X75.454 Y51.571 E2.71691
G1 X74.934 Y51.588 E2.79250
G1 X74.417 Y51.545 E2.86810
G1 X73.877 Y51.436 E2.94827
G1 X73.413 Y51.285 E3.01929
G1 X72.939 Y51.071 E3.09489
G1 X72.467 Y50.786 E3.17506
G1 X72.057 Y50.467 E3.25065
G1 X71.686 Y50.104 E3.32625
G1 X71.377 Y49.726 E3.39728
G1 X71.094 Y49.290 E3.47288
G1 X70.864 Y48.825 E3.54848
G1 X70.687 Y48.336 E3.62407
G1 X70.563 Y47.799 E3.70424
G1 X70.505 Y47.283 E3.77984
G1 X70.507 Y46.763 E3.85543
G1 X70.568 Y46.248 E3.93103
G1 X70.678 Y45.772 E4.00206
G1 X70.851 Y45.282 E4.07766
G1 X71.066 Y44.841 E4.14910
G92 E0
G1 X74.788 Y46.800 F15000.000
G1 F745.449
G1 X74.884 Y46.727 E0.01241
G1 X74.974 Y46.692 E0.02238
G1 X75.119 Y46.693 E0.03727
G1 X75.264 Y46.759 E0.05375
G1 X75.346 Y46.848 E0.06616
G1 X75.400 Y46.999 E0.08265
G1 X75.381 Y47.158 E0.09913
G1 X75.322 Y47.262 E0.11155
G1 X75.195 Y47.360 E0.12803
G1 X75.079 Y47.391 E0.14044
G1 X74.959 Y47.380 E0.15285
G1 X74.849 Y47.330 E0.16527
G1 X74.741 Y47.213 E0.18175
G1 X74.701 Y47.099 E0.19416
G1 X74.701 Y46.979 E0.20657
G1 X74.752 Y46.848 E0.22106
G1 X74.266 Y46.320 F15000.000
G1 F745.449
G1 X74.353 Y46.236 E0.23357
G1 X74.553 Y46.099 E0.25852
G1 X74.663 Y46.049 E0.27102
G1 X74.891 Y45.989 E0.29526
G1 X75.031 Y45.977 E0.30980
G1 X75.260 Y45.998 E0.33343
G1 X75.490 Y46.072 E0.35839
G1 X75.697 Y46.198 E0.38335
G1 X75.871 Y46.366 E0.40830
G1 X75.942 Y46.464 E0.42080
G1 X76.049 Y46.682 E0.44576
G1 X76.104 Y46.918 E0.47072
G1 X76.104 Y47.160 E0.49568
G1 X76.049 Y47.396 E0.52064
G1 X76.002 Y47.508 E0.53314
G1 X75.871 Y47.711 E0.55809
G1 X75.697 Y47.880 E0.58305
G1 X75.490 Y48.005 E0.60801
G1 X75.377 Y48.049 E0.62051
G1 X75.140 Y48.097 E0.64547
G1 X75.018 Y48.101 E0.65797
G1 X74.779 Y48.066 E0.68293
G1 X74.553 Y47.979 E0.70789
G1 X74.353 Y47.842 E0.73284
G1 X74.266 Y47.757 E0.74534
G1 X74.124 Y47.561 E0.77030
G1 X74.029 Y47.338 E0.79526
G1 X73.988 Y47.100 E0.82022
G1 X74.002 Y46.858 E0.84518
G1 X74.029 Y46.740 E0.85768
G1 X74.124 Y46.516 E0.88263
G1 X74.228 Y46.367 E0.90142
G1 X73.743 Y45.841 F15000.000
G1 F745.449
G1 X74.049 Y45.576 E0.94304
G1 X74.222 Y45.472 E0.96388
G1 X74.406 Y45.388 E0.98473
G1 X74.791 Y45.286 E1.02580
G1 X75.013 Y45.268 E1.04869
G1 X75.401 Y45.302 E1.08880
G1 X75.785 Y45.427 E1.13042
G1 X76.131 Y45.636 E1.17204
G1 X76.283 Y45.768 E1.19289
G1 X76.539 Y46.081 E1.23451
G1 X76.717 Y46.444 E1.27613
G1 X76.809 Y46.837 E1.31775
G1 X76.809 Y47.241 E1.35937
G1 X76.717 Y47.634 E1.40099
G1 X76.539 Y47.997 E1.44261
G1 X76.420 Y48.160 E1.46345
G1 X76.283 Y48.309 E1.48430
G1 X75.964 Y48.556 E1.52591
G1 X75.596 Y48.724 E1.56753
G1 X75.200 Y48.804 E1.60915
G1 X74.998 Y48.810 E1.63000
G1 X74.598 Y48.752 E1.67162
G1 X74.222 Y48.606 E1.71324
G1 X73.888 Y48.378 E1.75486
G1 X73.743 Y48.237 E1.77570
G1 X73.506 Y47.910 E1.81732
G1 X73.349 Y47.538 E1.85894
G1 X73.280 Y47.140 E1.90056
G1 X73.303 Y46.737 E1.94218
G1 X73.349 Y46.540 E1.96302
G1 X73.506 Y46.168 E2.00464
G1 X73.705 Y45.887 E2.04009
G92 E0
G1 X78.119 Y49.012 F15000.000
G1 F3600
G1 X77.874 Y49.349 E0.03789
G1 X77.592 Y49.656 E0.07578
G1 X77.277 Y49.929 E0.11367
G1 X76.933 Y50.164 E0.15156
G1 X76.565 Y50.359 E0.18944
G1 X76.176 Y50.510 E0.22733
G1 X75.773 Y50.616 E0.26522
G1 X75.361 Y50.675 E0.30311
G1 X74.944 Y50.687 E0.34100
G1 X74.529 Y50.651 E0.37889
G1 X74.121 Y50.568 E0.41678
G1 X73.725 Y50.440 E0.45467
G1 X73.346 Y50.267 E0.49255
G1 X72.989 Y50.051 E0.53044
G1 X72.659 Y49.797 E0.56833
G1 X72.360 Y49.507 E0.60622
G1 X72.096 Y49.184 E0.64411
G1 X71.871 Y48.833 E0.68200
G1 X71.687 Y48.460 E0.71989
G1 X71.547 Y48.067 E0.75778
G1 X71.453 Y47.661 E0.79567
G1 X71.405 Y47.247 E0.83355
G1 X71.405 Y46.831 E0.87144
G1 X71.453 Y46.417 E0.90933
G1 X71.547 Y46.011 E0.94722
G1 X71.687 Y45.618 E0.98511
G1 X71.871 Y45.244 E1.02300
G1 X72.096 Y44.894 E1.06089
G1 X72.360 Y44.571 E1.09878
G1 X72.659 Y44.281 E1.13667
G1 X72.989 Y44.026 E1.17455
G1 X73.346 Y43.811 E1.21244
G1 X73.725 Y43.638 E1.25033
G1 X74.121 Y43.509 E1.28822
G1 X74.528 Y43.427 E1.32603
G1 X74.964 Y43.392 E1.36573
G1 X75.361 Y43.403 E1.40187
G1 X75.773 Y43.462 E1.43976
G1 X76.176 Y43.568 E1.47765
G1 X76.565 Y43.719 E1.51554
G1 X76.933 Y43.914 E1.55343
G1 X77.277 Y44.149 E1.59132
G1 X77.592 Y44.422 E1.62921
G1 X77.874 Y44.729 E1.66710
G1 X78.119 Y45.066 E1.70499
G1 X78.324 Y45.429 E1.74287
G1 X78.486 Y45.813 E1.78076
G1 X78.603 Y46.212 E1.81865
G1 X78.674 Y46.623 E1.85654
G1 X78.698 Y47.039 E1.89443
G1 X78.674 Y47.455 E1.93232
G1 X78.603 Y47.865 E1.97021
G1 X78.486 Y48.265 E2.00810
G1 X78.324 Y48.649 E2.04599
G1 X78.148 Y48.960 E2.07842
G1 X78.119 Y49.012 F15000.000
G1 X77.592 Y48.674 F15000.000
G1 F745.449
G1 X77.389 Y48.953 E2.10981
G1 X77.156 Y49.207 E2.14120
G1 X76.895 Y49.433 E2.17259
G1 X76.610 Y49.628 E2.20398
G1 X76.305 Y49.789 E2.23537
G1 X75.983 Y49.914 E2.26676
G1 X75.649 Y50.002 E2.29815
G1 X75.307 Y50.051 E2.32954
G1 X74.962 Y50.061 E2.36093
G1 X74.618 Y50.032 E2.39232
G1 X74.280 Y49.963 E2.42371
G1 X73.952 Y49.856 E2.45510
G1 X73.638 Y49.713 E2.48650
G1 X73.342 Y49.535 E2.51789
G1 X73.069 Y49.324 E2.54928
G1 X72.821 Y49.083 E2.58067
G1 X72.603 Y48.816 E2.61206
G1 X72.416 Y48.526 E2.64345
G1 X72.264 Y48.216 E2.67484
G1 X72.148 Y47.891 E2.70623
G1 X72.069 Y47.554 E2.73762
G1 X72.030 Y47.212 E2.76901
G1 X72.030 Y46.866 E2.80040
G1 X72.069 Y46.523 E2.83179
G1 X72.148 Y46.187 E2.86318
G1 X72.264 Y45.862 E2.89457
G1 X72.416 Y45.552 E2.92596
G1 X72.603 Y45.262 E2.95735
G1 X72.821 Y44.994 E2.98874
G1 X73.069 Y44.754 E3.02014
G1 X73.342 Y44.543 E3.05152
G1 X73.638 Y44.365 E3.08292
G1 X73.952 Y44.221 E3.11431
G1 X74.280 Y44.115 E3.14570
G1 X74.616 Y44.047 E3.17687
G1 X74.980 Y44.017 E3.21007
G1 X75.307 Y44.026 E3.23986
G1 X75.649 Y44.076 E3.27125
G1 X75.983 Y44.163 E3.30264
G1 X76.305 Y44.289 E3.33403
G1 X76.610 Y44.450 E3.36542
G1 X76.895 Y44.645 E3.39681
G1 X77.156 Y44.871 E3.42820
G1 X77.389 Y45.125 E3.45959
G1 X77.592 Y45.404 E3.49098
G1 X77.762 Y45.705 E3.52237
G1 X77.896 Y46.023 E3.55376
G1 X77.994 Y46.354 E3.58515
G1 X78.052 Y46.694 E3.61654
G1 X78.072 Y47.039 E3.64793
G1 X78.052 Y47.384 E3.67932
G1 X77.994 Y47.724 E3.71071
G1 X77.896 Y48.055 E3.74211
G1 X77.762 Y48.373 E3.77350
G1 X77.622 Y48.621 E3.79943
G1 X77.066 Y48.335 F15000.000
G1 F745.449
G1 X76.905 Y48.557 E3.82432
G1 X76.720 Y48.758 E3.84922
G1 X76.513 Y48.938 E3.87411
G1 X76.287 Y49.092 E3.89900
G1 X76.045 Y49.220 E3.92389
G1 X75.790 Y49.319 E3.94878
G1 X75.525 Y49.389 E3.97368
G1 X75.254 Y49.428 E3.99857
G1 X74.980 Y49.436 E4.02346
G1 X74.707 Y49.412 E4.04835
G1 X74.439 Y49.358 E4.07325
G1 X74.179 Y49.273 E4.09814
G1 X73.930 Y49.159 E4.12303
G1 X73.695 Y49.018 E4.14792
G1 X73.479 Y48.851 E4.17281
G1 X73.282 Y48.660 E4.19771
G1 X73.109 Y48.448 E4.22260
G1 X72.961 Y48.218 E4.24749
G1 X72.840 Y47.972 E4.27238
G1 X72.748 Y47.714 E4.29728
G1 X72.686 Y47.448 E4.32217
G1 X72.655 Y47.176 E4.34706
G1 X72.655 Y46.902 E4.37195
G1 X72.686 Y46.630 E4.39685
G1 X72.748 Y46.363 E4.42174
G1 X72.840 Y46.106 E4.44663
G1 X72.961 Y45.860 E4.47152
G1 X73.109 Y45.630 E4.49641
G1 X73.282 Y45.418 E4.52131
G1 X73.479 Y45.227 E4.54620
G1 X73.695 Y45.060 E4.57109
G1 X73.930 Y44.918 E4.59598
G1 X74.179 Y44.805 E4.62088
G1 X74.439 Y44.720 E4.64577
G1 X74.704 Y44.666 E4.67031
G1 X74.996 Y44.643 E4.69701
G1 X75.254 Y44.650 E4.72043
G1 X75.525 Y44.689 E4.74533
G1 X75.790 Y44.759 E4.77022
G1 X76.045 Y44.858 E4.79511
G1 X76.287 Y44.986 E4.82000
G1 X76.513 Y45.140 E4.84490
G1 X76.720 Y45.319 E4.86979
G1 X76.905 Y45.521 E4.89468
G1 X77.066 Y45.743 E4.91957
G1 X77.200 Y45.981 E4.94446
G1 X77.307 Y46.233 E4.96936
G1 X77.384 Y46.496 E4.99425
G1 X77.431 Y46.766 E5.01914
G1 X77.446 Y47.039 E5.04403
G1 X77.431 Y47.312 E5.06893
G1 X77.384 Y47.582 E5.09382
G1 X77.307 Y47.845 E5.11871
G1 X77.200 Y48.097 E5.14360
G1 X77.095 Y48.283 E5.16304
M104 S205 ; set temperature
G1 Z1.600 F15000.000
G92 E0
G1 X74.908 Y49.678 F15000.000
G1 F1096.26
G1 X75.338 Y49.670 E0.02359
G1 X75.637 Y49.627 E0.04013
G1 X75.928 Y49.550 E0.05666
G1 X76.209 Y49.441 E0.07320
G1 X76.476 Y49.300 E0.08974
G1 X76.695 Y49.151 E0.10428
G1 X73.406 Y49.151 E0.28467
G1 X73.256 Y49.035 E0.29509
G1 X73.040 Y48.824 E0.31163
G1 X72.875 Y48.623 E0.32591
G1 X77.220 Y48.623 E0.56428
G1 X77.334 Y48.467 E0.57488
G1 X77.528 Y48.095 E0.59787
G1 X72.567 Y48.095 E0.87003
G1 X72.451 Y47.783 E0.88828
G1 X72.401 Y47.567 E0.90042
G1 X77.696 Y47.567 E1.19088
G1 X77.736 Y47.340 E1.20354
G1 X77.753 Y47.040 E1.22004
G1 X72.349 Y47.040 E1.51648
G1 X72.349 Y46.888 E1.52479
G1 X72.401 Y46.512 E1.54563
G1 X77.697 Y46.512 E1.83611
G1 X77.599 Y46.152 E1.85658
G1 X77.529 Y45.984 E1.86656
G1 X72.566 Y45.984 E2.13878
G1 X72.682 Y45.748 E2.15322
G1 X72.874 Y45.456 E2.17238
G1 X77.221 Y45.456 E2.41081
G1 X76.953 Y45.145 E2.43335
G1 X76.697 Y44.929 E2.45175
G1 X73.405 Y44.929 E2.63233
G1 X73.753 Y44.703 E2.65507
G1 X74.027 Y44.578 E2.67161
G1 X74.314 Y44.485 E2.68815
G1 X74.601 Y44.427 E2.70424
G1 X75.086 Y44.401 E2.73090
G92 E0
G1 X77.647 Y48.663 F15000.000
G1 F822.191
G1 X77.422 Y48.980 E0.01397
G1 X77.185 Y49.237 E0.02657
G1 X76.921 Y49.467 E0.03917
G1 X76.632 Y49.664 E0.05177
G1 X76.322 Y49.828 E0.06437
G1 X75.996 Y49.955 E0.07697
G1 X75.658 Y50.044 E0.08957
G1 X75.311 Y50.093 E0.10217
G1 X74.961 Y50.103 E0.11478
G1 X74.612 Y50.073 E0.12738
G1 X74.269 Y50.004 E0.13998
G1 X73.936 Y49.896 E0.15258
G1 X73.618 Y49.750 E0.16518
G1 X73.318 Y49.570 E0.17778
G1 X73.041 Y49.356 E0.19038
G1 X72.790 Y49.112 E0.20298
G1 X72.568 Y48.841 E0.21558
G1 X72.379 Y48.546 E0.22819
G1 X72.225 Y48.232 E0.24079
G1 X72.107 Y47.903 E0.25339
G1 X72.028 Y47.562 E0.26599
G1 X71.988 Y47.214 E0.27859
G1 X71.988 Y46.864 E0.29119
G1 X72.028 Y46.516 E0.30379
G1 X72.107 Y46.175 E0.31639
G1 X72.225 Y45.845 E0.32900
G1 X72.377 Y45.536 E0.34139
G1 X72.599 Y45.199 E0.35593
G1 X72.790 Y44.966 E0.36679
G1 X73.041 Y44.722 E0.37939
G1 X73.318 Y44.508 E0.39199
G1 X73.618 Y44.327 E0.40459
G1 X73.936 Y44.182 E0.41719
G1 X74.269 Y44.074 E0.42979
G1 X74.607 Y44.005 E0.44219
G1 X75.010 Y43.976 E0.45673
G1 X75.311 Y43.984 E0.46758
G1 X75.658 Y44.034 E0.48019
G1 X75.996 Y44.123 E0.49279
G1 X76.322 Y44.250 E0.50539
G1 X76.632 Y44.414 E0.51799
G1 X76.921 Y44.611 E0.53059
G1 X77.185 Y44.840 E0.54319
G1 X77.422 Y45.098 E0.55579
G1 X77.628 Y45.381 E0.56839
G1 X77.800 Y45.686 E0.58100
G1 X77.936 Y46.009 E0.59360
G1 X78.035 Y46.345 E0.60620
G1 X78.094 Y46.689 E0.61880
G1 X78.114 Y47.039 E0.63140
G1 X78.094 Y47.388 E0.64400
G1 X78.036 Y47.728 E0.65640
G1 X77.917 Y48.114 E0.67094
G1 X77.800 Y48.392 E0.68179
G1 X77.676 Y48.611 E0.69086
G1 X77.948 Y48.833 F15000.000
G1 F822.191
G1 X77.691 Y49.199 E0.70696
G1 X77.427 Y49.486 E0.72099
G1 X77.133 Y49.741 E0.73502
G1 X76.811 Y49.961 E0.74904
G1 X76.466 Y50.143 E0.76307
G1 X76.103 Y50.285 E0.77710
G1 X75.726 Y50.384 E0.79112
G1 X75.341 Y50.439 E0.80515
G1 X74.951 Y50.450 E0.81918
G1 X74.563 Y50.417 E0.83321
G1 X74.181 Y50.339 E0.84723
G1 X73.811 Y50.219 E0.86126
G1 X73.456 Y50.057 E0.87529
G1 X73.122 Y49.856 E0.88931
G1 X72.814 Y49.618 E0.90334
G1 X72.534 Y49.346 E0.91737
G1 X72.288 Y49.045 E0.93140
G1 X72.077 Y48.717 E0.94542
G1 X71.905 Y48.367 E0.95945
G1 X71.774 Y48.000 E0.97348
G1 X71.686 Y47.621 E0.98750
G1 X71.642 Y47.234 E1.00153
G1 X71.642 Y46.844 E1.01556
G1 X71.686 Y46.457 E1.02958
G1 X71.774 Y46.077 E1.04361
G1 X71.905 Y45.710 E1.05764
G1 X72.076 Y45.364 E1.07154
G1 X72.320 Y44.994 E1.08751
G1 X72.534 Y44.731 E1.09971
G1 X72.814 Y44.460 E1.11374
G1 X73.122 Y44.222 E1.12776
G1 X73.456 Y44.021 E1.14179
G1 X73.811 Y43.859 E1.15582
G1 X74.181 Y43.738 E1.16984
G1 X74.559 Y43.662 E1.18374
G1 X75.002 Y43.629 E1.19971
G1 X75.341 Y43.639 E1.21191
G1 X75.726 Y43.694 E1.22594
G1 X76.103 Y43.793 E1.23997
G1 X76.466 Y43.935 E1.25399
G1 X76.811 Y44.116 E1.26802
G1 X77.133 Y44.336 E1.28205
G1 X77.427 Y44.592 E1.29608
G1 X77.691 Y44.879 E1.31010
G1 X77.920 Y45.194 E1.32413
G1 X78.111 Y45.533 E1.33816
G1 X78.263 Y45.892 E1.35218
G1 X78.373 Y46.266 E1.36621
G1 X78.439 Y46.650 E1.38024
G1 X78.461 Y47.039 E1.39427
G1 X78.439 Y47.428 E1.40829
G1 X78.373 Y47.808 E1.42219
G1 X78.243 Y48.232 E1.43816
G1 X78.111 Y48.545 E1.45036
G1 X77.978 Y48.781 E1.46014
G1 X78.267 Y49.014 F15000.000
G1 F1080
G1 X77.975 Y49.431 E1.48062
G1 X77.683 Y49.749 E1.49795
G1 X77.357 Y50.032 E1.51528
G1 X77.000 Y50.276 E1.53261
G1 X76.619 Y50.477 E1.54994
G1 X76.217 Y50.634 E1.56727
G1 X75.799 Y50.743 E1.58460
G1 X75.372 Y50.805 E1.60193
G1 X74.941 Y50.817 E1.61926
G1 X74.511 Y50.780 E1.63659
G1 X74.088 Y50.694 E1.65392
G1 X73.677 Y50.561 E1.67125
G1 X73.285 Y50.382 E1.68858
G1 X72.915 Y50.159 E1.70591
G1 X72.574 Y49.895 E1.72324
G1 X72.264 Y49.595 E1.74057
G1 X71.991 Y49.261 E1.75790
G1 X71.758 Y48.897 E1.77523
G1 X71.567 Y48.510 E1.79255
G1 X71.422 Y48.104 E1.80988
G1 X71.324 Y47.683 E1.82721
G1 X71.275 Y47.255 E1.84454
G1 X71.275 Y46.823 E1.86187
G1 X71.324 Y46.394 E1.87920
G1 X71.422 Y45.974 E1.89653
G1 X71.567 Y45.568 E1.91386
G1 X71.757 Y45.182 E1.93114
G1 X72.024 Y44.776 E1.95063
G1 X72.264 Y44.483 E1.96584
G1 X72.574 Y44.182 E1.98317
G1 X72.915 Y43.919 E2.00050
G1 X73.285 Y43.696 E2.01783
G1 X73.677 Y43.517 E2.03515
G1 X74.088 Y43.383 E2.05248
G1 X74.509 Y43.298 E2.06976
G1 X74.994 Y43.262 E2.08925
G1 X75.372 Y43.273 E2.10446
G1 X75.799 Y43.335 E2.12179
G1 X76.217 Y43.444 E2.13912
G1 X76.619 Y43.601 E2.15645
G1 X77.000 Y43.802 E2.17378
G1 X77.357 Y44.046 E2.19111
G1 X77.683 Y44.328 E2.20844
G1 X77.975 Y44.646 E2.22577
G1 X78.228 Y44.995 E2.24310
G1 X78.441 Y45.371 E2.26043
G1 X78.609 Y45.769 E2.27776
G1 X78.730 Y46.183 E2.29508
G1 X78.804 Y46.608 E2.31241
G1 X78.828 Y47.039 E2.32974
G1 X78.804 Y47.470 E2.34707
G1 X78.730 Y47.894 E2.36435
G1 X78.588 Y48.358 E2.38384
G1 X78.441 Y48.707 E2.39905
G1 X78.297 Y48.961 E2.41080
G1 X78.188 Y49.016 F15000.000
G1 Z1.850 F15000.000
G1 X77.689 Y47.104 F15000.000
G1 F1097.4
G1 X77.672 Y46.674 E2.43441
G1 X77.621 Y46.377 E2.45094
G1 X77.536 Y46.088 E2.46748
G1 X77.418 Y45.810 E2.48402
G1 X77.270 Y45.548 E2.50055
G1 X77.162 Y45.398 E2.51068
G1 X77.162 Y48.680 E2.69065
G1 X76.889 Y48.996 E2.71356
G1 X76.634 Y49.212 E2.73190
G1 X76.634 Y44.865 E2.97031
G1 X76.412 Y44.714 E2.98503
G1 X76.106 Y44.558 E3.00388
G1 X76.106 Y49.520 E3.27602
G1 X75.865 Y49.614 E3.29023
G1 X75.578 Y49.689 E3.30646
G1 X75.578 Y44.389 E3.59717
G1 X75.275 Y44.344 E3.61401
G1 X75.051 Y44.338 E3.62629
G1 X75.051 Y49.740 E3.92256
G1 X74.973 Y49.742 E3.92681
G1 X74.523 Y49.686 E3.95169
G1 X74.523 Y44.392 E4.24205
G1 X74.377 Y44.421 E4.25020
