; generated by Slic3r 1.3.1-dev on 2019-05-16 at 16:49:47

; external perimeters extrusion width = 1.10mm (8.39mm^3/s)
; perimeters extrusion width = 0.40mm (6.04mm^3/s)
; infill extrusion width = 1.25mm (28.45mm^3/s)
; solid infill extrusion width = 1.40mm (9.62mm^3/s)
; top infill extrusion width = 0.45mm (2.22mm^3/s)

M107
M190 S80 ; set bed temperature and wait for it to be reached
M104 S230 ; set temperature
G28 ; home all axes
G1 X150 Y150 Z50 F10000
; Filament gcode
; layer 1
M109 S230 ; set temperature and wait for it to be reached
G21 ; set units to millimeters
G90 ; use absolute coordinates
M82 ; use absolute distances for extrusion
G92 E0
G92 E0
G1 Z0.300 F15000.000
G1 X139.613 Y155.142 F15000.000
G1 F3600
G1 X139.812 Y154.988 E0.03139
G1 X139.997 Y154.885 E0.05777
G1 X140.236 Y154.796 E0.08957
G1 X140.458 Y154.753 E0.11774
G1 X140.648 Y154.618 E0.14675
G1 X140.762 Y154.423 E0.17492
G1 X140.925 Y154.226 E0.20686
G1 X141.083 Y154.086 E0.23316
G1 X141.294 Y153.949 E0.26460
G1 X141.568 Y153.835 E0.30160
G1 X141.776 Y153.786 E0.32824
G1 X142.001 Y153.768 E0.35639
G1 X142.205 Y153.655 E0.38541
G1 X142.340 Y153.475 E0.41352
G1 X142.493 Y153.324 E0.44033
G1 X142.735 Y153.153 E0.47731
G1 X142.963 Y153.047 E0.50869
G1 X143.166 Y152.988 E0.53508
G1 X143.420 Y152.955 E0.56700
G1 X143.645 Y152.962 E0.59505
G1 X143.860 Y152.872 E0.62406
G1 X144.014 Y152.708 E0.65218
G1 X144.218 Y152.552 E0.68417
G1 X144.403 Y152.451 E0.71047
G1 X144.641 Y152.364 E0.74207
G1 X144.931 Y152.314 E0.77888
G1 X145.146 Y152.312 E0.80558
G1 X145.369 Y152.345 E0.83371
G1 X145.592 Y152.280 E0.86272
G1 X145.764 Y152.134 E0.89083
G1 X145.947 Y152.021 E0.91764
G1 X146.221 Y151.908 E0.95463
G1 X146.425 Y151.862 E0.98065
G1 X146.679 Y151.844 E1.01243
G1 X146.933 Y151.868 E1.04425
G1 X147.151 Y151.924 E1.07236
G1 X147.380 Y151.885 E1.10138
G1 X147.567 Y151.760 E1.12953
G1 X147.800 Y151.653 E1.16148
G1 X148.003 Y151.595 E1.18778
G1 X148.251 Y151.563 E1.21897
G1 X148.549 Y151.579 E1.25622
G1 X148.758 Y151.625 E1.28289
G1 X148.968 Y151.706 E1.31101
G1 X149.201 Y151.693 E1.34003
G1 X149.401 Y151.589 E1.36813
G1 X149.644 Y151.509 E1.40014
G1 X149.852 Y151.475 E1.42644
G1 X150.104 Y151.471 E1.45779
G1 X150.397 Y151.520 E1.49484
G1 X150.599 Y151.589 E1.52157
G1 X150.799 Y151.693 E1.54967
G1 X151.032 Y151.706 E1.57869
G1 X151.242 Y151.626 E1.60678
G1 X151.452 Y151.579 E1.63361
G1 X151.748 Y151.563 E1.67059
G1 X151.997 Y151.595 E1.70194
G1 X152.200 Y151.653 E1.72830
G1 X152.433 Y151.760 E1.76018
G1 X152.620 Y151.885 E1.78833
G1 X152.849 Y151.924 E1.81734
G1 X153.068 Y151.867 E1.84549
G1 X153.323 Y151.844 E1.87744
G1 X153.533 Y151.856 E1.90376
G1 X153.778 Y151.908 E1.93497
G1 X154.054 Y152.021 E1.97214
G1 X154.236 Y152.134 E1.99881
G1 X154.408 Y152.280 E2.02698
G1 X154.631 Y152.345 E2.05600
G1 X154.854 Y152.312 E2.08412
G1 X155.069 Y152.314 E2.11092
G1 X155.361 Y152.364 E2.14790
G1 X155.559 Y152.434 E2.17402
G1 X155.783 Y152.553 E2.20563
G1 X155.986 Y152.708 E2.23750
G1 X156.140 Y152.873 E2.26564
G1 X156.355 Y152.962 E2.29465
G1 X156.580 Y152.955 E2.32274
G1 X156.835 Y152.988 E2.35475
G1 X157.037 Y153.047 E2.38106
G1 X157.263 Y153.152 E2.41217
G1 X157.508 Y153.324 E2.44945
G1 X157.660 Y153.474 E2.47612
G1 X157.795 Y153.655 E2.50429
G1 X157.999 Y153.768 E2.53331
G1 X158.224 Y153.786 E2.56147
G1 X158.433 Y153.835 E2.58823
G1 X158.706 Y153.949 E2.62521
G1 X158.917 Y154.086 E2.65654
G1 X159.075 Y154.226 E2.68289
G1 X159.238 Y154.423 E2.71481
G1 X159.352 Y154.618 E2.74295
G1 X159.542 Y154.753 E2.77196
G1 X159.763 Y154.796 E2.80010
G1 X160.004 Y154.885 E2.83208
G1 X160.188 Y154.988 E2.85837
G1 X160.386 Y155.141 E2.88959
G1 X160.586 Y155.363 E2.92680
G1 X160.700 Y155.543 E2.95343
G1 X160.792 Y155.749 E2.98160
G1 X160.965 Y155.904 E3.01062
G1 X161.180 Y155.972 E3.03876
G1 X161.409 Y156.088 E3.07072
G1 X161.581 Y156.210 E3.09703
G1 X161.761 Y156.386 E3.12838
G1 X161.934 Y156.627 E3.16542
G1 X162.028 Y156.820 E3.19214
G1 X162.096 Y157.035 E3.22026
G1 X162.251 Y157.208 E3.24928
G1 X162.457 Y157.300 E3.27738
G1 X162.638 Y157.415 E3.30420
G1 X162.858 Y157.613 E3.34118
G1 X163.012 Y157.812 E3.37254
G1 X163.115 Y157.997 E3.39894
G1 X163.204 Y158.237 E3.43079
G1 X163.247 Y158.458 E3.45892
G1 X163.382 Y158.648 E3.48793
G1 X163.576 Y158.762 E3.51605
G1 X163.774 Y158.925 E3.54804
G1 X163.914 Y159.083 E3.57434
G1 X164.050 Y159.293 E3.60561
G1 X164.165 Y159.568 E3.64276
G1 X164.214 Y159.776 E3.66941
G1 X164.232 Y160.001 E3.69757
G1 X164.345 Y160.205 E3.72659
G1 X164.525 Y160.340 E3.75470
G1 X164.676 Y160.493 E3.78151
G1 X164.847 Y160.735 E3.81849
G1 X164.953 Y160.962 E3.84975
G1 X165.012 Y161.166 E3.87621
G1 X165.045 Y161.420 E3.90810
G1 X165.038 Y161.645 E3.93623
G1 X165.127 Y161.860 E3.96525
G1 X165.292 Y162.014 E3.99339
G1 X165.448 Y162.218 E4.02535
G1 X165.549 Y162.403 E4.05165
G1 X165.635 Y162.636 E4.08262
G1 X165.686 Y162.931 E4.11999
G1 X165.688 Y163.145 E4.14672
G1 X165.655 Y163.369 E4.17488
G1 X165.720 Y163.592 E4.20390
G1 X165.866 Y163.764 E4.23206
G1 X165.979 Y163.947 E4.25882
G1 X166.092 Y164.221 E4.29581
G1 X166.144 Y164.466 E4.32709
G1 X166.156 Y164.678 E4.35348
G1 X166.132 Y164.933 E4.38547
G1 X166.076 Y165.151 E4.41354
G1 X166.115 Y165.380 E4.44256
G1 X166.240 Y165.567 E4.47069
G1 X166.347 Y165.800 E4.50267
G1 X166.405 Y166.003 E4.52896
G1 X166.436 Y166.248 E4.55978
G1 X166.421 Y166.549 E4.59735
G1 X166.375 Y166.757 E4.62399
G1 X166.294 Y166.968 E4.65219
G1 X166.307 Y167.201 E4.68121
G1 X166.411 Y167.401 E4.70936
G1 X166.491 Y167.644 E4.74131
G1 X166.525 Y167.852 E4.76762
G1 X166.529 Y168.104 E4.79897
G1 X166.480 Y168.397 E4.83599
G1 X166.411 Y168.599 E4.86270
G1 X166.307 Y168.799 E4.89085
G1 X166.294 Y169.032 E4.91987
G1 X166.375 Y169.242 E4.94805
G1 X166.421 Y169.452 E4.97479
G1 X166.437 Y169.748 E5.01177
G1 X166.405 Y169.997 E5.04312
G1 X166.347 Y170.200 E5.06941
G1 X166.240 Y170.433 E5.10139
G1 X166.115 Y170.620 E5.12951
G1 X166.076 Y170.849 E5.15852
G1 X166.132 Y171.067 E5.18660
G1 X166.156 Y171.323 E5.21863
G1 X166.144 Y171.533 E5.24494
G1 X166.092 Y171.778 E5.27615
G1 X165.979 Y172.054 E5.31331
G1 X165.866 Y172.236 E5.33998
G1 X165.720 Y172.408 E5.36816
G1 X165.655 Y172.631 E5.39718
G1 X165.688 Y172.854 E5.42530
G1 X165.686 Y173.069 E5.45210
G1 X165.636 Y173.361 E5.48908
G1 X165.566 Y173.559 E5.51520
G1 X165.448 Y173.782 E5.54673
G1 X165.292 Y173.985 E5.57865
G1 X165.127 Y174.140 E5.60682
G1 X165.038 Y174.355 E5.63583
G1 X165.045 Y174.580 E5.66393
G1 X165.012 Y174.835 E5.69594
G1 X164.953 Y175.037 E5.72224
G1 X164.846 Y175.267 E5.75381
G1 X164.676 Y175.508 E5.79064
G1 X164.526 Y175.660 E5.81727
G1 X164.345 Y175.795 E5.84547
G1 X164.232 Y175.999 E5.87449
G1 X164.214 Y176.224 E5.90262
G1 X164.165 Y176.433 E5.92941
G1 X164.051 Y176.706 E5.96640
G1 X163.914 Y176.917 E5.99774
G1 X163.774 Y177.075 E6.02408
G1 X163.576 Y177.239 E6.05604
G1 X163.382 Y177.352 E6.08413
G1 X163.247 Y177.542 E6.11314
G1 X163.204 Y177.764 E6.14130
G1 X163.115 Y178.004 E6.17326
G1 X163.012 Y178.188 E6.19955
G1 X162.858 Y178.387 E6.23086
G1 X162.638 Y178.585 E6.26794
G1 X162.457 Y178.700 E6.29462
G1 X162.251 Y178.792 E6.32279
G1 X162.096 Y178.965 E6.35180
G1 X162.028 Y179.180 E6.37989
G1 X161.933 Y179.373 E6.40672
G1 X161.761 Y179.615 E6.44371
G1 X161.581 Y179.789 E6.47497
G1 X161.409 Y179.912 E6.50140
G1 X161.180 Y180.028 E6.53336
G1 X160.965 Y180.096 E6.56145
G1 X160.792 Y180.251 E6.59046
G1 X160.700 Y180.457 E6.61861
G1 X160.585 Y180.638 E6.64538
G1 X160.387 Y180.858 E6.68236
G1 X160.188 Y181.012 E6.71375
G1 X160.003 Y181.115 E6.74016
G1 X159.763 Y181.204 E6.77206
G1 X159.542 Y181.247 E6.80010
G1 X159.352 Y181.382 E6.82912
G1 X159.239 Y181.576 E6.85720
G1 X159.075 Y181.774 E6.88922
G1 X158.917 Y181.914 E6.91553
G1 X158.708 Y182.050 E6.94668
G1 X158.432 Y182.165 E6.98393
G1 X158.224 Y182.214 E7.01059
G1 X157.999 Y182.232 E7.03876
G1 X157.795 Y182.345 E7.06777
G1 X157.660 Y182.526 E7.09597
G1 X157.507 Y182.677 E7.12270
G1 X157.265 Y182.847 E7.15967
G1 X157.037 Y182.953 E7.19100
G1 X156.835 Y183.012 E7.21723
G1 X156.581 Y183.045 E7.24928
G1 X156.355 Y183.038 E7.27741
G1 X156.140 Y183.127 E7.30643
G1 X155.986 Y183.292 E7.33457
G1 X155.782 Y183.448 E7.36653
G1 X155.597 Y183.549 E7.39284
G1 X155.362 Y183.635 E7.42405
G1 X155.069 Y183.686 E7.46120
G1 X154.854 Y183.688 E7.48794
G1 X154.631 Y183.655 E7.51606
G1 X154.408 Y183.720 E7.54508
G1 X154.236 Y183.866 E7.57325
G1 X154.053 Y183.979 E7.60000
G1 X153.779 Y184.092 E7.63699
G1 X153.533 Y184.144 E7.66830
G1 X153.322 Y184.156 E7.69472
G1 X153.067 Y184.132 E7.72665
G1 X152.849 Y184.076 E7.75472
G1 X152.620 Y184.115 E7.78374
G1 X152.433 Y184.240 E7.81187
G1 X152.200 Y184.347 E7.84385
G1 X151.997 Y184.405 E7.87014
G1 X151.752 Y184.436 E7.90094
G1 X151.451 Y184.421 E7.93856
G1 X151.243 Y184.375 E7.96517
G1 X151.032 Y184.293 E7.99338
G1 X150.799 Y184.307 E8.02239
G1 X150.599 Y184.411 E8.05054
G1 X150.356 Y184.491 E8.08249
G1 X150.148 Y184.525 E8.10880
G1 X149.896 Y184.529 E8.14015
G1 X149.603 Y184.480 E8.17720
G1 X149.401 Y184.411 E8.20388
G1 X149.201 Y184.307 E8.23203
G1 X148.968 Y184.293 E8.26105
G1 X148.757 Y184.375 E8.28926
G1 X148.548 Y184.421 E8.31597
G1 X148.252 Y184.437 E8.35295
G1 X148.003 Y184.405 E8.38431
G1 X147.800 Y184.347 E8.41062
G1 X147.567 Y184.240 E8.44255
G1 X147.380 Y184.115 E8.47069
G1 X147.151 Y184.076 E8.49970
G1 X146.933 Y184.132 E8.52781
G1 X146.677 Y184.156 E8.55981
G1 X146.467 Y184.144 E8.58611
G1 X146.220 Y184.091 E8.61763
G1 X145.946 Y183.979 E8.65450
G1 X145.764 Y183.866 E8.68121
G1 X145.592 Y183.720 E8.70935
G1 X145.369 Y183.655 E8.73836
G1 X145.145 Y183.688 E8.76652
G1 X144.931 Y183.686 E8.79328
G1 X144.639 Y183.636 E8.83026
G1 X144.440 Y183.566 E8.85644
G1 X144.217 Y183.448 E8.88797
G1 X144.014 Y183.292 E8.91988
G1 X143.860 Y183.127 E8.94800
G1 X143.645 Y183.038 E8.97701
G1 X143.419 Y183.045 E9.00522
G1 X143.165 Y183.012 E9.03712
G1 X142.963 Y182.953 E9.06342
G1 X142.735 Y182.847 E9.09481
G1 X142.492 Y182.676 E9.13183
G1 X142.340 Y182.525 E9.15854
G1 X142.205 Y182.345 E9.18665
G1 X142.001 Y182.232 E9.21567
G1 X141.776 Y182.214 E9.24380
G1 X141.567 Y182.165 E9.27059
G1 X141.294 Y182.051 E9.30758
G1 X141.117 Y181.939 E9.33362
G1 X140.925 Y181.773 E9.36530
G1 X140.762 Y181.576 E9.39719
G1 X140.648 Y181.382 E9.42531
G1 X140.458 Y181.247 E9.45432
G1 X140.237 Y181.204 E9.48239
G1 X139.996 Y181.115 E9.51444
G1 X139.812 Y181.012 E9.54073
G1 X139.614 Y180.859 E9.57201
G1 X139.415 Y180.638 E9.60912
G1 X139.300 Y180.457 E9.63585
G1 X139.208 Y180.251 E9.66397
G1 X139.035 Y180.096 E9.69298
G1 X138.820 Y180.028 E9.72109
G1 X138.591 Y179.912 E9.75308
G1 X138.419 Y179.790 E9.77939
G1 X138.240 Y179.616 E9.81046
G1 X138.066 Y179.373 E9.84780
G1 X137.972 Y179.180 E9.87454
G1 X137.904 Y178.965 E9.90262
G1 X137.749 Y178.792 E9.93164
G1 X137.543 Y178.700 E9.95983
G1 X137.362 Y178.585 E9.98656
G1 X137.142 Y178.387 E10.02354
G1 X137.012 Y178.223 E10.04957
G1 X136.885 Y178.003 E10.08125
G1 X136.796 Y177.763 E10.11318
G1 X136.753 Y177.542 E10.14128
G1 X136.618 Y177.352 E10.17030
G1 X136.424 Y177.238 E10.19842
G1 X136.226 Y177.075 E10.23040
G1 X136.086 Y176.917 E10.25670
G1 X135.949 Y176.706 E10.28809
G1 X135.835 Y176.432 E10.32510
G1 X135.786 Y176.224 E10.35177
G1 X135.768 Y175.999 E10.37994
G1 X135.655 Y175.795 E10.40895
G1 X135.474 Y175.660 E10.43712
G1 X135.324 Y175.507 E10.46388
G1 X135.153 Y175.265 E10.50085
G1 X135.047 Y175.037 E10.53221
G1 X134.988 Y174.834 E10.55854
G1 X134.955 Y174.580 E10.59046
G1 X134.962 Y174.355 E10.61859
G1 X134.872 Y174.140 E10.64761
G1 X134.708 Y173.986 E10.67575
G1 X134.552 Y173.782 E10.70771
G1 X134.451 Y173.597 E10.73402
G1 X134.364 Y173.361 E10.76542
G1 X134.314 Y173.068 E10.80244
G1 X134.312 Y172.854 E10.82912
G1 X134.345 Y172.631 E10.85724
G1 X134.280 Y172.408 E10.88626
G1 X134.134 Y172.236 E10.91443
G1 X134.021 Y172.053 E10.94118
G1 X133.908 Y171.779 E10.97817
G1 X133.856 Y171.533 E11.00953
G1 X133.844 Y171.322 E11.03584
G1 X133.867 Y171.068 E11.06775
G1 X133.924 Y170.849 E11.09590
G1 X133.885 Y170.620 E11.12492
G1 X133.760 Y170.433 E11.15307
G1 X133.653 Y170.200 E11.18503
G1 X133.595 Y169.997 E11.21132
G1 X133.563 Y169.749 E11.24254
G1 X133.579 Y169.451 E11.27974
G1 X133.625 Y169.242 E11.30642
G1 X133.707 Y169.032 E11.33456
G1 X133.693 Y168.799 E11.36357
G1 X133.589 Y168.599 E11.39167
G1 X133.509 Y168.356 E11.42368
G1 X133.475 Y168.148 E11.44998
G1 X133.471 Y167.896 E11.48134
G1 X133.520 Y167.603 E11.51838
G1 X133.589 Y167.401 E11.54511
G1 X133.693 Y167.201 E11.57321
G1 X133.707 Y166.968 E11.60223
G1 X133.625 Y166.758 E11.63036
G1 X133.579 Y166.548 E11.65715
G1 X133.563 Y166.252 E11.69413
G1 X133.595 Y166.003 E11.72549
G1 X133.653 Y165.800 E11.75180
G1 X133.760 Y165.567 E11.78372
G1 X133.885 Y165.380 E11.81187
G1 X133.924 Y165.151 E11.84088
G1 X133.868 Y164.933 E11.86900
G1 X133.844 Y164.677 E11.90099
G1 X133.856 Y164.467 E11.92729
G1 X133.908 Y164.222 E11.95851
G1 X134.021 Y163.946 E11.99568
G1 X134.134 Y163.764 E12.02238
G1 X134.280 Y163.592 E12.05053
G1 X134.345 Y163.369 E12.07954
G1 X134.312 Y163.146 E12.10766
G1 X134.314 Y162.931 E12.13446
G1 X134.364 Y162.639 E12.17144
G1 X134.434 Y162.440 E12.19762
G1 X134.552 Y162.218 E12.22909
G1 X134.708 Y162.014 E12.26104
G1 X134.872 Y161.860 E12.28918
G1 X134.962 Y161.645 E12.31819
G1 X134.955 Y161.420 E12.34629
G1 X134.988 Y161.165 E12.37830
G1 X135.047 Y160.963 E12.40460
G1 X135.153 Y160.735 E12.43590
G1 X135.324 Y160.492 E12.47300
G1 X135.475 Y160.340 E12.49972
G1 X135.655 Y160.205 E12.52783
G1 X135.768 Y160.001 E12.55685
G1 X135.786 Y159.776 E12.58501
G1 X135.848 Y159.528 E12.61695
G1 X135.929 Y159.333 E12.64326
G1 X136.060 Y159.118 E12.67468
G1 X136.257 Y158.896 E12.71164
G1 X136.423 Y158.762 E12.73833
G1 X136.618 Y158.648 E12.76649
G1 X136.753 Y158.458 E12.79550
G1 X136.796 Y158.237 E12.82362
G1 X136.868 Y158.034 E12.85043
G1 X137.013 Y157.775 E12.88741
G1 X137.172 Y157.581 E12.91876
G1 X137.330 Y157.440 E12.94516
G1 X137.543 Y157.300 E12.97699
G1 X137.749 Y157.208 E13.00515
G1 X137.904 Y157.035 E13.03416
G1 X137.972 Y156.820 E13.06225
G1 X138.088 Y156.591 E13.09426
G1 X138.210 Y156.419 E13.12057
G1 X138.386 Y156.238 E13.15207
G1 X138.627 Y156.066 E13.18899
G1 X138.820 Y155.972 E13.21568
G1 X139.035 Y155.904 E13.24381
G1 X139.208 Y155.749 E13.27282
G1 X139.300 Y155.543 E13.30096
G1 X139.510 Y155.250 E13.34593
G92 E0
G1 X160.001 Y179.191 F15000.000
G1 F3600
G1 X160.044 Y179.730 E0.03612
G1 X160.036 Y179.835 E0.04321
G1 X159.960 Y180.057 E0.05888
G1 X159.827 Y180.231 E0.07353
G1 X159.645 Y180.354 E0.08815
G1 X159.530 Y180.396 E0.09634
G1 X159.306 Y180.418 E0.11140
G1 X159.193 Y180.401 E0.11903
G1 X158.682 Y180.237 E0.15486
G1 X158.669 Y180.773 E0.19068
G1 X158.648 Y180.884 E0.19824
G1 X158.605 Y180.999 E0.20642
G1 X158.480 Y181.179 E0.22109
G1 X158.306 Y181.311 E0.23570
G1 X158.193 Y181.359 E0.24388
G1 X157.970 Y181.393 E0.25894
G1 X157.754 Y181.354 E0.27360
G1 X157.257 Y181.134 E0.30989
G1 X157.184 Y181.663 E0.34555
G1 X157.150 Y181.772 E0.35318
G1 X157.033 Y181.965 E0.36824
G1 X156.945 Y182.050 E0.37643
G1 X156.756 Y182.161 E0.39106
G1 X156.542 Y182.205 E0.40569
G1 X156.309 Y182.177 E0.42137
G1 X156.210 Y182.139 E0.42846
G1 X155.743 Y181.866 E0.46457
G1 X155.606 Y182.389 E0.50069
G1 X155.564 Y182.486 E0.50778
G1 X155.419 Y182.670 E0.52345
G1 X155.235 Y182.790 E0.53810
G1 X155.128 Y182.828 E0.54569
G1 X154.901 Y182.848 E0.56091
G1 X154.682 Y182.795 E0.57598
G1 X154.581 Y182.741 E0.58361
G1 X154.156 Y182.419 E0.61926
G1 X153.960 Y182.926 E0.65555
G1 X153.907 Y183.018 E0.66264
G1 X153.742 Y183.185 E0.67830
G1 X153.547 Y183.284 E0.69296
G1 X153.330 Y183.315 E0.70758
G1 X153.208 Y183.304 E0.71577
G1 X152.996 Y183.226 E0.73083
G1 X152.902 Y183.161 E0.73846
G1 X152.515 Y182.794 E0.77411
G1 X152.264 Y183.275 E0.81040
G1 X152.120 Y183.439 E0.82499
G1 X151.922 Y183.554 E0.84024
G1 X151.813 Y183.585 E0.84782
G1 X151.594 Y183.592 E0.86244
G1 X151.474 Y183.566 E0.87063
G1 X151.273 Y183.465 E0.88569
G1 X151.186 Y183.391 E0.89332
G1 X150.841 Y182.980 E0.92915
G1 X150.545 Y183.427 E0.96497
G1 X150.467 Y183.511 E0.97260
