; generated by Slic3r 1.3.1-dev on 2019-07-11 at 10:48:57

; external perimeters extrusion width = 0.44mm (3.04mm^3/s)
; perimeters extrusion width = 0.40mm (6.04mm^3/s)
; infill extrusion width = 0.48mm (10.05mm^3/s)
; solid infill extrusion width = 0.48mm (3.02mm^3/s)
; top infill extrusion width = 0.45mm (2.22mm^3/s)

M104 S230 ; set temperature
G28 ; home all axes
G1 X150 Y150 Z50 F10000
; Filament gcode
; layer 1
M109 S230 ; set temperature and wait for it to be reached
G21 ; set units to millimeters
G90 ; use absolute coordinates
M82 ; use absolute distances for extrusion
G92 E0
G92 E0
G1 Z0.350 F15000.000
G1 X76.726 Y53.989 F15000.000
G1 F3600
G1 X77.048 Y53.667 E0.06631
G1 X92.703 Y53.667 E2.34433
G1 X93.011 Y53.359 E2.40762
G1 X93.011 Y49.283 E3.00083
G1 X93.333 Y48.960 E3.06714
G1 X101.306 Y48.960 E4.22724
G1 X101.628 Y49.283 E4.29355
G1 X101.628 Y53.359 E4.88676
G1 X101.935 Y53.667 E4.95005
G1 X117.590 Y53.667 E7.22807
G1 X117.913 Y53.989 E7.29438
G1 X117.913 Y69.644 E9.57239
G1 X118.220 Y69.952 E9.63568
G1 X122.297 Y69.952 E10.22899
G1 X122.620 Y70.274 E10.29530
G1 X122.620 Y78.246 E11.45540
G1 X122.297 Y78.569 E11.52171
G1 X118.220 Y78.569 E12.11502
G1 X117.913 Y78.876 E12.17831
G1 X117.913 Y94.531 E14.45632
G1 X117.590 Y94.854 E14.52264
G1 X101.935 Y94.854 E16.80065
G1 X101.628 Y95.161 E16.86394
G1 X101.628 Y99.238 E17.45715
G1 X101.306 Y99.560 E17.52346
G1 X93.333 Y99.560 E18.68356
G1 X93.011 Y99.238 E18.74988
G1 X93.011 Y95.161 E19.34309
G1 X92.703 Y94.854 E19.40637
G1 X77.048 Y94.854 E21.68439
G1 X76.726 Y94.531 E21.75070
G1 X76.726 Y78.876 E24.02872
G1 X76.418 Y78.569 E24.09200
G1 X72.342 Y78.569 E24.68521
G1 X72.020 Y78.246 E24.75153
G1 X72.020 Y70.274 E25.91163
G1 X72.342 Y69.952 E25.97794
G1 X76.418 Y69.952 E26.57115
G1 X76.726 Y69.644 E26.63444
G1 X76.726 Y54.049 E28.90372
G92 E0
G1 X82.655 Y60.575 F15000.000
G1 F3600
G1 X111.005 Y60.575 E2.58118
G1 X111.005 Y87.946 E5.07327
G1 X82.655 Y87.946 E7.65446
G1 X82.655 Y60.635 E10.14106
G1 X82.029 Y59.949 F15000.000
G1 F3600
G1 X111.630 Y59.949 E12.83618
G1 X111.630 Y88.571 E15.44221
G1 X82.029 Y88.571 E18.13733
G1 X82.029 Y60.009 E20.73787
G1 X81.404 Y59.323 F15000.000
G1 F3600
G1 X112.256 Y59.323 E23.54693
G1 X112.256 Y89.197 E26.26691
G1 X81.404 Y89.197 E29.07597
G1 X81.404 Y59.383 E31.79045
G1 X80.752 Y57.693 F15000.000
G1 F3600
G1 X113.886 Y57.693 E34.80727
G1 X113.886 Y90.827 E37.82409
G1 X80.752 Y90.827 E40.84090
G1 X80.752 Y57.753 E43.85226
G1 X80.126 Y57.067 F15000.000
G1 F3600
G1 X96.411 Y57.067 E45.33496
G1 X96.411 Y52.361 E45.76347
G1 X98.227 Y52.361 E45.92882
G1 X98.227 Y57.067 E46.35734
G1 X114.512 Y57.067 E47.84004
G1 X114.512 Y73.352 E49.32274
G1 X119.219 Y73.352 E49.75132
G1 X119.219 Y75.168 E49.91667
G1 X114.512 Y75.168 E50.34524
G1 X114.512 Y91.453 E51.82794
G1 X98.227 Y91.453 E53.31065
G1 X98.227 Y96.160 E53.73916
G1 X96.411 Y96.160 E53.90451
G1 X96.411 Y91.453 E54.33302
G1 X80.126 Y91.453 E55.81573
G1 X80.126 Y75.168 E57.29843
G1 X75.420 Y75.168 E57.72694
G1 X75.420 Y73.352 E57.89229
G1 X80.126 Y73.352 E58.32081
G1 X80.126 Y57.127 E59.79805
G1 X79.501 Y56.442 F15000.000
G1 F3600
G1 X95.786 Y56.442 E61.28075
G1 X95.786 Y51.735 E61.70927
G1 X98.853 Y51.735 E61.98855
G1 X98.853 Y56.442 E62.41707
G1 X115.138 Y56.442 E63.89977
G1 X115.138 Y72.727 E65.38247
G1 X119.845 Y72.727 E65.81105
G1 X119.845 Y75.794 E66.09033
G1 X115.138 Y75.794 E66.51891
G1 X115.138 Y92.079 E68.00161
G1 X98.853 Y92.079 E69.48432
G1 X98.853 Y96.785 E69.91283
G1 X95.786 Y96.785 E70.19212
G1 X95.786 Y92.079 E70.62063
G1 X79.501 Y92.079 E72.10333
G1 X79.501 Y75.794 E73.58604
G1 X74.794 Y75.794 E74.01455
G1 X74.794 Y72.727 E74.29384
G1 X79.501 Y72.727 E74.72235
G1 X79.501 Y56.502 E76.19959
G92 E0
G1 X78.276 Y55.217 F15000.000
G1 X81.873 Y58.814 F15000.000
G1 X83.880 Y58.508 F15000.000
G1 X94.561 Y58.508 F15000.000
G1 X97.319 Y57.930 F15000.000
G1 X100.078 Y58.508 F15000.000
G1 X109.723 Y58.508 F15000.000
G1 X112.490 Y59.090 F15000.000
G1 X113.043 Y61.791 F15000.000
G1 X113.054 Y71.502 F15000.000
G1 X113.633 Y74.260 F15000.000
G1 X116.363 Y74.260 F15000.000
G1 X116.363 Y77.019 F15000.000
G1 X117.013 Y77.669 F15000.000
G1 F3600
G1 X117.013 Y93.953 E1.48077
G1 X100.728 Y93.953 E2.96155
G1 X100.728 Y98.660 E3.38950
G1 X93.911 Y98.660 E4.00935
G1 X93.911 Y93.953 E4.43730
G1 X77.626 Y93.953 E5.91808
G1 X77.626 Y77.669 E7.39885
G1 X72.920 Y77.669 E7.82681
G1 X72.920 Y70.852 E8.44665
G1 X77.626 Y70.852 E8.87461
G1 X77.626 Y54.567 E10.35538
G1 X93.911 Y54.567 E11.83615
G1 X93.911 Y49.861 E12.26411
G1 X100.728 Y49.861 E12.88395
G1 X100.728 Y54.567 E13.31191
G1 X117.013 Y54.567 E14.79268
G1 X117.013 Y70.852 E16.27346
G1 X121.720 Y70.852 E16.70147
G1 X121.720 Y77.669 E17.32132
G1 X117.073 Y77.669 E17.74388
G1 X116.633 Y77.795 F15000.000
G1 X116.388 Y77.044 F15000.000
G1 F3600
G1 X116.388 Y93.329 E19.22465
G1 X100.103 Y93.329 E20.70543
G1 X100.103 Y98.035 E21.13338
G1 X94.536 Y98.035 E21.63958
G1 X94.536 Y93.329 E22.06754
G1 X78.251 Y93.329 E23.54831
G1 X78.251 Y77.044 E25.02909
G1 X73.545 Y77.044 E25.45704
G1 X73.545 Y71.477 E25.96325
G1 X78.251 Y71.477 E26.39120
G1 X78.251 Y55.192 E27.87198
G1 X94.536 Y55.192 E29.35275
G1 X94.536 Y50.485 E29.78071
G1 X100.103 Y50.485 E30.28691
G1 X100.103 Y55.192 E30.71486
G1 X116.388 Y55.192 E32.19564
G1 X116.388 Y71.477 E33.67641
G1 X121.095 Y71.477 E34.10443
G1 X121.095 Y77.044 E34.61063
G1 X116.448 Y77.044 E35.03319
G1 X115.763 Y76.419 F15000.000
G1 F3600
G1 X115.763 Y92.704 E36.51396
G1 X99.478 Y92.704 E37.99474
G1 X99.478 Y97.410 E38.42269
G1 X95.161 Y97.410 E38.81525
G1 X95.161 Y92.704 E39.24321
G1 X78.876 Y92.704 E40.72398
G1 X78.876 Y76.419 E42.20476
G1 X74.169 Y76.419 E42.63271
G1 X74.169 Y72.102 E43.02527
G1 X78.876 Y72.102 E43.45323
G1 X78.876 Y55.817 E44.93400
G1 X95.161 Y55.817 E46.41478
G1 X95.161 Y51.110 E46.84273
G1 X99.478 Y51.110 E47.23529
G1 X99.478 Y55.817 E47.66325
G1 X115.763 Y55.817 E49.14402
G1 X115.763 Y72.102 E50.62480
G1 X120.470 Y72.102 E51.05281
G1 X120.470 Y76.419 E51.44537
G1 X115.823 Y76.419 E51.86793
G92 E0
G1 X109.130 Y86.071 F15000.000
G1 F3600
G1 X84.530 Y86.071 E2.23690
G1 X84.530 Y62.449 E4.38480
G1 X109.130 Y62.449 E6.62170
G1 X109.130 Y86.011 E8.76415
G1 X109.132 Y86.471 F15000.000
G1 X109.755 Y86.696 F15000.000
G1 F3600
G1 X83.905 Y86.696 E11.11469
G1 X83.905 Y61.825 E13.37623
G1 X109.755 Y61.824 E15.72678
G1 X109.755 Y86.636 E17.98287
G1 X110.380 Y87.321 F15000.000
G1 F3600
G1 X83.280 Y87.321 E20.44706
G1 X83.280 Y61.200 E22.82224
G1 X110.380 Y61.199 E25.28642
G1 X110.380 Y87.261 E27.65617
M104 S205 ; set temperature
G1 Z0.650 F15000.000
G92 E0
G1 X116.131 Y86.410 F15000.000
G1 F1440
G1 X116.131 Y85.991 E0.02189
G1 X109.784 Y85.991 E0.35350
G1 X109.784 Y85.572 E0.37540
G1 X116.131 Y85.572 E0.70701
G1 X116.131 Y85.153 E0.72890
G1 X109.784 Y85.153 E1.06051
G1 X109.784 Y84.734 E1.08240
G1 X116.131 Y84.734 E1.41402
G1 X116.131 Y84.315 E1.43591
G1 X109.784 Y84.315 E1.76752
G1 X109.784 Y83.896 E1.78941
G1 X116.131 Y83.896 E2.12103
G1 X116.131 Y83.477 E2.14292
G1 X109.784 Y83.477 E2.47453
G1 X109.784 Y83.058 E2.49642
G1 X116.131 Y83.058 E2.82803
G1 X116.131 Y82.639 E2.84993
G1 X109.784 Y82.639 E3.18154
G1 X109.784 Y82.220 E3.20343
G1 X116.131 Y82.220 E3.53504
G1 X116.131 Y81.801 E3.55694
G1 X109.784 Y81.801 E3.88855
G1 X109.784 Y81.382 E3.91044
G1 X116.131 Y81.382 E4.24205
G1 X116.131 Y80.963 E4.26394
G1 X109.784 Y80.963 E4.59556
G1 X109.784 Y80.544 E4.61745
G1 X116.131 Y80.544 E4.94906
G1 X116.131 Y80.125 E4.97095
G1 X109.784 Y80.125 E5.30257
G1 X109.784 Y79.707 E5.32446
G1 X116.131 Y79.707 E5.65607
G1 X116.131 Y79.288 E5.67796
G1 X109.784 Y79.288 E6.00958
G1 X109.784 Y78.869 E6.03147
G1 X116.131 Y78.869 E6.36308
G1 X116.131 Y78.450 E6.38497
G1 X109.784 Y78.450 E6.71658
G1 X109.784 Y78.031 E6.73848
G1 X116.131 Y78.031 E7.07009
G1 X116.131 Y77.612 E7.09198
G1 X109.784 Y77.612 E7.42359
G1 X109.784 Y77.193 E7.44549
G1 X116.131 Y77.193 E7.77710
G1 X116.131 Y76.774 E7.79899
G1 X109.784 Y76.774 E8.13060
G1 X109.784 Y76.355 E8.15249
G1 X120.838 Y76.355 E8.73007
G1 X120.838 Y75.936 E8.75196
G1 X109.784 Y75.936 E9.32954
G1 X109.784 Y75.517 E9.35143
G1 X120.838 Y75.517 E9.92900
G1 X120.838 Y75.098 E9.95090
G1 X109.784 Y75.098 E10.52847
G1 X109.784 Y74.679 E10.55036
G1 X120.838 Y74.679 E11.12794
G1 X120.838 Y74.260 E11.14983
G1 X109.784 Y74.260 E11.72741
G1 X109.784 Y73.841 E11.74930
G1 X120.838 Y73.841 E12.32688
G1 X120.838 Y73.422 E12.34877
G1 X109.784 Y73.422 E12.92634
G1 X109.784 Y73.003 E12.94823
G1 X120.838 Y73.003 E13.52581
G1 X120.838 Y72.584 E13.54770
G1 X109.784 Y72.584 E14.12528
G1 X109.784 Y72.165 E14.14717
G1 X120.838 Y72.165 E14.72475
G1 X120.838 Y71.790 E14.74435
G1 X116.131 Y71.790 E14.99031
G1 X116.131 Y71.747 E14.99260
G1 X109.784 Y71.747 E15.32421
G1 X109.784 Y71.328 E15.34611
G1 X116.131 Y71.328 E15.67772
G1 X116.131 Y71.044 E15.69253
G1 X116.131 Y70.909 E15.69961
G1 X109.784 Y70.909 E16.03122
G1 X109.784 Y70.490 E16.05311
G1 X116.131 Y70.490 E16.38473
G1 X116.131 Y70.071 E16.40662
G1 X109.784 Y70.071 E16.73823
G1 X109.784 Y69.652 E16.76012
G1 X116.131 Y69.652 E17.09174
G1 X116.131 Y69.233 E17.11363
G1 X109.784 Y69.233 E17.44524
G1 X109.784 Y68.814 E17.46713
G1 X116.131 Y68.814 E17.79875
G1 X116.131 Y68.395 E17.82064
G1 X109.784 Y68.395 E18.15225
G1 X109.784 Y67.976 E18.17414
G1 X116.131 Y67.976 E18.50575
G1 X116.131 Y67.557 E18.52765
G1 X109.784 Y67.557 E18.85926
G1 X109.784 Y67.138 E18.88115
G1 X116.131 Y67.138 E19.21276
G1 X116.131 Y66.719 E19.23466
G1 X109.784 Y66.719 E19.56627
G1 X109.784 Y66.300 E19.58816
G1 X116.131 Y66.300 E19.91977
G1 X116.131 Y65.881 E19.94166
G1 X109.784 Y65.881 E20.27328
G1 X109.784 Y65.462 E20.29517
G1 X116.131 Y65.462 E20.62678
G1 X116.131 Y65.043 E20.64867
G1 X109.784 Y65.043 E20.98029
G1 X109.784 Y64.624 E21.00218
G1 X116.131 Y64.624 E21.33379
G1 X116.131 Y64.205 E21.35568
G1 X109.784 Y64.205 E21.68730
G1 X109.784 Y63.787 E21.70919
G1 X116.131 Y63.787 E22.04080
G1 X116.131 Y63.368 E22.06269
G1 X109.784 Y63.368 E22.39431
G1 X109.784 Y62.949 E22.41620
G1 X116.131 Y62.949 E22.74781
G1 X116.131 Y62.530 E22.76970
G1 X109.784 Y62.530 E23.10131
G1 X109.784 Y62.111 E23.12321
G1 X116.131 Y62.111 E23.45482
G92 E0
G1 X112.958 Y62.027 F15000.000
G1 X112.373 Y59.206 F15000.000
G1 X109.552 Y58.622 F15000.000
G1 X100.078 Y58.622 F15000.000
G1 X97.319 Y58.063 F15000.000
G1 X97.319 Y53.269 F15000.000
G1 X100.078 Y50.511 F15000.000
G1 X99.846 Y50.799 F15000.000
G1 F1440
G1 X94.793 Y50.799 E0.26404
G1 X94.793 Y51.218 E0.28593
G1 X99.846 Y51.218 E0.54996
G1 X99.846 Y51.637 E0.57186
G1 X94.793 Y51.637 E0.83589
G1 X94.793 Y52.056 E0.85778
G1 X99.846 Y52.056 E1.12182
G1 X99.846 Y52.475 E1.14371
G1 X94.793 Y52.475 E1.40775
G1 X94.793 Y52.894 E1.42964
G1 X99.846 Y52.894 E1.69368
G1 X99.846 Y53.313 E1.71557
G1 X94.793 Y53.313 E1.97960
G1 X94.793 Y53.732 E2.00149
G1 X99.846 Y53.732 E2.26553
G1 X99.846 Y54.151 E2.28742
G1 X94.793 Y54.151 E2.55146
G1 X94.793 Y54.570 E2.57335
G1 X99.846 Y54.570 E2.83739
G1 X99.846 Y54.989 E2.85928
G1 X94.793 Y54.989 E3.12331
G1 X94.793 Y55.408 E3.14520
G1 X99.846 Y55.408 E3.40924
G1 X99.846 Y55.505 E3.41436
G1 X116.131 Y55.505 E4.26530
G1 X116.131 Y55.827 E4.28207
G1 X78.508 Y55.827 E6.24799
G1 X78.508 Y56.245 E6.26988
G1 X116.131 Y56.245 E8.23580
G1 X116.131 Y56.664 E8.25769
G1 X78.508 Y56.664 E10.22361
G1 X78.508 Y57.083 E10.24550
G1 X116.131 Y57.083 E12.21142
G1 X116.131 Y57.502 E12.23331
G1 X78.508 Y57.502 E14.19922
G1 X78.508 Y57.921 E14.22112
G1 X116.131 Y57.921 E16.18703
G1 X116.131 Y58.340 E16.20892
G1 X78.508 Y58.340 E18.17484
G1 X78.508 Y58.759 E18.19673
G1 X116.131 Y58.759 E20.16265
G1 X116.131 Y59.178 E20.18454
G1 X78.508 Y59.178 E22.15046
G1 X78.508 Y59.597 E22.17235
G1 X116.131 Y59.597 E24.13827
G1 X116.131 Y60.016 E24.16016
G1 X78.508 Y60.016 E26.12607
G1 X78.508 Y60.435 E26.14797
G1 X116.131 Y60.435 E28.11388
G1 X116.131 Y60.854 E28.13577
G1 X78.508 Y60.854 E30.10169
G1 X78.508 Y61.273 E30.12358
G1 X116.131 Y61.273 E32.08950
G1 X116.131 Y61.692 E32.11139
G1 X78.508 Y61.692 E34.07731
G1 X78.508 Y62.111 E34.09920
G1 X83.875 Y62.111 E34.37967
G1 X83.875 Y62.530 E34.40156
G1 X78.508 Y62.530 E34.68203
G1 X78.508 Y62.949 E34.70392
G1 X83.875 Y62.949 E34.98439
G1 X83.875 Y63.368 E35.00628
G1 X78.508 Y63.368 E35.28675
G1 X78.508 Y63.787 E35.30864
G1 X83.875 Y63.787 E35.58911
G1 X83.875 Y64.205 E35.61100
G1 X78.508 Y64.205 E35.89147
G1 X78.508 Y64.624 E35.91336
G1 X83.875 Y64.624 E36.19383
G1 X83.875 Y65.043 E36.21573
G1 X78.508 Y65.043 E36.49620
G1 X78.508 Y65.462 E36.51809
G1 X83.875 Y65.462 E36.79856
G1 X83.875 Y65.881 E36.82045
G1 X78.508 Y65.881 E37.10092
G1 X78.508 Y66.300 E37.12281
G1 X83.875 Y66.300 E37.40328
G1 X83.875 Y66.719 E37.42517
G1 X78.508 Y66.719 E37.70564
G1 X78.508 Y67.138 E37.72753
G1 X83.875 Y67.138 E38.00800
G1 X83.875 Y67.557 E38.02989
G1 X78.508 Y67.557 E38.31036
G1 X78.508 Y67.976 E38.33225
G1 X83.875 Y67.976 E38.61272
G1 X83.875 Y68.395 E38.63461
G1 X78.508 Y68.395 E38.91508
G1 X78.508 Y68.814 E38.93697
G1 X83.875 Y68.814 E39.21744
G1 X83.875 Y69.233 E39.23933
G1 X78.508 Y69.233 E39.51980
G1 X78.508 Y69.652 E39.54170
G1 X83.875 Y69.652 E39.82216
G1 X83.875 Y70.071 E39.84406
G1 X78.508 Y70.071 E40.12453
G1 X78.508 Y70.490 E40.14642
G1 X83.875 Y70.490 E40.42689
G1 X83.875 Y70.909 E40.44878
G1 X78.508 Y70.909 E40.72925
G1 X78.508 Y71.328 E40.75114
G1 X83.875 Y71.328 E41.03161
G1 X83.875 Y71.747 E41.05350
G1 X78.508 Y71.747 E41.33397
G1 X78.508 Y71.790 E41.33626
G1 X73.801 Y71.790 E41.58219
G1 X73.801 Y72.165 E41.60179
G1 X83.875 Y72.165 E42.12819
G1 X83.875 Y72.584 E42.15008
G1 X73.801 Y72.584 E42.67648
G1 X73.801 Y73.003 E42.69837
G1 X83.875 Y73.003 E43.22477
G1 X83.875 Y73.422 E43.24666
G1 X73.801 Y73.422 E43.77306
G1 X73.801 Y73.841 E43.79495
G1 X83.875 Y73.841 E44.32135
G1 X83.875 Y74.260 E44.34324
G1 X73.801 Y74.260 E44.86964
G1 X73.801 Y74.679 E44.89153
G1 X83.875 Y74.679 E45.41793
G1 X83.875 Y75.098 E45.43982
G1 X73.801 Y75.098 E45.96622
G1 X73.801 Y75.517 E45.98811
G1 X83.875 Y75.517 E46.51451
G1 X83.875 Y75.936 E46.53640
G1 X73.801 Y75.936 E47.06280
G1 X73.801 Y76.355 E47.08469
G1 X83.875 Y76.355 E47.61109
G1 X83.875 Y76.774 E47.63298
G1 X78.508 Y76.774 E47.91345
G1 X78.508 Y77.193 E47.93534
G1 X83.875 Y77.193 E48.21581
G1 X83.875 Y77.612 E48.23770
G1 X78.508 Y77.612 E48.51817
G1 X78.508 Y78.031 E48.54006
G1 X83.875 Y78.031 E48.82053
G1 X83.875 Y78.450 E48.84242
G1 X78.508 Y78.450 E49.12289
G1 X78.508 Y78.869 E49.14478
G1 X83.875 Y78.869 E49.42525
G1 X83.875 Y79.288 E49.44714
G1 X78.508 Y79.288 E49.72761
G1 X78.508 Y79.707 E49.74951
G1 X83.875 Y79.707 E50.02998
G1 X83.875 Y80.125 E50.05187
G1 X78.508 Y80.125 E50.33234
G1 X78.508 Y80.544 E50.35423
G1 X83.875 Y80.544 E50.63470
G1 X83.875 Y80.963 E50.65659
G1 X78.508 Y80.963 E50.93706
G1 X78.508 Y81.382 E50.95895
G1 X83.875 Y81.382 E51.23942
G1 X83.875 Y81.801 E51.26131
G1 X78.508 Y81.801 E51.54178
G1 X78.508 Y82.220 E51.56367
G1 X83.875 Y82.220 E51.84414
G1 X83.875 Y82.639 E51.86603
G1 X78.508 Y82.639 E52.14650
G1 X78.508 Y83.058 E52.16839
G1 X83.875 Y83.058 E52.44886
G1 X83.875 Y83.477 E52.47075
G1 X78.508 Y83.477 E52.75122
G1 X78.508 Y83.896 E52.77311
G1 X83.875 Y83.896 E53.05358
G1 X83.875 Y84.315 E53.07547
G1 X78.508 Y84.315 E53.35594
G1 X78.508 Y84.734 E53.37784
G1 X83.875 Y84.734 E53.65830
G1 X83.875 Y85.153 E53.68020
G1 X78.508 Y85.153 E53.96067
G1 X78.508 Y85.572 E53.98256
G1 X83.875 Y85.572 E54.26303
G1 X83.875 Y85.991 E54.28492
G1 X78.508 Y85.991 E54.56539
G1 X78.508 Y86.410 E54.58728
G1 X83.875 Y86.410 E54.86775
G1 X83.875 Y86.782 E54.88720
G1 X109.898 Y86.782 E56.24695
G1 X109.898 Y86.410 E56.26640
G1 X116.131 Y86.410 E56.59210
G1 X116.131 Y86.829 E56.61399
G1 X78.508 Y86.829 E58.57990
G1 X78.508 Y87.248 E58.60180
G1 X116.131 Y87.248 E60.56771
G1 X116.131 Y87.667 E60.58960
G1 X78.508 Y87.667 E62.55552
G1 X78.508 Y88.085 E62.57741
G1 X116.131 Y88.085 E64.54333
G1 X116.131 Y88.504 E64.56522
G1 X78.508 Y88.504 E66.53114
G1 X78.508 Y88.923 E66.55303
G1 X116.131 Y88.923 E68.51895
G1 X116.131 Y89.342 E68.54084
G1 X78.508 Y89.342 E70.50676
