; G-Code generated by Simplify3D(R) Version 3.1.1
; Jan 7, 2019 at 3:56:54 PM
; Settings Summary
;   processName,Process1
;   applyToModels,BaseBlank00
;   profileName,Monoprice Select Mini (modified)
;   profileVersion,2016-08-25 08:00:00
;   baseProfile,
;   printMaterial,PLA
;   printQuality,Medium
;   printExtruders,
;   extruderName,Primary Extruder
;   extruderToolheadNumber,0
;   extruderDiameter,0.6
;   extruderAutoWidth,0
;   extruderWidth,0.4
;   extrusionMultiplier,1
;   extruderUseRetract,1
;   extruderRetractionDistance,2.5
;   extruderExtraRestartDistance,0
;   extruderRetractionZLift,0
;   extruderRetractionSpeed,1800
;   extruderUseCoasting,0
;   extruderCoastingDistance,0.2
;   extruderUseWipe,0
;   extruderWipeDistance,5
;   primaryExtruder,0
;   layerHeight,0.2
;   topSolidLayers,0
;   bottomSolidLayers,0
;   perimeterOutlines,0
;   printPerimetersInsideOut,1
;   startPointOption,2
;   startPointOriginX,0
;   startPointOriginY,0
;   startPointOriginZ,300
;   sequentialIslands,0
;   spiralVaseMode,0
;   firstLayerHeightPercentage,90
;   firstLayerWidthPercentage,100
;   firstLayerUnderspeed,0.5
;   useRaft,0
;   raftExtruder,0
;   raftLayers,3
;   raftOffset,3
;   raftSeparationDistance,0.14
;   raftInfill,85
;   disableRaftBaseLayers,0
;   useSkirt,1
;   skirtExtruder,0
;   skirtLayers,1
;   skirtOutlines,2
;   skirtOffset,4
;   usePrimePillar,0
;   primePillarExtruder,999
;   primePillarWidth,12
;   primePillarLocation,7
;   primePillarSpeedMultiplier,1
;   useOozeShield,0
;   oozeShieldExtruder,999
;   oozeShieldOffset,2
;   oozeShieldOutlines,1
;   oozeShieldSidewallShape,1
;   oozeShieldSidewallAngle,30
;   oozeShieldSpeedMultiplier,1
;   infillExtruder,0
;   internalInfillPattern,Rectilinear
;   externalInfillPattern,Rectilinear
;   infillPercentage,100
;   outlineOverlapPercentage,30
;   infillExtrusionWidthPercentage,120
;   minInfillLength,5
;   infillLayerInterval,1
;   infillAngles,0
;   overlapInfillAngles,0
;   generateSupport,0
;   supportExtruder,0
;   supportInfillPercentage,30
;   supportExtraInflation,0
;   denseSupportLayers,0
;   denseSupportInfillPercentage,70
;   supportLayerInterval,1
;   supportHorizontalPartOffset,0.3
;   supportUpperSeparationLayers,1
;   supportLowerSeparationLayers,1
;   supportType,0
;   supportGridSpacing,4
;   maxOverhangAngle,45
;   supportAngles,0
;   temperatureName,Primary Extruder,Heated Bed
;   temperatureNumber,0,0
;   temperatureSetpointCount,1,1
;   temperatureSetpointLayers,1,1
;   temperatureSetpointTemperatures,210,60
;   temperatureStabilizeAtStartup,1,1
;   temperatureHeatedBed,0,1
;   temperatureRelayBetweenLayers,0,0
;   temperatureRelayBetweenLoops,0,0
;   fanLayers,1,2
;   fanSpeeds,0,100
;   blipFanToFullPower,0
;   adjustSpeedForCooling,1
;   minSpeedLayerTime,15
;   minCoolingSpeedSlowdown,20
;   increaseFanForCooling,0
;   minFanLayerTime,45
;   maxCoolingFanSpeed,100
;   increaseFanForBridging,0
;   bridgingFanSpeed,100
;   use5D,1
;   relativeEdistances,0
;   allowEaxisZeroing,1
;   independentExtruderAxes,0
;   includeM10123,0
;   stickySupport,1
;   applyToolheadOffsets,0
;   gcodeXoffset,0
;   gcodeYoffset,0
;   gcodeZoffset,0
;   overrideMachineDefinition,1
;   machineTypeOverride,0
;   strokeXoverride,120
;   strokeYoverride,120
;   strokeZoverride,120
;   originOffsetXoverride,0
;   originOffsetYoverride,0
;   originOffsetZoverride,0
;   homeXdirOverride,-1
;   homeYdirOverride,-1
;   homeZdirOverride,-1
;   flipXoverride,1
;   flipYoverride,-1
;   flipZoverride,1
;   toolheadOffsets,0,0|0,0|0,0|0,0|0,0|0,0
;   overrideFirmwareConfiguration,1
;   firmwareTypeOverride,RepRap (Marlin/Repetier/Sprinter)
;   GPXconfigOverride,r2
;   baudRateOverride,115200
;   overridePrinterModels,1
;   printerModelsOverride
;   startingGcode,G28 ; home all axes,G1 Z0.2 F1200 ; raise nozzle,G92 E0 ; reset extrusion distance,G1 X100 Y0 E12 F600 ; purge nozzle
;   layerChangeGcode,
;   retractionGcode,
;   toolChangeGcode,
;   endingGcode,M104 S0 ; turn off extruder,M140 S0 ; turn off bed,G1 X0 Y110 F1000 ; prepare for part removal,M84 ; disable motors
;   exportFileFormat,gcode
;   celebration,0
;   celebrationSong,Random Song
;   postProcessing,
;   defaultSpeed,600
;   outlineUnderspeed,0.4
;   solidInfillUnderspeed,0.6
;   supportUnderspeed,0.8
;   rapidXYspeed,3600
;   rapidZspeed,1000
;   minBridgingArea,50
;   bridgingExtraInflation,0
;   bridgingExtrusionMultiplier,1
;   bridgingSpeedMultiplier,1
;   filamentDiameter,1.75
;   filamentPricePerKg,46
;   filamentDensity,1.25
;   useMinPrintHeight,0
;   minPrintHeight,0
;   useMaxPrintHeight,0
;   maxPrintHeight,0
;   useDiaphragm,0
;   diaphragmLayerInterval,20
;   robustSlicing,1
;   mergeAllIntoSolid,0
;   onlyRetractWhenCrossingOutline,1
;   retractBetweenLayers,1
;   useRetractionMinTravel,0
;   retractionMinTravel,3
;   retractWhileWiping,0
;   onlyWipeOutlines,1
;   avoidCrossingOutline,0
;   maxMovementDetourFactor,3
;   toolChangeRetractionDistance,12
;   toolChangeExtraRestartDistance,-0.5
;   toolChangeRetractionSpeed,600
;   allowThinWallGapFill,1
;   thinWallAllowedOverlapPercentage,10
;   horizontalSizeCompensation,0
G90
M82
M106 S0
M140 S60
M190 S60
M104 S210 T0
M109 S210 T0
G28 ; home all axes
G1 Z0.2 F1200 ; raise nozzle
G92 E0 ; reset extrusion distance
G1 X100 Y0 E12 F600 ; purge nozzle
G92 E0
G1 E-2.5000 F1800
G1 Z0.180 F1000
; layer 1, Z = 0.18
T0
; tool H0.200 W0.400
; skirt
G1 X48.241 Y47.942 F3600
G1 E0.0000 F540
G92 E0
G1 X48.263 Y47.922 E0.0010 F300
G1 X50.444 Y46.132 E0.0948
G1 X50.468 Y46.114 E0.0958
G1 X50.819 Y45.880 E0.1099
G1 X50.844 Y45.865 E0.1109
G1 X53.333 Y44.534 E0.2047
G1 X53.360 Y44.522 E0.2057
G1 X53.750 Y44.360 E0.2198
G1 X53.778 Y44.350 E0.2207
G1 X56.479 Y43.531 E0.3146
G1 X56.507 Y43.524 E0.3156
G1 X56.922 Y43.441 E0.3296
G1 X56.951 Y43.437 E0.3306
G1 X59.759 Y43.160 E0.4245
G1 X59.789 Y43.159 E0.4255
G1 X60.211 Y43.159 E0.4395
G1 X60.241 Y43.160 E0.4405
G1 X63.049 Y43.437 E0.5344
G1 X63.078 Y43.441 E0.5353
G1 X63.493 Y43.524 E0.5494
G1 X63.521 Y43.531 E0.5504
G1 X66.222 Y44.350 E0.6442
G1 X66.250 Y44.360 E0.6452
G1 X66.640 Y44.522 E0.6593
G1 X66.667 Y44.534 E0.6602
G1 X69.156 Y45.865 E0.7541
G1 X69.181 Y45.880 E0.7551
G1 X69.532 Y46.114 E0.7691
G1 X69.556 Y46.132 E0.7701
G1 X71.737 Y47.922 E0.8640
G1 X71.759 Y47.942 E0.8650
G1 X72.058 Y48.241 E0.8790
G1 X72.078 Y48.263 E0.8800
G1 X73.868 Y50.444 E0.9739
G1 X73.886 Y50.468 E0.9748
G1 X74.120 Y50.819 E0.9889
G1 X74.135 Y50.844 E0.9899
G1 X75.466 Y53.333 E1.0837
G1 X75.478 Y53.360 E1.0847
G1 X75.640 Y53.750 E1.0988
G1 X75.650 Y53.778 E1.0997
G1 X76.469 Y56.479 E1.1936
G1 X76.476 Y56.507 E1.1946
G1 X76.559 Y56.922 E1.2086
G1 X76.563 Y56.951 E1.2096
G1 X76.840 Y59.759 E1.3035
G1 X76.841 Y59.789 E1.3045
G1 X76.841 Y60.211 E1.3185
G1 X76.840 Y60.241 E1.3195
G1 X76.563 Y63.049 E1.4134
G1 X76.559 Y63.078 E1.4143
G1 X76.476 Y63.493 E1.4284
G1 X76.469 Y63.521 E1.4294
G1 X75.650 Y66.222 E1.5232
G1 X75.640 Y66.250 E1.5242
G1 X75.478 Y66.640 E1.5383
G1 X75.466 Y66.667 E1.5393
G1 X74.135 Y69.156 E1.6331
G1 X74.120 Y69.181 E1.6341
G1 X73.886 Y69.532 E1.6481
G1 X73.868 Y69.556 E1.6491
G1 X72.078 Y71.737 E1.7430
G1 X72.058 Y71.759 E1.7440
G1 X71.759 Y72.058 E1.7580
G1 X71.737 Y72.078 E1.7590
G1 X69.556 Y73.868 E1.8529
G1 X69.532 Y73.886 E1.8538
G1 X69.181 Y74.120 E1.8679
G1 X69.156 Y74.135 E1.8689
G1 X66.667 Y75.466 E1.9627
G1 X66.640 Y75.478 E1.9637
G1 X66.250 Y75.640 E1.9778
G1 X66.222 Y75.650 E1.9788
G1 X63.521 Y76.469 E2.0726
G1 X63.493 Y76.476 E2.0736
G1 X63.078 Y76.559 E2.0877
G1 X63.049 Y76.563 E2.0886
G1 X60.241 Y76.840 E2.1825
G1 X60.211 Y76.841 E2.1835
G1 X59.789 Y76.841 E2.1975
G1 X59.759 Y76.840 E2.1985
G1 X56.951 Y76.563 E2.2924
G1 X56.922 Y76.559 E2.2934
G1 X56.507 Y76.476 E2.3074
G1 X56.479 Y76.469 E2.3084
G1 X53.778 Y75.650 E2.4023
G1 X53.750 Y75.640 E2.4032
G1 X53.360 Y75.478 E2.4173
G1 X53.333 Y75.466 E2.4183
G1 X50.844 Y74.135 E2.5121
G1 X50.819 Y74.120 E2.5131
G1 X50.468 Y73.886 E2.5272
G1 X50.444 Y73.868 E2.5281
G1 X48.263 Y72.078 E2.6220
G1 X48.241 Y72.058 E2.6230
G1 X47.942 Y71.759 E2.6370
G1 X47.922 Y71.737 E2.6380
G1 X46.132 Y69.556 E2.7319
G1 X46.114 Y69.532 E2.7329
G1 X45.880 Y69.181 E2.7469
G1 X45.865 Y69.156 E2.7479
G1 X44.534 Y66.667 E2.8418
G1 X44.522 Y66.640 E2.8427
G1 X44.360 Y66.250 E2.8568
G1 X44.350 Y66.222 E2.8578
G1 X43.531 Y63.521 E2.9516
G1 X43.524 Y63.493 E2.9526
G1 X43.441 Y63.078 E2.9667
G1 X43.437 Y63.049 E2.9676
G1 X43.160 Y60.241 E3.0615
G1 X43.159 Y60.211 E3.0625
G1 X43.159 Y59.789 E3.0765
G1 X43.160 Y59.759 E3.0775
G1 X43.437 Y56.951 E3.1714
G1 X43.441 Y56.922 E3.1724
G1 X43.524 Y56.507 E3.1864
G1 X43.531 Y56.479 E3.1874
G1 X44.350 Y53.778 E3.2813
G1 X44.360 Y53.750 E3.2822
G1 X44.522 Y53.360 E3.2963
G1 X44.534 Y53.333 E3.2973
G1 X45.865 Y50.844 E3.3911
G1 X45.880 Y50.819 E3.3921
G1 X46.114 Y50.468 E3.4062
G1 X46.132 Y50.444 E3.4072
G1 X47.922 Y48.263 E3.5010
G1 X47.942 Y48.241 E3.5020
G1 X48.241 Y47.942 E3.5160
G1 X48.517 Y48.232 F3600
G92 E0
G1 X48.524 Y48.225 E0.0003 F300
G1 X50.690 Y46.447 E0.0935
G1 X50.698 Y46.442 E0.0939
G1 X51.033 Y46.218 E0.1073
G1 X51.042 Y46.213 E0.1076
G1 X53.513 Y44.892 E0.2008
G1 X53.522 Y44.887 E0.2011
G1 X53.894 Y44.733 E0.2145
G1 X53.904 Y44.730 E0.2149
G1 X56.585 Y43.916 E0.3081
G1 X56.595 Y43.914 E0.3084
G1 X56.990 Y43.835 E0.3218
G1 X57.000 Y43.834 E0.3221
G1 X59.789 Y43.559 E0.4153
G1 X59.799 Y43.559 E0.4157
G1 X60.201 Y43.559 E0.4291
G1 X60.211 Y43.559 E0.4294
G1 X63.000 Y43.834 E0.5226
G1 X63.010 Y43.835 E0.5229
G1 X63.405 Y43.914 E0.5363
G1 X63.415 Y43.916 E0.5366
G1 X66.096 Y44.730 E0.6299
G1 X66.106 Y44.733 E0.6302
G1 X66.478 Y44.887 E0.6436
G1 X66.487 Y44.892 E0.6439
G1 X68.958 Y46.213 E0.7371
G1 X68.967 Y46.218 E0.7374
G1 X69.302 Y46.442 E0.7508
G1 X69.310 Y46.447 E0.7512
G1 X71.476 Y48.225 E0.8444
G1 X71.483 Y48.232 E0.8447
G1 X71.768 Y48.517 E0.8581
G1 X71.775 Y48.524 E0.8584
G1 X73.553 Y50.690 E0.9516
G1 X73.558 Y50.698 E0.9520
G1 X73.782 Y51.033 E0.9654
G1 X73.787 Y51.042 E0.9657
G1 X75.108 Y53.513 E1.0589
G1 X75.113 Y53.522 E1.0592
G1 X75.267 Y53.894 E1.0726
G1 X75.270 Y53.904 E1.0730
G1 X76.084 Y56.585 E1.1662
G1 X76.086 Y56.595 E1.1665
G1 X76.165 Y56.990 E1.1799
G1 X76.166 Y57.000 E1.1802
G1 X76.441 Y59.789 E1.2734
G1 X76.441 Y59.799 E1.2738
G1 X76.441 Y60.201 E1.2872
G1 X76.441 Y60.211 E1.2875
G1 X76.166 Y63.000 E1.3807
G1 X76.165 Y63.010 E1.3810
G1 X76.086 Y63.405 E1.3944
G1 X76.084 Y63.415 E1.3948
G1 X75.270 Y66.096 E1.4880
G1 X75.267 Y66.106 E1.4883
G1 X75.113 Y66.478 E1.5017
G1 X75.108 Y66.487 E1.5020
G1 X73.787 Y68.958 E1.5952
G1 X73.782 Y68.967 E1.5956
G1 X73.558 Y69.302 E1.6090
G1 X73.553 Y69.310 E1.6093
G1 X71.775 Y71.476 E1.7025
G1 X71.768 Y71.483 E1.7028
G1 X71.483 Y71.768 E1.7162
G1 X71.476 Y71.775 E1.7165
G1 X69.310 Y73.553 E1.8098
G1 X69.302 Y73.558 E1.8101
G1 X68.967 Y73.782 E1.8235
G1 X68.958 Y73.787 E1.8238
G1 X66.487 Y75.108 E1.9170
G1 X66.478 Y75.113 E1.9173
G1 X66.106 Y75.267 E1.9307
G1 X66.096 Y75.270 E1.9311
G1 X63.415 Y76.084 E2.0243
G1 X63.405 Y76.086 E2.0246
G1 X63.010 Y76.165 E2.0380
G1 X63.000 Y76.166 E2.0383
G1 X60.211 Y76.441 E2.1316
G1 X60.201 Y76.441 E2.1319
G1 X59.799 Y76.441 E2.1453
G1 X59.789 Y76.441 E2.1456
G1 X57.000 Y76.166 E2.2388
G1 X56.990 Y76.165 E2.2391
G1 X56.595 Y76.086 E2.2525
G1 X56.585 Y76.084 E2.2529
G1 X53.904 Y75.270 E2.3461
G1 X53.894 Y75.267 E2.3464
G1 X53.522 Y75.113 E2.3598
G1 X53.513 Y75.108 E2.3601
G1 X51.042 Y73.787 E2.4533
G1 X51.033 Y73.782 E2.4537
G1 X50.698 Y73.558 E2.4671
G1 X50.690 Y73.553 E2.4674
G1 X48.524 Y71.775 E2.5606
G1 X48.517 Y71.768 E2.5609
G1 X48.232 Y71.483 E2.5743
G1 X48.225 Y71.476 E2.5747
G1 X46.447 Y69.310 E2.6679
G1 X46.442 Y69.302 E2.6682
G1 X46.218 Y68.967 E2.6816
G1 X46.213 Y68.958 E2.6819
G1 X44.892 Y66.487 E2.7751
G1 X44.887 Y66.478 E2.7755
G1 X44.733 Y66.106 E2.7889
G1 X44.730 Y66.096 E2.7892
G1 X43.916 Y63.415 E2.8824
G1 X43.914 Y63.405 E2.8827
G1 X43.835 Y63.010 E2.8961
G1 X43.834 Y63.000 E2.8964
G1 X43.559 Y60.211 E2.9897
G1 X43.559 Y60.201 E2.9900
G1 X43.559 Y59.799 E3.0034
G1 X43.559 Y59.789 E3.0037
G1 X43.834 Y57.000 E3.0969
G1 X43.835 Y56.990 E3.0973
G1 X43.914 Y56.595 E3.1106
G1 X43.916 Y56.585 E3.1110
G1 X44.730 Y53.904 E3.2042
G1 X44.733 Y53.894 E3.2045
G1 X44.887 Y53.522 E3.2179
G1 X44.892 Y53.513 E3.2182
G1 X46.213 Y51.042 E3.3115
G1 X46.218 Y51.033 E3.3118
G1 X46.442 Y50.698 E3.3252
G1 X46.447 Y50.690 E3.3255
G1 X48.225 Y48.524 E3.4187
G1 X48.232 Y48.517 E3.4190
G1 X48.517 Y48.232 E3.4324
G92 E0
G1 E-2.5000 F1800
; tool H0.200 W0.480
; infill
G1 X57.983 Y48.480 F3600
G1 E0.0000 F1800
G92 E0
G1 X62.017 Y48.480 E0.1610 F300
G1 X62.286 Y48.507 E0.1718
G1 X63.781 Y48.960 E0.2342
G1 X56.219 Y48.960 E0.5360
G1 X55.515 Y49.173 E0.5653
G1 X55.017 Y49.440 E0.5879
G1 X64.983 Y49.440 E0.9857
G1 X65.881 Y49.920 E1.0263
G1 X54.119 Y49.920 E1.4958
G1 X53.489 Y50.256 E1.5243
G1 X53.314 Y50.400 E1.5333
G1 X66.686 Y50.400 E2.0670
G1 X67.271 Y50.880 E2.0972
G1 X52.729 Y50.880 E2.6776
G1 X52.145 Y51.360 E2.7078
G1 X67.855 Y51.360 E3.3348
G1 X68.286 Y51.714 E3.3571
G1 X68.390 Y51.840 E3.3636
G1 X51.610 Y51.840 E4.0333
G1 X51.216 Y52.320 E4.0581
G1 X68.784 Y52.320 E4.7593
G1 X69.178 Y52.800 E4.7841
G1 X50.822 Y52.800 E5.5167
G1 X50.428 Y53.280 E5.5415
G1 X69.572 Y53.280 E6.3055
G1 X69.744 Y53.489 E6.3163
G1 X69.888 Y53.760 E6.3286
G1 X50.112 Y53.760 E7.1179
G1 X49.855 Y54.240 E7.1396
G1 X70.145 Y54.240 E7.9494
G1 X70.401 Y54.720 E7.9712
G1 X49.599 Y54.720 E8.8015
G1 X49.342 Y55.200 E8.8232
G1 X70.658 Y55.200 E9.6739
G1 X70.827 Y55.515 E9.6882
G1 X70.877 Y55.680 E9.6951
G1 X49.123 Y55.680 E10.5633
G1 X48.978 Y56.160 E10.5833
G1 X71.022 Y56.160 E11.4632
G1 X71.168 Y56.640 E11.4832
G1 X48.832 Y56.640 E12.3746
G1 X48.687 Y57.120 E12.3946
G1 X71.313 Y57.120 E13.2977
G1 X71.459 Y57.600 E13.3178
G1 X48.541 Y57.600 E14.2325
G1 X48.507 Y57.714 E14.2372
G1 X48.470 Y58.080 E14.2519
G1 X71.530 Y58.080 E15.1722
G1 X71.577 Y58.560 E15.1915
G1 X48.423 Y58.560 E16.1156
G1 X48.376 Y59.040 E16.1348
G1 X71.624 Y59.040 E17.0627
G1 X71.671 Y59.520 E17.0820
G1 X48.329 Y59.520 E18.0136
G1 X48.281 Y60.000 E18.0329
G1 X71.719 Y60.000 E18.9683
G1 X71.671 Y60.480 E18.9876
G1 X48.329 Y60.480 E19.9192
G1 X48.376 Y60.960 E19.9385
G1 X71.624 Y60.960 E20.8664
G1 X71.577 Y61.440 E20.8856
G1 X48.423 Y61.440 E21.8097
G1 X48.470 Y61.920 E21.8290
G1 X71.530 Y61.920 E22.7493
G1 X71.493 Y62.286 E22.7640
G1 X71.459 Y62.400 E22.7687
G1 X48.541 Y62.400 E23.6835
G1 X48.687 Y62.880 E23.7035
G1 X71.313 Y62.880 E24.6066
G1 X71.168 Y63.360 E24.6266
G1 X48.832 Y63.360 E25.5180
G1 X48.978 Y63.840 E25.5380
G1 X71.022 Y63.840 E26.4179
G1 X70.877 Y64.320 E26.4379
G1 X49.123 Y64.320 E27.3061
G1 X49.173 Y64.485 E27.3130
G1 X49.342 Y64.800 E27.3273
G1 X70.658 Y64.800 E28.1780
G1 X70.401 Y65.280 E28.1997
G1 X49.599 Y65.280 E29.0300
G1 X49.855 Y65.760 E29.0518
G1 X70.145 Y65.760 E29.8616
G1 X69.888 Y66.240 E29.8833
G1 X50.112 Y66.240 E30.6726
G1 X50.256 Y66.511 E30.6849
G1 X50.428 Y66.720 E30.6957
G1 X69.572 Y66.720 E31.4597
G1 X69.178 Y67.200 E31.4845
G1 X50.822 Y67.200 E32.2171
G1 X51.216 Y67.680 E32.2419
G1 X68.784 Y67.680 E32.9431
G1 X68.390 Y68.160 E32.9679
G1 X51.610 Y68.160 E33.6376
G1 X51.714 Y68.286 E33.6441
G1 X52.145 Y68.640 E33.6664
G1 X67.855 Y68.640 E34.2934
G1 X67.270 Y69.120 E34.3236
G1 X52.729 Y69.120 E34.9040
G1 X53.314 Y69.600 E34.9342
G1 X66.686 Y69.600 E35.4678
G1 X66.511 Y69.744 E35.4769
G1 X65.881 Y70.080 E35.5054
G1 X54.119 Y70.080 E35.9748
G1 X55.017 Y70.560 E36.0155
G1 X64.983 Y70.560 E36.4133
G1 X64.485 Y70.827 E36.4358
G1 X63.781 Y71.040 E36.4652
G1 X56.219 Y71.040 E36.7670
G1 X57.714 Y71.493 E36.8294
G1 X57.983 Y71.520 E36.8402
G1 X62.017 Y71.520 E37.0011
G92 E0
G1 E-2.5000 F1800
; layer 2, Z = 0.38
M106 S255
; infill
G1 X62.017 Y71.520 F3600
G1 Z0.380 F1000
G1 E0.0000 F1800
G92 E0
G1 X57.983 Y71.520 E0.1610 F600
G1 X57.714 Y71.493 E0.1718
G1 X56.219 Y71.040 E0.2341
G1 X63.781 Y71.040 E0.5360
G1 X64.485 Y70.827 E0.5653
G1 X64.983 Y70.560 E0.5879
G1 X55.017 Y70.560 E0.9857
G1 X54.119 Y70.080 E1.0263
G1 X65.881 Y70.080 E1.4958
