; generated by Slic3r 1.3.1-dev on 2019-05-16 at 16:36:44

; external perimeters extrusion width = 1.10mm (8.39mm^3/s)
; perimeters extrusion width = 0.40mm (6.04mm^3/s)
; infill extrusion width = 1.25mm (28.45mm^3/s)
; solid infill extrusion width = 1.40mm (9.62mm^3/s)
; top infill extrusion width = 0.45mm (2.22mm^3/s)

M107
M190 S80 ; set bed temperature and wait for it to be reached
M104 S230 ; set temperature
G28 ; home all axes
G1 X150 Y150 Z50 F10000
; Filament gcode
; layer 1
M109 S230 ; set temperature and wait for it to be reached
G21 ; set units to millimeters
G90 ; use absolute coordinates
M82 ; use absolute distances for extrusion
G92 E0
G92 E0
G1 Z0.300 F15000.000
G1 X131.401 Y140.790 F15000.000
G1 F3600
G1 X132.260 Y140.186 E0.13095
G1 X133.104 Y139.795 E0.24705
G1 X134.087 Y139.537 E0.37372
G1 X134.992 Y139.461 E0.48701
G1 X165.008 Y139.461 E4.23080
G1 X165.913 Y139.537 E4.34409
G1 X166.931 Y139.809 E4.47548
G1 X167.739 Y140.185 E4.58662
G1 X168.473 Y140.689 E4.69774
G1 X168.599 Y140.790 E4.71784
G1 X169.232 Y141.425 E4.82966
G1 X169.827 Y142.285 E4.96016
G1 X170.205 Y143.103 E5.07242
G1 X170.442 Y143.975 E5.18514
G1 X170.539 Y144.992 E5.31260
G1 X170.539 Y155.008 E6.56188
G1 X170.463 Y155.913 E6.67517
G1 X170.191 Y156.931 E6.80656
G1 X169.815 Y157.739 E6.91770
G1 X169.311 Y158.473 E7.02882
G1 X169.210 Y158.599 E7.04892
G1 X168.575 Y159.232 E7.16074
G1 X167.740 Y159.814 E7.28765
G1 X167.028 Y160.147 E7.38569
G1 X166.778 Y160.242 E7.41906
G1 X165.888 Y160.466 E7.53354
G1 X165.008 Y160.539 E7.64366
G1 X134.992 Y160.539 E11.38746
G1 X134.087 Y160.463 E11.50074
G1 X133.069 Y160.191 E11.63213
G1 X132.261 Y159.815 E11.74328
G1 X131.527 Y159.311 E11.85440
G1 X131.401 Y159.210 E11.87450
G1 X130.768 Y158.575 E11.98632
G1 X130.186 Y157.740 E12.11322
G1 X129.853 Y157.028 E12.21126
G1 X129.759 Y156.778 E12.24464
G1 X129.534 Y155.888 E12.35911
G1 X129.461 Y155.008 E12.46924
G1 X129.461 Y144.992 E13.71853
G1 X129.534 Y144.112 E13.82865
G1 X129.795 Y143.103 E13.95869
G1 X130.202 Y142.234 E14.07831
G1 X130.768 Y141.425 E14.20146
G1 X131.295 Y140.896 E14.29457
G92 E0
G1 X168.036 Y158.586 F15000.000
G1 F3600
G1 X167.323 Y159.084 E0.05805
G1 X166.616 Y159.412 E0.11014
G1 X165.864 Y159.617 E0.16225
G1 X164.986 Y159.700 E0.22114
G1 X135.014 Y159.700 E2.22342
G1 X134.136 Y159.617 E2.28232
G1 X133.384 Y159.412 E2.33443
G1 X132.677 Y159.084 E2.38652
G1 X131.964 Y158.586 E2.44457
G1 X131.364 Y157.973 E2.50192
G1 X130.917 Y157.324 E2.55454
G1 X130.588 Y156.616 E2.60669
G1 X130.383 Y155.864 E2.65881
G1 X130.300 Y154.986 E2.71770
G1 X130.300 Y145.013 E3.38396
G1 X130.367 Y144.223 E3.43692
G1 X130.588 Y143.384 E3.49485
G1 X130.962 Y142.601 E3.55281
G1 X131.413 Y141.965 E3.60493
G1 X131.964 Y141.414 E3.65701
G1 X132.677 Y140.916 E3.71506
G1 X133.385 Y140.587 E3.76720
G1 X133.729 Y140.492 E3.79107
G1 X134.221 Y140.367 E3.82502
G1 X135.013 Y140.300 E3.87807
G1 X165.076 Y140.305 E5.88644
G1 X165.863 Y140.382 E5.93929
G1 X166.616 Y140.588 E5.99144
G1 X167.323 Y140.916 E6.04353
G1 X168.036 Y141.414 E6.10158
G1 X168.586 Y141.964 E6.15359
G1 X169.084 Y142.677 E6.21163
G1 X169.412 Y143.383 E6.26364
G1 X169.633 Y144.223 E6.32169
G1 X169.700 Y145.013 E6.37464
G1 X169.700 Y154.987 E7.04100
G1 X169.633 Y155.777 E7.09395
G1 X169.412 Y156.616 E7.15189
G1 X169.038 Y157.399 E7.20984
G1 X168.587 Y158.035 E7.26196
G1 X168.142 Y158.480 E7.30402
G1 X168.036 Y158.586 F15000.000
G1 X167.690 Y158.174 F15000.000
G1 F3600
G1 X167.055 Y158.618 E7.35578
G1 X166.432 Y158.907 E7.40172
G1 X165.767 Y159.088 E7.44771
G1 X164.961 Y159.164 E7.50183
G1 X135.039 Y159.164 E9.50075
G1 X134.233 Y159.088 E9.55487
G1 X133.568 Y158.907 E9.60087
G1 X132.945 Y158.618 E9.64680
G1 X132.310 Y158.174 E9.69856
G1 X131.786 Y157.642 E9.74843
G1 X131.383 Y157.057 E9.79585
G1 X131.093 Y156.432 E9.84195
G1 X130.912 Y155.767 E9.88795
G1 X130.836 Y154.961 E9.94207
G1 X130.836 Y145.035 E10.60515
G1 X130.897 Y144.314 E10.65347
G1 X131.093 Y143.570 E10.70493
G1 X131.425 Y142.874 E10.75645
G1 X131.824 Y142.312 E10.80247
G1 X132.310 Y141.826 E10.84837
G1 X132.945 Y141.382 E10.90013
G1 X133.570 Y141.092 E10.94621
G1 X133.866 Y141.009 E10.96674
G1 X134.310 Y140.897 E10.99733
G1 X135.035 Y140.836 E11.04593
G1 X165.050 Y140.841 E13.05105
G1 X165.766 Y140.911 E13.09913
G1 X166.432 Y141.093 E13.14523
G1 X167.055 Y141.382 E13.19116
G1 X167.690 Y141.826 E13.24292
G1 X168.174 Y142.310 E13.28862
G1 X168.618 Y142.945 E13.34038
G1 X168.906 Y143.565 E13.38608
G1 X169.103 Y144.314 E13.43784
G1 X169.164 Y145.035 E13.48617
G1 X169.164 Y154.965 E14.14951
G1 X169.103 Y155.686 E14.19784
G1 X168.907 Y156.430 E14.24930
G1 X168.575 Y157.126 E14.30082
G1 X168.176 Y157.688 E14.34684
G1 X167.796 Y158.068 E14.38272
G1 X167.345 Y157.762 F15000.000
G1 F3600
G1 X166.787 Y158.152 E14.42819
G1 X166.247 Y158.403 E14.46797
G1 X165.671 Y158.560 E14.50785
G1 X164.936 Y158.629 E14.55720
G1 X135.064 Y158.629 E16.55276
G1 X134.329 Y158.560 E16.60211
G1 X133.753 Y158.403 E16.64198
G1 X133.213 Y158.152 E16.68176
G1 X132.655 Y157.762 E16.72723
G1 X132.209 Y157.311 E16.76962
G1 X131.850 Y156.791 E16.81183
G1 X131.597 Y156.247 E16.85188
G1 X131.440 Y155.671 E16.89176
G1 X131.371 Y154.936 E16.94111
G1 X131.371 Y145.058 E17.60100
G1 X131.426 Y144.406 E17.64471
G1 X131.598 Y143.755 E17.68968
G1 X131.889 Y143.146 E17.73476
G1 X132.235 Y142.658 E17.77469
G1 X132.655 Y142.238 E17.81441
G1 X133.213 Y141.848 E17.85989
G1 X133.756 Y141.596 E17.89990
G1 X134.004 Y141.527 E17.91708
G1 X134.399 Y141.427 E17.94432
G1 X135.058 Y141.371 E17.98847
G1 X165.023 Y141.377 E19.99033
G1 X165.669 Y141.440 E20.03365
G1 X166.247 Y141.597 E20.07369
G1 X166.787 Y141.848 E20.11347
G1 X167.345 Y142.238 E20.15894
G1 X167.762 Y142.655 E20.19833
G1 X168.152 Y143.213 E20.24380
G1 X168.400 Y143.748 E20.28320
G1 X168.574 Y144.406 E20.32867
G1 X168.629 Y145.058 E20.37237
G1 X168.629 Y154.942 E21.03270
G1 X168.574 Y155.594 E21.07640
G1 X168.402 Y156.245 E21.12138
G1 X168.111 Y156.854 E21.16646
G1 X167.765 Y157.342 E21.20639
G1 X167.451 Y157.656 E21.23609
G92 E0
G1 X162.361 Y154.991 F15000.000
G1 F3600
G1 X162.000 Y155.055 E0.02447
G1 X161.640 Y154.991 E0.04886
G1 X161.354 Y154.828 E0.07090
G1 X161.187 Y154.669 E0.08628
G1 X161.009 Y154.361 E0.11008
G1 X160.945 Y154.000 E0.13455
G1 X161.009 Y153.639 E0.15902
G1 X161.192 Y153.322 E0.18349
G1 X161.462 Y153.095 E0.20706
G1 X161.652 Y153.007 E0.22100
G1 X161.963 Y152.950 E0.24214
G1 X162.179 Y152.964 E0.25663
G1 X162.372 Y153.016 E0.26999
G1 X162.666 Y153.185 E0.29266
G1 X162.815 Y153.334 E0.30668
G1 X162.991 Y153.639 E0.33025
G1 X163.055 Y154.000 E0.35472
G1 X162.991 Y154.361 E0.37919
G1 X162.815 Y154.666 E0.40276
G1 X162.666 Y154.815 E0.41677
G1 X162.491 Y154.916 E0.43032
G1 X162.288 Y155.350 F15000.000
G1 X162.547 Y155.502 F15000.000
G1 F3600
G1 X162.000 Y155.599 E0.46741
G1 X161.456 Y155.503 E0.50429
G1 X161.031 Y155.261 E0.53694
G1 X160.762 Y155.004 E0.56187
G1 X160.498 Y154.547 E0.59710
G1 X160.401 Y154.000 E0.63419
G1 X160.498 Y153.453 E0.67128
G1 X160.775 Y152.973 E0.70837
G1 X161.172 Y152.640 E0.74296
G1 X161.487 Y152.493 E0.76619
G1 X161.931 Y152.411 E0.79634
G1 X162.267 Y152.433 E0.81880
G1 X162.579 Y152.517 E0.84040
G1 X162.995 Y152.757 E0.87250
G1 X163.243 Y153.005 E0.89594
G1 X163.502 Y153.453 E0.93053
G1 X163.599 Y154.000 E0.96762
G1 X163.502 Y154.547 E1.00470
G1 X163.243 Y154.995 E1.03930
G1 X162.995 Y155.243 E1.06273
G1 X162.677 Y155.427 E1.08730
G1 X162.640 Y156.030 F15000.000
G1 F3600
G1 X162.000 Y156.142 E1.13070
G1 X161.272 Y156.014 E1.18007
G1 X160.709 Y155.694 E1.22332
G1 X160.336 Y155.338 E1.25780
G1 X159.987 Y154.733 E1.30447
G1 X159.858 Y154.000 E1.35418
G1 X159.987 Y153.267 E1.40388
G1 X160.359 Y152.623 E1.45359
G1 X160.882 Y152.184 E1.49920
G1 X161.323 Y151.978 E1.53173
G1 X161.900 Y151.872 E1.57089
G1 X162.354 Y151.902 E1.60131
G1 X162.786 Y152.017 E1.63117
G1 X163.324 Y152.328 E1.67269
G1 X163.672 Y152.676 E1.70554
G1 X164.013 Y153.267 E1.75116
G1 X164.142 Y154.000 E1.80086
G1 X164.013 Y154.733 E1.85057
G1 X163.672 Y155.324 E1.89618
G1 X163.324 Y155.672 E1.92904
G1 X162.781 Y155.985 E1.97094
G92 E0
G1 X162.000 Y155.853 F15000.000
G1 X162.698 Y157.349 F15000.000
G1 X164.851 Y156.818 F15000.000
G1 X165.794 Y156.136 F15000.000
G1 X166.301 Y154.852 F15000.000
G1 X166.255 Y152.822 F15000.000
G1 X165.462 Y149.982 F15000.000
G1 X163.010 Y150.020 F15000.000
G1 X162.000 Y147.853 F15000.000
G1 X162.361 Y146.991 F15000.000
G1 F3600
G1 X162.000 Y147.055 E0.02447
G1 X161.640 Y146.991 E0.04886
G1 X161.354 Y146.828 E0.07090
G1 X161.187 Y146.669 E0.08628
G1 X161.009 Y146.361 E0.11008
G1 X160.945 Y146.000 E0.13455
G1 X161.009 Y145.639 E0.15902
G1 X161.192 Y145.322 E0.18349
G1 X161.462 Y145.095 E0.20706
G1 X161.652 Y145.007 E0.22100
G1 X161.963 Y144.950 E0.24214
G1 X162.179 Y144.964 E0.25663
G1 X162.372 Y145.016 E0.26999
G1 X162.666 Y145.185 E0.29266
G1 X162.815 Y145.334 E0.30668
G1 X162.991 Y145.639 E0.33025
G1 X163.055 Y146.000 E0.35472
G1 X162.991 Y146.361 E0.37919
G1 X162.815 Y146.666 E0.40276
G1 X162.666 Y146.815 E0.41677
G1 X162.491 Y146.916 E0.43032
G1 X162.288 Y147.350 F15000.000
G1 X162.547 Y147.502 F15000.000
G1 F3600
G1 X162.000 Y147.599 E0.46741
G1 X161.456 Y147.503 E0.50429
G1 X161.031 Y147.261 E0.53694
G1 X160.762 Y147.004 E0.56187
G1 X160.498 Y146.547 E0.59710
G1 X160.401 Y146.000 E0.63419
G1 X160.498 Y145.453 E0.67128
G1 X160.775 Y144.973 E0.70837
G1 X161.172 Y144.640 E0.74296
G1 X161.487 Y144.493 E0.76619
G1 X161.931 Y144.411 E0.79634
G1 X162.267 Y144.433 E0.81880
G1 X162.579 Y144.517 E0.84040
G1 X162.995 Y144.757 E0.87250
G1 X163.243 Y145.005 E0.89594
G1 X163.502 Y145.453 E0.93053
G1 X163.599 Y146.000 E0.96762
G1 X163.502 Y146.547 E1.00470
G1 X163.243 Y146.995 E1.03930
G1 X162.995 Y147.243 E1.06273
G1 X162.677 Y147.427 E1.08730
G1 X162.815 Y147.966 F15000.000
G1 F3600
G1 X162.733 Y148.013 E1.09361
G1 X162.000 Y148.142 E1.14332
G1 X161.272 Y148.014 E1.19269
G1 X160.709 Y147.694 E1.23594
G1 X160.336 Y147.338 E1.27042
G1 X159.987 Y146.733 E1.31709
G1 X159.858 Y146.000 E1.36680
G1 X159.987 Y145.267 E1.41650
G1 X160.359 Y144.623 E1.46621
G1 X160.882 Y144.184 E1.51182
G1 X161.323 Y143.978 E1.54435
G1 X161.900 Y143.872 E1.58351
G1 X162.354 Y143.902 E1.61393
G1 X162.786 Y144.017 E1.64379
G1 X163.324 Y144.328 E1.68531
G1 X163.672 Y144.676 E1.71816
G1 X164.013 Y145.267 E1.76378
G1 X164.142 Y146.000 E1.81348
G1 X164.013 Y146.733 E1.86319
G1 X163.672 Y147.324 E1.90880
G1 X163.324 Y147.672 E1.94166
G1 X162.944 Y147.891 E1.97094
G92 E0
G1 X163.373 Y147.213 F15000.000
G1 X164.652 Y149.957 F15000.000
G1 X142.004 Y150.002 F15000.000
G1 X142.015 Y147.008 F15000.000
G1 X138.991 Y145.639 F15000.000
G1 F3600
G1 X139.052 Y145.987 E0.02357
G1 X139.035 Y146.188 E0.03705
G1 X138.967 Y146.408 E0.05247
G1 X138.813 Y146.668 E0.07261
G1 X138.666 Y146.815 E0.08649
G1 X138.361 Y146.991 E0.11007
G1 X138.000 Y147.055 E0.13453
G1 X137.639 Y146.991 E0.15900
G1 X137.334 Y146.815 E0.18258
G1 X137.185 Y146.666 E0.19659
G1 X137.009 Y146.361 E0.22016
G1 X136.945 Y146.000 E0.24463
G1 X137.009 Y145.639 E0.26910
G1 X137.192 Y145.322 E0.29357
G1 X137.462 Y145.095 E0.31714
G1 X137.652 Y145.007 E0.33108
G1 X137.963 Y144.950 E0.35222
G1 X138.179 Y144.964 E0.36671
G1 X138.372 Y145.016 E0.38006
G1 X138.666 Y145.185 E0.40274
G1 X138.815 Y145.334 E0.41675
G1 X138.916 Y145.509 E0.43031
G1 X139.337 Y145.709 F15000.000
G1 X139.502 Y145.453 F15000.000
G1 F3600
G1 X139.592 Y145.963 E0.46490
G1 X139.563 Y146.291 E0.48685
G1 X139.461 Y146.627 E0.51033
G1 X139.239 Y146.999 E0.53926
G1 X138.995 Y147.243 E0.56234
G1 X138.547 Y147.502 E0.59693
G1 X138.000 Y147.599 E0.63402
G1 X137.453 Y147.502 E0.67110
G1 X137.005 Y147.243 E0.70570
G1 X136.757 Y146.995 E0.72913
G1 X136.498 Y146.547 E0.76372
G1 X136.401 Y146.000 E0.80081
G1 X136.498 Y145.453 E0.83790
G1 X136.775 Y144.972 E0.87499
G1 X137.172 Y144.640 E0.90958
G1 X137.487 Y144.493 E0.93281
G1 X137.931 Y144.411 E0.96296
G1 X138.267 Y144.433 E0.98542
G1 X138.579 Y144.517 E1.00702
G1 X138.995 Y144.757 E1.03912
G1 X139.243 Y145.005 E1.06256
G1 X139.427 Y145.323 E1.08713
G1 X140.030 Y145.360 F15000.000
G1 F3600
G1 X140.132 Y145.940 E1.12643
G1 X140.092 Y146.393 E1.15685
G1 X139.954 Y146.845 E1.18840
G1 X139.666 Y147.330 E1.22612
G1 X139.324 Y147.672 E1.25839
G1 X138.733 Y148.013 E1.30400
G1 X138.000 Y148.142 E1.35371
G1 X137.267 Y148.013 E1.40341
G1 X136.676 Y147.672 E1.44903
G1 X136.328 Y147.324 E1.48188
G1 X135.987 Y146.733 E1.52749
G1 X135.858 Y146.000 E1.57720
G1 X135.987 Y145.267 E1.62691
G1 X136.359 Y144.623 E1.67661
G1 X136.882 Y144.184 E1.72223
G1 X137.323 Y143.978 E1.75475
G1 X137.900 Y143.872 E1.79391
G1 X138.354 Y143.902 E1.82433
G1 X138.786 Y144.017 E1.85419
G1 X139.324 Y144.328 E1.89571
G1 X139.672 Y144.676 E1.92857
G1 X139.985 Y145.219 E1.97047
G92 E0
G1 X137.652 Y153.007 F15000.000
G1 F3600
G1 X137.963 Y152.950 E0.02114
G1 X138.179 Y152.964 E0.03563
G1 X138.372 Y153.016 E0.04899
G1 X138.666 Y153.185 E0.07166
G1 X138.815 Y153.334 E0.08568
G1 X138.991 Y153.639 E0.10925
G1 X139.055 Y154.000 E0.13372
G1 X138.991 Y154.361 E0.15819
G1 X138.815 Y154.666 E0.18176
G1 X138.666 Y154.815 E0.19577
G1 X138.361 Y154.991 E0.21934
G1 X138.000 Y155.055 E0.24381
G1 X137.639 Y154.991 E0.26828
G1 X137.334 Y154.815 E0.29185
G1 X137.185 Y154.666 E0.30587
G1 X137.009 Y154.361 E0.32944
G1 X136.945 Y154.000 E0.35391
G1 X137.009 Y153.639 E0.37838
G1 X137.192 Y153.322 E0.40284
G1 X137.462 Y153.095 E0.42642
G1 X137.516 Y153.070 E0.43034
G1 X137.715 Y152.697 F15000.000
G1 X137.487 Y152.493 F15000.000
G1 F3600
G1 X137.931 Y152.411 E0.46049
G1 X138.267 Y152.433 E0.48294
G1 X138.579 Y152.517 E0.50455
G1 X138.995 Y152.757 E0.53665
G1 X139.243 Y153.005 E0.56008
G1 X139.502 Y153.453 E0.59468
G1 X139.599 Y154.000 E0.63176
G1 X139.502 Y154.547 E0.66885
G1 X139.243 Y154.995 E0.70344
G1 X138.995 Y155.243 E0.72688
G1 X138.547 Y155.502 E0.76147
G1 X138.000 Y155.599 E0.79856
G1 X137.453 Y155.502 E0.83564
G1 X137.005 Y155.243 E0.87024
G1 X136.757 Y154.995 E0.89367
G1 X136.498 Y154.547 E0.92826
G1 X136.401 Y154.000 E0.96535
G1 X136.498 Y153.453 E1.00244
G1 X136.775 Y152.973 E1.03953
G1 X137.172 Y152.640 E1.07412
G1 X137.351 Y152.556 E1.08733
G1 X137.391 Y151.966 F15000.000
G1 F3600
G1 X137.900 Y151.872 E1.12191
G1 X138.354 Y151.902 E1.15233
G1 X138.786 Y152.017 E1.18219
G1 X139.324 Y152.328 E1.22371
G1 X139.672 Y152.676 E1.25656
G1 X140.013 Y153.267 E1.30218
G1 X140.142 Y154.000 E1.35188
G1 X140.013 Y154.733 E1.40159
G1 X139.672 Y155.324 E1.44720
G1 X139.324 Y155.672 E1.48006
G1 X138.733 Y156.013 E1.52567
G1 X138.000 Y156.142 E1.57538
G1 X137.267 Y156.013 E1.62508
G1 X136.676 Y155.672 E1.67070
G1 X136.328 Y155.324 E1.70355
G1 X135.987 Y154.733 E1.74917
G1 X135.858 Y154.000 E1.79887
G1 X135.987 Y153.267 E1.84858
G1 X136.359 Y152.623 E1.89829
G1 X136.882 Y152.184 E1.94390
G1 X137.249 Y152.013 E1.97098
G92 E0
G1 X145.009 Y154.361 F15000.000
G1 F3600
G1 X144.945 Y154.000 E0.02447
G1 X145.009 Y153.639 E0.04894
G1 X145.192 Y153.322 E0.07341
G1 X145.462 Y153.095 E0.09698
G1 X145.652 Y153.007 E0.11092
G1 X145.963 Y152.950 E0.13206
G1 X146.179 Y152.964 E0.14655
G1 X146.372 Y153.016 E0.15990
G1 X146.666 Y153.185 E0.18258
G1 X146.815 Y153.334 E0.19659
G1 X146.991 Y153.639 E0.22017
G1 X147.055 Y154.000 E0.24464
G1 X146.991 Y154.361 E0.26910
G1 X146.815 Y154.666 E0.29268
G1 X146.666 Y154.815 E0.30669
G1 X146.361 Y154.991 E0.33026
G1 X146.000 Y155.055 E0.35473
G1 X145.639 Y154.991 E0.37920
G1 X145.334 Y154.815 E0.40277
G1 X145.185 Y154.666 E0.41678
G1 X145.084 Y154.491 E0.43034
G1 X144.650 Y154.288 F15000.000
G1 X144.498 Y154.547 F15000.000
G1 F3600
G1 X144.401 Y154.000 E0.46742
G1 X144.498 Y153.453 E0.50451
G1 X144.775 Y152.972 E0.54160
G1 X145.172 Y152.640 E0.57619
G1 X145.487 Y152.493 E0.59942
G1 X145.931 Y152.411 E0.62958
G1 X146.267 Y152.433 E0.65203
G1 X146.579 Y152.517 E0.67363
G1 X146.995 Y152.757 E0.70574
G1 X147.243 Y153.005 E0.72917
G1 X147.502 Y153.453 E0.76376
G1 X147.599 Y154.000 E0.80085
G1 X147.502 Y154.547 E0.83794
G1 X147.243 Y154.995 E0.87253
G1 X146.995 Y155.243 E0.89596
G1 X146.547 Y155.502 E0.93056
