; generated by Slic3r 1.3.1-dev on 2019-06-13 at 16:13:00

; external perimeters extrusion width = 1.10mm (8.39mm^3/s)
; perimeters extrusion width = 0.40mm (6.04mm^3/s)
; infill extrusion width = 1.25mm (28.45mm^3/s)
; solid infill extrusion width = 1.40mm (9.62mm^3/s)
; top infill extrusion width = 0.45mm (2.22mm^3/s)

M190 S80 ; set bed temperature and wait for it to be reached
M104 S230 ; set temperature
G28 ; home all axes
G1 X150 Y150 Z50 F10000
; Filament gcode

M109 S230 ; set temperature and wait for it to be reached
G21 ; set units to millimeters
G90 ; use absolute coordinates
M82 ; use absolute distances for extrusion
G92 E0
G92 E0
; layer 1
G1 Z0.300 F15000.000
G1 X54.777 Y46.961 F15000.000
G1 F3600
G1 X75.223 Y46.961 E2.55024
G1 X75.539 Y47.277 E2.60597
G1 X75.539 Y67.723 E5.15622
G1 X75.223 Y68.039 E5.21195
G1 X54.777 Y68.039 E7.76219
G1 X54.461 Y67.723 E7.81792
G1 X54.461 Y47.277 E10.36816
G1 X54.671 Y47.067 E10.40519
G92 E0
G1 X74.700 Y67.200 F15000.000
G1 F3600
G1 X55.300 Y67.200 E1.29602
G1 X55.300 Y47.800 E2.59205
G1 X74.700 Y47.800 E3.88807
G1 X74.700 Y67.050 E5.17408
G1 X73.734 Y66.941 F15000.000
G1 X74.164 Y66.664 F15000.000
G1 F3600
G1 X55.836 Y66.664 E6.39854
G1 X55.836 Y48.336 E7.62300
G1 X74.164 Y48.336 E8.84746
G1 X74.164 Y66.514 E10.06190
G1 X73.629 Y66.129 F15000.000
G1 F3600
G1 X56.371 Y66.129 E11.21480
G1 X56.371 Y48.871 E12.36769
G1 X73.629 Y48.871 E13.52059
G1 X73.629 Y65.979 E14.66346
G92 E0
G1 X64.460 Y56.960 F15000.000
G1 F3600
G1 X65.540 Y56.960 E0.07262
G1 X65.540 Y58.040 E0.14524
G1 X64.460 Y58.040 E0.21785
G1 X64.460 Y57.110 E0.28038
G1 X63.921 Y56.421 F15000.000
G1 F3600
G1 X66.079 Y56.421 E0.42561
G1 X66.079 Y58.579 E0.57085
G1 X63.921 Y58.579 E0.71608
G1 X63.921 Y56.571 E0.85122
G1 X63.381 Y55.881 F15000.000
G1 F3600
G1 X66.619 Y55.881 E1.06907
G1 X66.619 Y59.119 E1.28693
G1 X63.381 Y59.119 E1.50478
G1 X63.381 Y56.031 E1.71253
G1 X62.842 Y55.342 F15000.000
G1 F3600
G1 X67.158 Y55.342 E2.00300
G1 X67.158 Y59.658 E2.29347
G1 X62.842 Y59.658 E2.58394
G1 X62.842 Y55.492 E2.86432
G1 X62.302 Y54.802 F15000.000
G1 F3600
G1 X67.698 Y54.802 E3.22740
G1 X67.698 Y60.198 E3.59049
G1 X62.302 Y60.198 E3.95357
G1 X62.302 Y54.952 E4.30657
G1 X61.763 Y54.263 F15000.000
G1 F3600
G1 X68.237 Y54.263 E4.74227
G1 X68.237 Y60.737 E5.17797
G1 X61.763 Y60.737 E5.61368
G1 X61.763 Y54.413 E6.03929
G1 X61.223 Y53.723 F15000.000
G1 F3600
G1 X68.777 Y53.723 E6.54761
G1 X68.777 Y61.277 E7.05593
G1 X61.223 Y61.277 E7.56425
G1 X61.223 Y53.873 E8.06247
G1 X60.684 Y53.184 F15000.000
G1 F3600
G1 X69.316 Y53.184 E8.64341
G1 X69.316 Y61.816 E9.22435
G1 X60.684 Y61.816 E9.80528
G1 X60.684 Y53.334 E10.37613
G1 X60.144 Y52.644 F15000.000
G1 F3600
G1 X69.856 Y52.644 E11.02968
G1 X69.856 Y62.356 E11.68324
G1 X60.144 Y62.356 E12.33679
G1 X60.144 Y52.794 E12.98025
G1 X59.605 Y52.105 F15000.000
G1 F3600
G1 X70.395 Y52.105 E13.70642
G1 X70.395 Y62.895 E14.43260
G1 X59.605 Y62.895 E15.15877
G1 X59.605 Y52.255 E15.87484
G1 X59.065 Y51.565 F15000.000
G1 F3600
G1 X70.935 Y51.565 E16.67363
G1 X70.935 Y63.435 E17.47242
G1 X59.065 Y63.435 E18.27121
G1 X59.065 Y51.715 E19.05991
G1 X58.525 Y51.025 F15000.000
G1 F3600
G1 X71.475 Y51.025 E19.93131
G1 X71.475 Y63.975 E20.80272
G1 X58.525 Y63.975 E21.67412
G1 X58.525 Y51.175 E22.53544
G1 X57.986 Y50.486 F15000.000
G1 F3600
G1 X72.014 Y50.486 E23.47946
G1 X72.014 Y64.514 E24.42348
G1 X57.986 Y64.514 E25.36750
G1 X57.986 Y50.636 E26.30143
G1 X57.446 Y49.946 F15000.000
G1 F3600
G1 X72.554 Y49.946 E27.31807
G1 X72.554 Y65.054 E28.33471
G1 X57.446 Y65.054 E29.35135
G1 X57.446 Y50.096 E30.35790
G1 X56.907 Y49.407 F15000.000
G1 F3600
G1 X73.093 Y49.407 E31.44716
G1 X73.093 Y65.593 E32.53641
G1 X56.907 Y65.593 E33.62567
G1 X56.907 Y49.557 E34.70483
M104 S205 ; set temperature
M140 S55 ; set bed temperature
G1 Z0.600 F15000.000
G92 E0
G1 X73.429 Y65.929 F15000.000
G1 F3600
G1 X56.571 Y65.929 E0.70566
G1 X56.571 Y49.071 E1.41132
G1 X73.429 Y49.071 E2.11698
G1 X73.429 Y65.779 E2.81637
G1 X73.764 Y66.264 F15000.000
G1 F3600
G1 X56.236 Y66.264 E3.55012
G1 X56.236 Y48.736 E4.28388
G1 X73.764 Y48.736 E5.01764
G1 X73.764 Y66.114 E5.74512
G1 X74.450 Y66.950 F15000.000
G1 F1620
G1 X55.550 Y66.950 E8.18640
G1 X55.550 Y48.050 E10.62768
G1 X74.450 Y48.050 E13.06896
G1 X74.450 Y66.800 E15.49086
G1 X73.484 Y66.691 F15000.000
G92 E0
G1 X72.682 Y49.996 F15000.000
G1 F1440
G1 X72.504 Y49.818 E0.04200
G1 X70.606 Y49.818 E0.35980
G1 X72.682 Y51.894 E0.85125
G1 X72.682 Y53.792 E1.16905
G1 X68.708 Y49.818 E2.10993
G1 X66.810 Y49.818 E2.42774
G1 X72.682 Y55.690 E3.81806
G1 X72.682 Y57.589 E4.13586
G1 X64.911 Y49.818 E5.97563
G1 X63.013 Y49.818 E6.29343
G1 X72.682 Y59.487 E8.58263
G1 X72.682 Y61.385 E8.90043
G1 X61.115 Y49.818 E11.63908
G1 X59.216 Y49.818 E11.95688
G1 X72.682 Y63.284 E15.14497
G1 X72.682 Y65.182 E15.46277
G1 X57.318 Y49.818 E19.10030
G1 X57.318 Y51.716 E19.41810
G1 X70.784 Y65.182 E22.60619
G1 X68.885 Y65.182 E22.92399
G1 X57.318 Y53.615 E25.66264
G1 X57.318 Y55.513 E25.98044
G1 X66.987 Y65.182 E28.26965
G1 X65.089 Y65.182 E28.58745
G1 X57.318 Y57.411 E30.42722
G1 X57.318 Y59.310 E30.74503
G1 X63.190 Y65.182 E32.13535
G1 X61.292 Y65.182 E32.45316
G1 X57.318 Y61.208 E33.39405
G1 X57.318 Y63.106 E33.71185
G1 X59.394 Y65.182 E34.20330
G1 X57.496 Y65.182 E34.52110
G1 X57.318 Y65.004 E34.56311
G1 Z0.900 F15000.000
G92 E0
G1 X73.429 Y65.929 F15000.000
G1 F3600
G1 X56.571 Y65.929 E0.70566
G1 X56.571 Y49.071 E1.41132
G1 X73.429 Y49.071 E2.11698
G1 X73.429 Y65.779 E2.81637
G1 X73.764 Y66.264 F15000.000
G1 F3600
G1 X56.236 Y66.264 E3.55012
G1 X56.236 Y48.736 E4.28388
G1 X73.764 Y48.736 E5.01764
G1 X73.764 Y66.114 E5.74512
G1 X74.450 Y66.950 F15000.000
G1 F1620
G1 X55.550 Y66.950 E8.18640
G1 X55.550 Y48.050 E10.62768
G1 X74.450 Y48.050 E13.06896
G1 X74.450 Y66.800 E15.49086
G1 X73.484 Y66.691 F15000.000
G92 E0
G1 X72.504 Y65.182 F15000.000
G1 F1440
G1 X72.682 Y65.004 E0.04200
G1 X72.682 Y63.106 E0.35980
G1 X70.606 Y65.182 E0.85125
G1 X68.708 Y65.182 E1.16905
G1 X72.682 Y61.208 E2.10993
G1 X72.682 Y59.310 E2.42773
G1 X66.810 Y65.182 E3.81806
G1 X64.911 Y65.182 E4.13586
G1 X72.682 Y57.411 E5.97562
G1 X72.682 Y55.513 E6.29343
G1 X63.013 Y65.182 E8.58263
G1 X61.115 Y65.182 E8.90043
G1 X72.682 Y53.615 E11.63908
G1 X72.682 Y51.716 E11.95688
G1 X59.216 Y65.182 E15.14497
G1 X57.318 Y65.182 E15.46277
G1 X72.682 Y49.818 E19.10030
G1 X70.784 Y49.818 E19.41810
G1 X57.318 Y63.284 E22.60619
G1 X57.318 Y61.385 E22.92399
G1 X68.885 Y49.818 E25.66264
G1 X66.987 Y49.818 E25.98044
G1 X57.318 Y59.487 E28.26965
G1 X57.318 Y57.589 E28.58745
G1 X65.089 Y49.818 E30.42722
G1 X63.190 Y49.818 E30.74503
G1 X57.318 Y55.690 E32.13535
G1 X57.318 Y53.792 E32.45316
G1 X61.292 Y49.818 E33.39404
G1 X59.394 Y49.818 E33.71185
G1 X57.318 Y51.894 E34.20329
G1 X57.318 Y49.996 E34.52110
G1 X57.496 Y49.818 E34.56310
M106 S255
G1 Z1.200 F15000.000
G92 E0
G1 X73.429 Y65.929 F15000.000
G1 F3600
G1 X56.571 Y65.929 E0.70566
G1 X56.571 Y49.071 E1.41132
G1 X73.429 Y49.071 E2.11698
G1 X73.429 Y65.779 E2.81637
G1 X73.764 Y66.264 F15000.000
G1 F3600
G1 X56.236 Y66.264 E3.55012
G1 X56.236 Y48.736 E4.28388
G1 X73.764 Y48.736 E5.01764
G1 X73.764 Y66.114 E5.74512
G1 X74.450 Y66.950 F15000.000
G1 F1620
G1 X55.550 Y66.950 E8.18640
G1 X55.550 Y48.050 E10.62768
G1 X74.450 Y48.050 E13.06896
G1 X74.450 Y66.800 E15.49086
G1 X73.484 Y66.691 F15000.000
G92 E0
G1 X63.722 Y56.222 F15000.000
G1 F4800
G1 X66.278 Y56.222 E0.37798
G1 X66.278 Y58.778 E0.75596
G1 X63.722 Y58.778 E1.13395
G1 X63.722 Y56.372 E1.48975
G1 X62.444 Y54.944 F15000.000
G1 F4800
G1 X67.556 Y54.944 E2.24571
G1 X67.556 Y60.056 E3.00167
G1 X62.444 Y60.056 E3.75764
G1 X62.444 Y55.094 E4.49142
G1 X61.166 Y53.666 F15000.000
G1 F4800
G1 X68.834 Y53.666 E5.62536
G1 X68.834 Y61.334 E6.75931
G1 X61.166 Y61.334 E7.89325
G1 X61.166 Y53.816 E9.00501
G1 X59.888 Y52.388 F15000.000
G1 F4800
G1 X70.112 Y52.388 E10.51694
G1 X70.112 Y62.612 E12.02886
G1 X59.888 Y62.612 E13.54079
G1 X59.888 Y52.538 E15.03053
G1 X58.610 Y51.110 F15000.000
G1 F4800
G1 X71.390 Y51.110 E16.92044
G1 X71.390 Y63.890 E18.81034
G1 X58.610 Y63.890 E20.70025
G1 X58.610 Y51.260 E22.56797
G1 X57.332 Y49.832 F15000.000
G1 F4800
G1 X72.668 Y49.832 E24.83586
G1 X72.668 Y65.168 E27.10375
G1 X57.332 Y65.168 E29.37164
G1 X57.332 Y49.982 E31.61734
G1 Z1.500 F15000.000
G92 E0
G1 X73.429 Y65.929 F15000.000
G1 F3600
G1 X56.571 Y65.929 E0.70566
G1 X56.571 Y49.071 E1.41132
G1 X73.429 Y49.071 E2.11698
G1 X73.429 Y65.779 E2.81637
G1 X73.764 Y66.264 F15000.000
G1 F3600
G1 X56.236 Y66.264 E3.55012
G1 X56.236 Y48.736 E4.28388
G1 X73.764 Y48.736 E5.01764
G1 X73.764 Y66.114 E5.74512
G1 X74.450 Y66.950 F15000.000
G1 F1620
G1 X55.550 Y66.950 E8.18640
G1 X55.550 Y48.050 E10.62768
G1 X74.450 Y48.050 E13.06896
G1 X74.450 Y66.800 E15.49086
G1 X73.484 Y66.691 F15000.000
G92 E0
G1 X63.722 Y56.222 F15000.000
G1 F4800
G1 X66.278 Y56.222 E0.37798
G1 X66.278 Y58.778 E0.75596
G1 X63.722 Y58.778 E1.13395
G1 X63.722 Y56.372 E1.48975
G1 X62.444 Y54.944 F15000.000
G1 F4800
G1 X67.556 Y54.944 E2.24571
G1 X67.556 Y60.056 E3.00167
G1 X62.444 Y60.056 E3.75764
G1 X62.444 Y55.094 E4.49142
G1 X61.166 Y53.666 F15000.000
G1 F4800
G1 X68.834 Y53.666 E5.62536
G1 X68.834 Y61.334 E6.75931
G1 X61.166 Y61.334 E7.89325
G1 X61.166 Y53.816 E9.00501
G1 X59.888 Y52.388 F15000.000
G1 F4800
G1 X70.112 Y52.388 E10.51694
G1 X70.112 Y62.612 E12.02886
G1 X59.888 Y62.612 E13.54079
G1 X59.888 Y52.538 E15.03053
G1 X58.610 Y51.110 F15000.000
G1 F4800
G1 X71.390 Y51.110 E16.92044
G1 X71.390 Y63.890 E18.81034
G1 X58.610 Y63.890 E20.70025
G1 X58.610 Y51.260 E22.56797
G1 X57.332 Y49.832 F15000.000
G1 F4800
G1 X72.668 Y49.832 E24.83586
G1 X72.668 Y65.168 E27.10375
G1 X57.332 Y65.168 E29.37164
G1 X57.332 Y49.982 E31.61734
G1 Z1.800 F15000.000
G92 E0
G1 X73.429 Y65.929 F15000.000
G1 F3600
G1 X56.571 Y65.929 E0.70566
G1 X56.571 Y49.071 E1.41132
G1 X73.429 Y49.071 E2.11698
G1 X73.429 Y65.779 E2.81637
G1 X73.764 Y66.264 F15000.000
G1 F3600
G1 X56.236 Y66.264 E3.55012
G1 X56.236 Y48.736 E4.28388
G1 X73.764 Y48.736 E5.01764
G1 X73.764 Y66.114 E5.74512
G1 X74.450 Y66.950 F15000.000
G1 F1620
G1 X55.550 Y66.950 E8.18640
G1 X55.550 Y48.050 E10.62768
G1 X74.450 Y48.050 E13.06896
G1 X74.450 Y66.800 E15.49086
G1 X73.484 Y66.691 F15000.000
G92 E0
G1 X63.722 Y56.222 F15000.000
G1 F4800
G1 X66.278 Y56.222 E0.37798
G1 X66.278 Y58.778 E0.75596
G1 X63.722 Y58.778 E1.13395
G1 X63.722 Y56.372 E1.48975
G1 X62.444 Y54.944 F15000.000
G1 F4800
G1 X67.556 Y54.944 E2.24571
G1 X67.556 Y60.056 E3.00167
G1 X62.444 Y60.056 E3.75764
G1 X62.444 Y55.094 E4.49142
G1 X61.166 Y53.666 F15000.000
G1 F4800
G1 X68.834 Y53.666 E5.62536
G1 X68.834 Y61.334 E6.75931
G1 X61.166 Y61.334 E7.89325
G1 X61.166 Y53.816 E9.00501
G1 X59.888 Y52.388 F15000.000
G1 F4800
G1 X70.112 Y52.388 E10.51694
G1 X70.112 Y62.612 E12.02886
G1 X59.888 Y62.612 E13.54079
G1 X59.888 Y52.538 E15.03053
G1 X58.610 Y51.110 F15000.000
G1 F4800
G1 X71.390 Y51.110 E16.92044
G1 X71.390 Y63.890 E18.81034
G1 X58.610 Y63.890 E20.70025
G1 X58.610 Y51.260 E22.56797
G1 X57.332 Y49.832 F15000.000
G1 F4800
G1 X72.668 Y49.832 E24.83586
G1 X72.668 Y65.168 E27.10375
G1 X57.332 Y65.168 E29.37164
G1 X57.332 Y49.982 E31.61734
G1 Z2.100 F15000.000
G92 E0
G1 X73.429 Y65.929 F15000.000
G1 F3600
G1 X56.571 Y65.929 E0.70566
G1 X56.571 Y49.071 E1.41132
G1 X73.429 Y49.071 E2.11698
G1 X73.429 Y65.779 E2.81637
G1 X73.764 Y66.264 F15000.000
G1 F3600
G1 X56.236 Y66.264 E3.55012
G1 X56.236 Y48.736 E4.28388
G1 X73.764 Y48.736 E5.01764
G1 X73.764 Y66.114 E5.74512
G1 X74.450 Y66.950 F15000.000
G1 F1620
G1 X55.550 Y66.950 E8.18640
G1 X55.550 Y48.050 E10.62768
G1 X74.450 Y48.050 E13.06896
G1 X74.450 Y66.800 E15.49086
G1 X73.484 Y66.691 F15000.000
G92 E0
G1 X63.722 Y56.222 F15000.000
G1 F4800
G1 X66.278 Y56.222 E0.37798
G1 X66.278 Y58.778 E0.75596
G1 X63.722 Y58.778 E1.13395
G1 X63.722 Y56.372 E1.48975
G1 X62.444 Y54.944 F15000.000
G1 F4800
G1 X67.556 Y54.944 E2.24571
G1 X67.556 Y60.056 E3.00167
G1 X62.444 Y60.056 E3.75764
G1 X62.444 Y55.094 E4.49142
G1 X61.166 Y53.666 F15000.000
G1 F4800
G1 X68.834 Y53.666 E5.62536
G1 X68.834 Y61.334 E6.75931
G1 X61.166 Y61.334 E7.89325
G1 X61.166 Y53.816 E9.00501
G1 X59.888 Y52.388 F15000.000
G1 F4800
G1 X70.112 Y52.388 E10.51694
G1 X70.112 Y62.612 E12.02886
G1 X59.888 Y62.612 E13.54079
G1 X59.888 Y52.538 E15.03053
G1 X58.610 Y51.110 F15000.000
G1 F4800
G1 X71.390 Y51.110 E16.92044
G1 X71.390 Y63.890 E18.81034
G1 X58.610 Y63.890 E20.70025
G1 X58.610 Y51.260 E22.56797
G1 X57.332 Y49.832 F15000.000
G1 F4800
G1 X72.668 Y49.832 E24.83586
G1 X72.668 Y65.168 E27.10375
G1 X57.332 Y65.168 E29.37164
G1 X57.332 Y49.982 E31.61734
G1 Z2.400 F15000.000
G92 E0
G1 X73.429 Y65.929 F15000.000
G1 F3600
G1 X56.571 Y65.929 E0.70566
G1 X56.571 Y49.071 E1.41132
G1 X73.429 Y49.071 E2.11698
G1 X73.429 Y65.779 E2.81637
G1 X73.764 Y66.264 F15000.000
G1 F3600
G1 X56.236 Y66.264 E3.55012
G1 X56.236 Y48.736 E4.28388
G1 X73.764 Y48.736 E5.01764
G1 X73.764 Y66.114 E5.74512
G1 X74.450 Y66.950 F15000.000
G1 F1620
G1 X55.550 Y66.950 E8.18640
G1 X55.550 Y48.050 E10.62768
G1 X74.450 Y48.050 E13.06896
G1 X74.450 Y66.800 E15.49086
G1 X73.484 Y66.691 F15000.000
G92 E0
G1 X63.722 Y56.222 F15000.000
G1 F4800
G1 X66.278 Y56.222 E0.37798
G1 X66.278 Y58.778 E0.75596
G1 X63.722 Y58.778 E1.13395
G1 X63.722 Y56.372 E1.48975
G1 X62.444 Y54.944 F15000.000
G1 F4800
G1 X67.556 Y54.944 E2.24571
G1 X67.556 Y60.056 E3.00167
G1 X62.444 Y60.056 E3.75764
G1 X62.444 Y55.094 E4.49142
G1 X61.166 Y53.666 F15000.000
G1 F4800
G1 X68.834 Y53.666 E5.62536
G1 X68.834 Y61.334 E6.75931
G1 X61.166 Y61.334 E7.89325
G1 X61.166 Y53.816 E9.00501
G1 X59.888 Y52.388 F15000.000
G1 F4800
G1 X70.112 Y52.388 E10.51694
G1 X70.112 Y62.612 E12.02886
G1 X59.888 Y62.612 E13.54079
G1 X59.888 Y52.538 E15.03053
G1 X58.610 Y51.110 F15000.000
G1 F4800
G1 X71.390 Y51.110 E16.92044
G1 X71.390 Y63.890 E18.81034
G1 X58.610 Y63.890 E20.70025
G1 X58.610 Y51.260 E22.56797
G1 X57.332 Y49.832 F15000.000
G1 F4800
G1 X72.668 Y49.832 E24.83586
G1 X72.668 Y65.168 E27.10375
G1 X57.332 Y65.168 E29.37164
G1 X57.332 Y49.982 E31.61734
G1 Z2.700 F15000.000
G92 E0
G1 X73.429 Y65.929 F15000.000
G1 F3600
G1 X56.571 Y65.929 E0.70566
G1 X56.571 Y49.071 E1.41132
G1 X73.429 Y49.071 E2.11698
G1 X73.429 Y65.779 E2.81637
G1 X73.764 Y66.264 F15000.000
G1 F3600
G1 X56.236 Y66.264 E3.55012
G1 X56.236 Y48.736 E4.28388
G1 X73.764 Y48.736 E5.01764
G1 X73.764 Y66.114 E5.74512
G1 X74.450 Y66.950 F15000.000
G1 F1620
G1 X55.550 Y66.950 E8.18640
G1 X55.550 Y48.050 E10.62768
G1 X74.450 Y48.050 E13.06896
G1 X74.450 Y66.800 E15.49086
G1 X73.484 Y66.691 F15000.000
G92 E0
G1 X63.722 Y56.222 F15000.000
G1 F4800
G1 X66.278 Y56.222 E0.37798
G1 X66.278 Y58.778 E0.75596
G1 X63.722 Y58.778 E1.13395
G1 X63.722 Y56.372 E1.48975
G1 X62.444 Y54.944 F15000.000
G1 F4800
G1 X67.556 Y54.944 E2.24571
G1 X67.556 Y60.056 E3.00167
G1 X62.444 Y60.056 E3.75764
G1 X62.444 Y55.094 E4.49142
G1 X61.166 Y53.666 F15000.000
G1 F4800
G1 X68.834 Y53.666 E5.62536
G1 X68.834 Y61.334 E6.75931
G1 X61.166 Y61.334 E7.89325
G1 X61.166 Y53.816 E9.00501
G1 X59.888 Y52.388 F15000.000
G1 F4800
G1 X70.112 Y52.388 E10.51694
G1 X70.112 Y62.612 E12.02886
G1 X59.888 Y62.612 E13.54079
G1 X59.888 Y52.538 E15.03053
G1 X58.610 Y51.110 F15000.000
G1 F4800
G1 X71.390 Y51.110 E16.92044
G1 X71.390 Y63.890 E18.81034
G1 X58.610 Y63.890 E20.70025
G1 X58.610 Y51.260 E22.56797
G1 X57.332 Y49.832 F15000.000
G1 F4800
G1 X72.668 Y49.832 E24.83586
G1 X72.668 Y65.168 E27.10375
G1 X57.332 Y65.168 E29.37164
G1 X57.332 Y49.982 E31.61734
G1 Z3.000 F15000.000
G92 E0
G1 X73.429 Y65.929 F15000.000
G1 F3600
G1 X56.571 Y65.929 E0.70566
G1 X56.571 Y49.071 E1.41132
G1 X73.429 Y49.071 E2.11698
G1 X73.429 Y65.779 E2.81637
G1 X73.764 Y66.264 F15000.000
G1 F3600
G1 X56.236 Y66.264 E3.55012
G1 X56.236 Y48.736 E4.28388
G1 X73.764 Y48.736 E5.01764
G1 X73.764 Y66.114 E5.74512
G1 X74.450 Y66.950 F15000.000
G1 F1620
G1 X55.550 Y66.950 E8.18640
G1 X55.550 Y48.050 E10.62768
G1 X74.450 Y48.050 E13.06896
G1 X74.450 Y66.800 E15.49086
G1 X73.484 Y66.691 F15000.000
G92 E0
