; generated by Slic3r 1.3.1-dev on 2019-07-12 at 15:37:29

; external perimeters extrusion width = 0.44mm (3.04mm^3/s)
; perimeters extrusion width = 0.40mm (6.04mm^3/s)
; infill extrusion width = 0.48mm (10.05mm^3/s)
; solid infill extrusion width = 0.48mm (3.02mm^3/s)
; top infill extrusion width = 0.45mm (2.22mm^3/s)

M104 S230 ; set temperature
G28 ; home all axes
G1 X150 Y150 Z50 F10000
; Filament gcode
; layer 1
M109 S230 ; set temperature and wait for it to be reached
G21 ; set units to millimeters
G90 ; use absolute coordinates
M82 ; use absolute distances for extrusion
G92 E0
G92 E0
G1 Z0.300 F15000.000
G1 X63.674 Y51.295 F15000.000
G1 F3600
G1 X63.990 Y50.979 E0.05573
G1 X84.437 Y50.979 E2.60597
G1 X84.753 Y51.295 E2.66171
G1 X84.753 Y71.742 E5.21195
G1 X84.437 Y72.058 E5.26768
G1 X63.990 Y72.058 E7.81792
G1 X63.674 Y71.742 E7.87365
G1 X63.674 Y51.355 E10.41641
G92 E0
G1 X64.423 Y57.384 F15000.000
G1 F3600
G1 X64.877 Y57.874 E0.04463
G1 X65.178 Y58.248 E0.07672
G1 X65.409 Y58.622 E0.10605
G1 X65.570 Y58.995 E0.13327
G1 X65.730 Y59.743 E0.18434
G1 X65.720 Y60.491 E0.23429
G1 X65.561 Y61.238 E0.28537
G1 X65.417 Y61.612 E0.31213
G1 X65.222 Y61.986 E0.34029
G1 X64.656 Y62.734 E0.40296
G1 X64.423 Y63.128 E0.43352
G92 E0
G1 X64.423 Y69.347 F15000.000
G1 F3600
G1 X64.877 Y69.837 E0.04463
G1 X65.178 Y70.211 E0.07672
G1 X65.409 Y70.585 E0.10605
G1 X65.570 Y70.959 E0.13327
G1 X65.645 Y71.309 E0.15720
G1 X71.362 Y71.309 E0.53915
G1 X71.204 Y70.959 E0.56484
G1 X70.637 Y70.211 E0.62751
G1 X69.531 Y69.089 E0.73274
G1 X69.230 Y68.715 E0.76483
G1 X68.999 Y68.342 E0.79416
G1 X68.838 Y67.968 E0.82137
G1 X68.734 Y67.594 E0.84729
G1 X68.678 Y67.220 E0.87254
G1 X68.688 Y66.472 E0.92250
G1 X68.748 Y66.099 E0.94780
G1 X68.847 Y65.725 E0.97364
G1 X69.186 Y64.977 E1.02847
G1 X69.752 Y64.229 E1.09114
G1 X70.858 Y63.108 E1.19637
G1 X71.160 Y62.734 E1.22846
G1 X71.390 Y62.360 E1.25779
G1 X71.552 Y61.986 E1.28500
G1 X71.656 Y61.612 E1.31092
G1 X71.711 Y61.238 E1.33617
G1 X71.702 Y60.491 E1.38612
G1 X71.642 Y60.117 E1.41142
G1 X71.542 Y59.743 E1.43727
G1 X71.204 Y58.995 E1.49210
G1 X70.637 Y58.248 E1.55476
G1 X69.531 Y57.126 E1.65999
G1 X69.230 Y56.752 E1.69209
G1 X68.999 Y56.378 E1.72141
G1 X68.838 Y56.005 E1.74863
G1 X68.734 Y55.631 E1.77455
G1 X68.678 Y55.257 E1.79980
G1 X68.688 Y54.509 E1.84975
G1 X68.748 Y54.135 E1.87505
G1 X68.847 Y53.762 E1.90089
G1 X69.186 Y53.014 E1.95572
G1 X69.752 Y52.266 E2.01839
G1 X70.290 Y51.728 E2.06920
G1 X75.671 Y51.728 E2.42871
G1 X75.513 Y51.892 E2.44395
G1 X75.211 Y52.266 E2.47605
G1 X74.981 Y52.640 E2.50537
G1 X74.819 Y53.014 E2.53259
G1 X74.660 Y53.762 E2.58366
G1 X74.646 Y54.135 E2.60865
G1 X74.669 Y54.509 E2.63368
G1 X74.829 Y55.257 E2.68476
G1 X74.973 Y55.631 E2.71151
G1 X75.167 Y56.005 E2.73967
G1 X75.734 Y56.752 E2.80234
G1 X76.840 Y57.874 E2.90757
G1 X77.142 Y58.248 E2.93966
G1 X77.372 Y58.622 E2.96899
G1 X77.534 Y58.995 E2.99620
G1 X77.693 Y59.743 E3.04728
G1 X77.684 Y60.491 E3.09723
G1 X77.524 Y61.238 E3.14831
G1 X77.380 Y61.612 E3.17506
G1 X77.185 Y61.986 E3.20323
G1 X76.619 Y62.734 E3.26589
G1 X75.513 Y63.855 E3.37112
G1 X75.211 Y64.229 E3.40322
G1 X74.981 Y64.603 E3.43254
G1 X74.819 Y64.977 E3.45976
G1 X74.660 Y65.725 E3.51083
G1 X74.646 Y66.099 E3.53582
G1 X74.669 Y66.472 E3.56085
G1 X74.829 Y67.220 E3.61193
G1 X74.973 Y67.594 E3.63868
G1 X75.167 Y67.968 E3.66684
G1 X75.734 Y68.715 E3.72951
G1 X76.840 Y69.837 E3.83474
G1 X77.142 Y70.211 E3.86683
G1 X77.372 Y70.585 E3.89616
G1 X77.534 Y70.959 E3.92337
G1 X77.608 Y71.309 E3.94731
G1 X83.325 Y71.309 E4.32925
G1 X83.167 Y70.959 E4.35495
G1 X82.600 Y70.211 E4.41762
G1 X81.494 Y69.089 E4.52285
G1 X81.193 Y68.715 E4.55494
G1 X80.963 Y68.342 E4.58427
G1 X80.801 Y67.968 E4.61148
G1 X80.697 Y67.594 E4.63740
G1 X80.641 Y67.220 E4.66265
G1 X80.651 Y66.472 E4.71261
G1 X80.711 Y66.099 E4.73790
G1 X80.811 Y65.725 E4.76375
G1 X81.149 Y64.977 E4.81858
G1 X81.716 Y64.229 E4.88125
G1 X82.821 Y63.108 E4.98647
G1 X83.123 Y62.734 E5.01857
G1 X83.353 Y62.360 E5.04789
G1 X83.515 Y61.986 E5.07511
G1 X83.619 Y61.612 E5.10103
G1 X83.674 Y61.238 E5.12628
G1 X83.665 Y60.491 E5.17623
G1 X83.605 Y60.117 E5.20153
G1 X83.505 Y59.743 E5.22738
G1 X83.167 Y58.995 E5.28221
G1 X82.600 Y58.248 E5.34487
G1 X81.494 Y57.126 E5.45010
G1 X81.193 Y56.752 E5.48219
G1 X80.963 Y56.378 E5.51152
G1 X80.801 Y56.005 E5.53874
G1 X80.697 Y55.631 E5.56466
G1 X80.641 Y55.257 E5.58991
G1 X80.651 Y54.509 E5.63986
G1 X80.711 Y54.135 E5.66516
G1 X80.811 Y53.762 E5.69100
G1 X81.149 Y53.014 E5.74583
G1 X81.716 Y52.266 E5.80850
G1 X82.253 Y51.728 E5.85930
M104 S205 ; set temperature
G1 Z0.600 F15000.000
G1 X82.560 Y51.728 F15000.000
G1 F4800
G1 X81.968 Y52.266 E5.90109
G1 X81.295 Y53.014 E5.95368
G1 X80.860 Y53.762 E5.99885
G1 X80.717 Y54.135 E6.01976
G1 X80.614 Y54.509 E6.04002
G1 X80.519 Y55.257 E6.07940
G1 X80.529 Y55.631 E6.09894
G1 X80.586 Y56.005 E6.11869
G1 X80.701 Y56.378 E6.13913
G1 X80.890 Y56.752 E6.16101
G1 X81.166 Y57.126 E6.18529
G1 X81.526 Y57.500 E6.21239
G1 X82.347 Y58.248 E6.27043
G1 X83.021 Y58.995 E6.32302
G1 X83.455 Y59.743 E6.36819
G1 X83.599 Y60.117 E6.38911
G1 X83.701 Y60.491 E6.40936
G1 X83.797 Y61.238 E6.44874
G1 X83.786 Y61.612 E6.46828
G1 X83.730 Y61.986 E6.48803
G1 X83.615 Y62.360 E6.50847
G1 X83.426 Y62.734 E6.53036
G1 X83.150 Y63.108 E6.55463
G1 X82.790 Y63.482 E6.58173
G1 X81.968 Y64.229 E6.63977
G1 X81.295 Y64.977 E6.69236
G1 X80.860 Y65.725 E6.73753
G1 X80.717 Y66.099 E6.75845
G1 X80.614 Y66.472 E6.77870
G1 X80.519 Y67.220 E6.81808
G1 X80.529 Y67.594 E6.83762
G1 X80.586 Y67.968 E6.85738
G1 X80.701 Y68.342 E6.87781
G1 X80.890 Y68.715 E6.89970
G1 X81.166 Y69.089 E6.92397
G1 X81.526 Y69.463 E6.95107
G1 X82.347 Y70.211 E7.00911
G1 X83.021 Y70.959 E7.06170
G1 X83.225 Y71.309 E7.08287
G1 X77.779 Y71.309 E7.36736
G1 X77.748 Y70.959 E7.38574
G1 X77.633 Y70.585 E7.40618
G1 X77.444 Y70.211 E7.42807
G1 X77.168 Y69.837 E7.45234
G1 X76.809 Y69.463 E7.47944
G1 X75.987 Y68.715 E7.53748
G1 X75.313 Y67.968 E7.59007
G1 X75.069 Y67.594 E7.61341
G1 X74.879 Y67.220 E7.63531
G1 X74.633 Y66.472 E7.67643
G1 X74.567 Y66.099 E7.69626
G1 X74.538 Y65.725 E7.71586
G1 X74.605 Y64.977 E7.75508
G1 X74.720 Y64.603 E7.77551
G1 X74.909 Y64.229 E7.79740
G1 X75.184 Y63.855 E7.82167
G1 X75.544 Y63.482 E7.84877
G1 X76.366 Y62.734 E7.90681
G1 X77.040 Y61.986 E7.95940
G1 X77.284 Y61.612 E7.98274
G1 X77.474 Y61.238 E8.00464
G1 X77.720 Y60.491 E8.04576
G1 X77.815 Y59.743 E8.08514
G1 X77.748 Y58.995 E8.12436
G1 X77.633 Y58.622 E8.14480
G1 X77.444 Y58.248 E8.16668
G1 X77.168 Y57.874 E8.19096
G1 X76.809 Y57.500 E8.21806
G1 X75.987 Y56.752 E8.27610
G1 X75.313 Y56.005 E8.32869
G1 X75.069 Y55.631 E8.35202
G1 X74.879 Y55.257 E8.37393
G1 X74.633 Y54.509 E8.41505
G1 X74.567 Y54.135 E8.43488
G1 X74.538 Y53.762 E8.45447
G1 X74.605 Y53.014 E8.49369
G1 X74.720 Y52.640 E8.51413
G1 X74.909 Y52.266 E8.53601
G1 X75.184 Y51.892 E8.56029
G1 X75.343 Y51.728 E8.57221
G1 X70.597 Y51.728 E8.82015
G1 X70.005 Y52.266 E8.86193
G1 X69.331 Y53.014 E8.91452
G1 X68.897 Y53.762 E8.95969
G1 X68.754 Y54.135 E8.98061
G1 X68.651 Y54.509 E9.00086
G1 X68.556 Y55.257 E9.04024
G1 X68.566 Y55.631 E9.05978
G1 X68.623 Y56.005 E9.07954
G1 X68.738 Y56.378 E9.09997
G1 X68.927 Y56.752 E9.12186
G1 X69.203 Y57.126 E9.14613
G1 X69.563 Y57.500 E9.17323
G1 X70.384 Y58.248 E9.23128
G1 X71.058 Y58.995 E9.28386
G1 X71.492 Y59.743 E9.32904
G1 X71.635 Y60.117 E9.34995
G1 X71.738 Y60.491 E9.37021
G1 X71.833 Y61.238 E9.40959
G1 X71.823 Y61.612 E9.42912
G1 X71.767 Y61.986 E9.44888
G1 X71.651 Y62.360 E9.46932
G1 X71.463 Y62.734 E9.49120
G1 X71.187 Y63.108 E9.51547
G1 X70.827 Y63.482 E9.54258
G1 X70.005 Y64.229 E9.60062
G1 X69.331 Y64.977 E9.65321
G1 X68.897 Y65.725 E9.69838
G1 X68.754 Y66.099 E9.71929
G1 X68.651 Y66.472 E9.73955
G1 X68.556 Y67.220 E9.77893
G1 X68.566 Y67.594 E9.79847
G1 X68.623 Y67.968 E9.81822
G1 X68.738 Y68.342 E9.83866
G1 X68.927 Y68.715 E9.86054
G1 X69.203 Y69.089 E9.88482
G1 X69.563 Y69.463 E9.91192
G1 X70.384 Y70.211 E9.96996
G1 X71.058 Y70.959 E10.02255
G1 X71.262 Y71.309 E10.04372
G1 X65.816 Y71.309 E10.32821
G1 X65.785 Y70.959 E10.34659
G1 X65.670 Y70.585 E10.36703
G1 X65.481 Y70.211 E10.38891
G1 X65.205 Y69.837 E10.41318
G1 X64.845 Y69.463 E10.44029
G1 X64.423 Y69.069 E10.47047
G92 E0
G1 X64.423 Y62.712 F15000.000
G1 F4800
G1 X65.077 Y61.986 E0.05103
G1 X65.321 Y61.612 E0.07436
G1 X65.511 Y61.238 E0.09627
G1 X65.757 Y60.491 E0.13739
G1 X65.852 Y59.743 E0.17677
G1 X65.785 Y58.995 E0.21599
G1 X65.670 Y58.622 E0.23643
G1 X65.481 Y58.248 E0.25831
G1 X65.205 Y57.874 E0.28258
G1 X64.845 Y57.500 E0.30968
G1 X64.423 Y57.106 E0.33987
G1 Z0.900 F15000.000
G1 X64.423 Y56.851 F15000.000
G1 F4800
G1 X65.235 Y57.500 E0.39420
G1 X65.599 Y57.874 E0.42144
G1 X65.841 Y58.248 E0.44471
G1 X65.978 Y58.622 E0.46552
G1 X66.038 Y58.995 E0.48529
G1 X66.003 Y59.743 E0.52440
G1 X65.819 Y60.491 E0.56463
G1 X65.484 Y61.238 E0.60742
G1 X65.245 Y61.612 E0.63061
G1 X64.945 Y61.986 E0.65568
G1 X64.423 Y62.520 E0.69467
G92 E0
G1 X64.423 Y68.814 F15000.000
G1 F4800
G1 X65.235 Y69.463 E0.05433
G1 X65.599 Y69.837 E0.08157
G1 X65.841 Y70.211 E0.10484
G1 X65.978 Y70.585 E0.12565
G1 X66.038 Y70.959 E0.14542
G1 X66.022 Y71.309 E0.16375
G1 X71.208 Y71.309 E0.43472
G1 X70.926 Y70.959 E0.45822
G1 X70.554 Y70.585 E0.48577
G1 X69.173 Y69.463 E0.57873
G1 X68.809 Y69.089 E0.60598
G1 X68.567 Y68.715 E0.62925
G1 X68.430 Y68.342 E0.65005
G1 X68.370 Y67.968 E0.66983
G1 X68.366 Y67.594 E0.68937
G1 X68.405 Y67.220 E0.70900
G1 X68.589 Y66.472 E0.74923
G1 X68.735 Y66.099 E0.77020
G1 X68.924 Y65.725 E0.79207
G1 X69.163 Y65.351 E0.81526
G1 X69.463 Y64.977 E0.84033
G1 X69.835 Y64.603 E0.86787
G1 X71.217 Y63.482 E0.96084
G1 X71.580 Y63.108 E0.98809
G1 X71.823 Y62.734 E1.01136
G1 X71.960 Y62.360 E1.03216
G1 X72.019 Y61.986 E1.05194
G1 X72.023 Y61.612 E1.07147
G1 X71.985 Y61.238 E1.09111
G1 X71.800 Y60.491 E1.13134
G1 X71.654 Y60.117 E1.15231
G1 X71.466 Y59.743 E1.17418
G1 X71.227 Y59.369 E1.19737
G1 X70.926 Y58.995 E1.22244
G1 X70.554 Y58.622 E1.24998
G1 X69.173 Y57.500 E1.34295
G1 X68.809 Y57.126 E1.37019
G1 X68.567 Y56.752 E1.39347
G1 X68.430 Y56.378 E1.41427
G1 X68.370 Y56.005 E1.43405
G1 X68.366 Y55.631 E1.45358
G1 X68.405 Y55.257 E1.47322
G1 X68.589 Y54.509 E1.51345
G1 X68.735 Y54.135 E1.53442
G1 X68.924 Y53.762 E1.55629
G1 X69.163 Y53.388 E1.57948
G1 X69.463 Y53.014 E1.60454
G1 X69.835 Y52.640 E1.63209
G1 X70.953 Y51.728 E1.70748
G1 X74.951 Y51.728 E1.91632
G1 X74.791 Y51.892 E1.92830
G1 X74.549 Y52.266 E1.95157
G1 X74.412 Y52.640 E1.97238
G1 X74.352 Y53.014 E1.99216
G1 X74.386 Y53.762 E2.03126
G1 X74.461 Y54.135 E2.05118
G1 X74.571 Y54.509 E2.07153
G1 X74.905 Y55.257 E2.11432
G1 X75.144 Y55.631 E2.13751
G1 X75.445 Y56.005 E2.16258
G1 X76.258 Y56.752 E2.22029
G1 X77.198 Y57.500 E2.28305
G1 X77.562 Y57.874 E2.31029
G1 X77.804 Y58.248 E2.33357
G1 X77.941 Y58.622 E2.35437
G1 X78.001 Y58.995 E2.37415
G1 X77.966 Y59.743 E2.41325
G1 X77.782 Y60.491 E2.45348
G1 X77.448 Y61.238 E2.49628
G1 X77.208 Y61.612 E2.51946
G1 X76.908 Y61.986 E2.54453
G1 X76.094 Y62.734 E2.60225
G1 X75.154 Y63.482 E2.66500
G1 X74.791 Y63.855 E2.69225
G1 X74.549 Y64.229 E2.71552
G1 X74.412 Y64.603 E2.73632
G1 X74.352 Y64.977 E2.75610
G1 X74.386 Y65.725 E2.79521
G1 X74.461 Y66.099 E2.81513
G1 X74.571 Y66.472 E2.83548
G1 X74.905 Y67.220 E2.87827
G1 X75.144 Y67.594 E2.90146
G1 X75.445 Y67.968 E2.92652
G1 X76.258 Y68.715 E2.98424
G1 X77.198 Y69.463 E3.04700
G1 X77.562 Y69.837 E3.07424
G1 X77.804 Y70.211 E3.09751
G1 X77.941 Y70.585 E3.11832
G1 X78.001 Y70.959 E3.13809
G1 X77.985 Y71.309 E3.15642
G1 X83.171 Y71.309 E3.42739
G1 X82.889 Y70.959 E3.45089
G1 X82.517 Y70.585 E3.47844
G1 X81.136 Y69.463 E3.57140
G1 X80.772 Y69.089 E3.59865
G1 X80.530 Y68.715 E3.62192
G1 X80.393 Y68.342 E3.64272
G1 X80.333 Y67.968 E3.66250
G1 X80.329 Y67.594 E3.68204
G1 X80.368 Y67.220 E3.70167
G1 X80.552 Y66.472 E3.74190
G1 X80.698 Y66.099 E3.76287
G1 X80.887 Y65.725 E3.78474
G1 X81.126 Y65.351 E3.80793
G1 X81.427 Y64.977 E3.83300
G1 X81.798 Y64.603 E3.86054
G1 X83.180 Y63.482 E3.95351
G1 X83.543 Y63.108 E3.98076
G1 X83.786 Y62.734 E4.00403
G1 X83.923 Y62.360 E4.02483
G1 X83.982 Y61.986 E4.04461
G1 X83.986 Y61.612 E4.06414
G1 X83.948 Y61.238 E4.08378
G1 X83.764 Y60.491 E4.12401
G1 X83.618 Y60.117 E4.14498
G1 X83.429 Y59.743 E4.16685
G1 X83.190 Y59.369 E4.19004
G1 X82.889 Y58.995 E4.21511
G1 X82.517 Y58.622 E4.24265
G1 X81.136 Y57.500 E4.33562
G1 X80.772 Y57.126 E4.36286
G1 X80.530 Y56.752 E4.38614
G1 X80.393 Y56.378 E4.40694
G1 X80.333 Y56.005 E4.42672
G1 X80.329 Y55.631 E4.44625
G1 X80.368 Y55.257 E4.46589
G1 X80.552 Y54.509 E4.50612
G1 X80.698 Y54.135 E4.52709
G1 X80.887 Y53.762 E4.54896
G1 X81.126 Y53.388 E4.57215
G1 X81.427 Y53.014 E4.59721
G1 X81.798 Y52.640 E4.62476
G1 X82.917 Y51.728 E4.70015
M106 S255
G1 Z1.200 F15000.000
G1 X83.392 Y51.728 F15000.000
G1 F4800
G1 X82.007 Y52.640 E4.78677
G1 X81.548 Y53.014 E4.81772
G1 X81.180 Y53.388 E4.84511
G1 X80.887 Y53.762 E4.86994
G1 X80.652 Y54.135 E4.89302
G1 X80.461 Y54.509 E4.91494
G1 X80.183 Y55.257 E4.95661
G1 X80.090 Y55.631 E4.97674
G1 X80.030 Y56.005 E4.99653
G1 X80.014 Y56.378 E5.01607
G1 X80.069 Y56.752 E5.03581
G1 X80.242 Y57.126 E5.05735
G1 X80.601 Y57.500 E5.08442
G1 X82.308 Y58.622 E5.19114
G1 X82.768 Y58.995 E5.22208
G1 X83.136 Y59.369 E5.24948
G1 X83.429 Y59.743 E5.27430
G1 X83.664 Y60.117 E5.29739
G1 X83.855 Y60.491 E5.31931
G1 X84.004 Y60.892 E5.34165
G1 X84.004 Y63.180 E5.46122
G1 X83.715 Y63.482 E5.48304
G1 X82.007 Y64.603 E5.58976
G1 X81.548 Y64.977 E5.62070
G1 X81.180 Y65.351 E5.64810
G1 X80.887 Y65.725 E5.67292
G1 X80.652 Y66.099 E5.69600
G1 X80.461 Y66.472 E5.71793
G1 X80.183 Y67.220 E5.75960
G1 X80.090 Y67.594 E5.77973
G1 X80.030 Y67.968 E5.79951
G1 X80.014 Y68.342 E5.81906
G1 X80.069 Y68.715 E5.83880
G1 X80.242 Y69.089 E5.86033
G1 X80.601 Y69.463 E5.88741
G1 X82.308 Y70.585 E5.99412
G1 X82.768 Y70.959 E6.02507
G1 X83.113 Y71.309 E6.05075
G1 X78.232 Y71.309 E6.30571
G1 X78.304 Y70.959 E6.32440
G1 X78.320 Y70.585 E6.34395
G1 X78.266 Y70.211 E6.36368
G1 X78.198 Y70.024 E6.37407
G1 X78.092 Y69.837 E6.38530
G1 X77.733 Y69.463 E6.41237
G1 X77.479 Y69.276 E6.42886
G1 X76.581 Y68.715 E6.48416
G1 X75.566 Y67.968 E6.55001
G1 X75.199 Y67.594 E6.57740
G1 X74.906 Y67.220 E6.60222
G1 X74.479 Y66.472 E6.64719
G1 X74.325 Y66.099 E6.66832
G1 X74.202 Y65.725 E6.68888
G1 X74.048 Y64.977 E6.72876
G1 X74.033 Y64.603 E6.74831
G1 X74.087 Y64.229 E6.76805
G1 X74.261 Y63.855 E6.78958
G1 X74.620 Y63.482 E6.81666
G1 X75.772 Y62.734 E6.88841
G1 X76.786 Y61.986 E6.95426
G1 X77.154 Y61.612 E6.98165
G1 X77.447 Y61.238 E7.00647
G1 X77.873 Y60.491 E7.05144
G1 X78.151 Y59.743 E7.09311
G1 X78.304 Y58.995 E7.13298
G1 X78.320 Y58.622 E7.15253
G1 X78.266 Y58.248 E7.17227
G1 X78.198 Y58.061 E7.18265
G1 X78.092 Y57.874 E7.19388
G1 X77.733 Y57.500 E7.22095
G1 X77.479 Y57.313 E7.23744
G1 X76.581 Y56.752 E7.29274
G1 X75.566 Y56.005 E7.35859
G1 X75.199 Y55.631 E7.38598
G1 X74.906 Y55.257 E7.41081
G1 X74.479 Y54.509 E7.45577
G1 X74.325 Y54.135 E7.47690
G1 X74.202 Y53.762 E7.49747
G1 X74.048 Y53.014 E7.53734
G1 X74.033 Y52.640 E7.55689
G1 X74.087 Y52.266 E7.57663
G1 X74.261 Y51.892 E7.59816
G1 X74.419 Y51.728 E7.61007
G1 X71.429 Y51.728 E7.76628
G1 X70.044 Y52.640 E7.85290
G1 X69.585 Y53.014 E7.88384
G1 X69.217 Y53.388 E7.91124
G1 X68.924 Y53.762 E7.93606
G1 X68.688 Y54.135 E7.95914
G1 X68.498 Y54.509 E7.98107
G1 X68.220 Y55.257 E8.02274
G1 X68.127 Y55.631 E8.04287
G1 X68.067 Y56.005 E8.06265
G1 X68.051 Y56.378 E8.08220
G1 X68.106 Y56.752 E8.10193
G1 X68.279 Y57.126 E8.12347
G1 X68.638 Y57.500 E8.15054
G1 X70.345 Y58.622 E8.25726
G1 X70.805 Y58.995 E8.28821
G1 X71.172 Y59.369 E8.31560
G1 X71.466 Y59.743 E8.34043
G1 X71.701 Y60.117 E8.36351
G1 X71.892 Y60.491 E8.38543
G1 X72.169 Y61.238 E8.42710
G1 X72.263 Y61.612 E8.44724
G1 X72.323 Y61.986 E8.46702
G1 X72.338 Y62.360 E8.48657
G1 X72.284 Y62.734 E8.50630
G1 X72.110 Y63.108 E8.52784
G1 X71.751 Y63.482 E8.55491
G1 X70.044 Y64.603 E8.66163
G1 X69.585 Y64.977 E8.69258
G1 X69.217 Y65.351 E8.71997
G1 X68.924 Y65.725 E8.74479
G1 X68.688 Y66.099 E8.76788
