; generated by Slic3r 1.3.1-dev on 2019-08-02 at 16:04:50

; external perimeters extrusion width = 0.88mm (15.30mm^3/s)
; perimeters extrusion width = 0.40mm (10.96mm^3/s)
; infill extrusion width = 0.84mm (42.77mm^3/s)
; solid infill extrusion width = 0.84mm (12.83mm^3/s)
; top infill extrusion width = 1.20mm (15.79mm^3/s)

M104 S230 ; set temperature
G28 ; home all axes
G1 X150 Y150 Z50 F10000
; Filament gcode
; layer 1

M109 S230 ; set temperature and wait for it to be reached
G21 ; set units to millimeters
G90 ; use absolute coordinates
M82 ; use absolute distances for extrusion
G92 E0
G92 E0
G1 Z0.350 F15000.000
G1 X76.612 Y43.481 F15000.000
G1 F3600
G1 X92.068 Y43.481 E2.24901
G1 X92.390 Y43.803 E2.31532
G1 X92.390 Y59.259 E4.56434
G1 X92.068 Y59.581 E4.63065
G1 X76.612 Y59.581 E6.87966
G1 X76.290 Y59.259 E6.94597
G1 X76.290 Y43.803 E9.19499
G1 X76.527 Y43.566 E9.24384
G92 E0
G1 X79.065 Y46.162 F15000.000
G1 F3600
G1 X79.065 Y56.900 E1.03035
G1 X79.724 Y56.900 E1.09362
G1 X79.724 Y46.162 E2.12397
G1 X80.383 Y46.162 E2.18725
G1 X80.383 Y56.900 E3.21760
G1 X81.043 Y56.900 E3.28087
G1 X81.043 Y46.162 E4.31122
G1 X81.702 Y46.162 E4.37449
G1 X81.702 Y56.900 E5.40484
G1 X82.362 Y56.900 E5.46812
G1 X82.362 Y46.162 E6.49847
G1 X83.021 Y46.162 E6.56174
G1 X83.021 Y56.900 E7.59209
G1 X83.680 Y56.900 E7.65536
G1 X83.680 Y46.162 E8.68571
G1 X84.340 Y46.162 E8.74899
G1 X84.340 Y56.900 E9.77934
G1 X84.999 Y56.900 E9.84261
G1 X84.999 Y46.162 E10.87296
G1 X85.659 Y46.162 E10.93623
G1 X85.659 Y56.900 E11.96658
G1 X86.318 Y56.900 E12.02986
G1 X86.318 Y46.162 E13.06021
G1 X86.977 Y46.162 E13.12348
G1 X86.977 Y56.900 E14.15383
G1 X87.637 Y56.900 E14.21710
G1 X87.637 Y46.162 E15.24745
G1 X88.296 Y46.162 E15.31073
G1 X88.296 Y56.900 E16.34108
G1 X88.956 Y56.900 E16.40435
G1 X88.956 Y46.162 E17.43470
G1 X89.615 Y46.162 E17.49797
G1 X89.615 Y56.900 E18.52832
G92 E0
G1 X91.490 Y58.681 F15000.000
G1 F3600
G1 X77.190 Y58.681 E1.30029
G1 X77.190 Y44.381 E2.60059
G1 X91.490 Y44.381 E3.90088
G1 X91.490 Y58.561 E5.19026
G1 X90.717 Y58.474 F15000.000
G1 X90.865 Y58.056 F15000.000
G1 F3600
G1 X77.815 Y58.056 E6.37691
G1 X77.815 Y45.006 E7.56356
G1 X90.865 Y45.006 E8.75022
G1 X90.865 Y57.936 E9.92595
G1 X90.240 Y57.431 F15000.000
G1 F3600
G1 X78.440 Y57.431 E10.99896
G1 X78.440 Y45.631 E12.07197
G1 X90.240 Y45.631 E13.14498
G1 X90.240 Y57.311 E14.20708
M104 S205 ; set temperature
G1 Z1.150 F15000.000
G92 E0
G1 X90.322 Y45.616 F15000.000
G1 F1440
G1 X78.357 Y45.616 E2.76921
G1 X78.357 Y46.312 E2.93027
G1 X90.322 Y46.312 E5.69949
G1 X90.322 Y47.008 E5.86055
G1 X78.357 Y47.008 E8.62976
G1 X78.357 Y47.703 E8.79082
G1 X90.322 Y47.703 E11.56004
G1 X90.322 Y48.399 E11.72110
G1 X78.357 Y48.399 E14.49031
G1 X78.357 Y49.095 E14.65137
G1 X90.322 Y49.095 E17.42059
G1 X90.322 Y49.791 E17.58165
G1 X78.357 Y49.791 E20.35086
G1 X78.357 Y50.487 E20.51192
G1 X90.322 Y50.487 E23.28113
G1 X90.322 Y51.183 E23.44219
G1 X78.357 Y51.183 E26.21141
G1 X78.357 Y51.879 E26.37247
G1 X90.322 Y51.879 E29.14168
G1 X90.322 Y52.575 E29.30274
G1 X78.357 Y52.575 E32.07196
G1 X78.357 Y53.271 E32.23302
G1 X90.322 Y53.271 E35.00223
G1 X90.322 Y53.966 E35.16329
G1 X78.357 Y53.966 E37.93251
G1 X78.357 Y54.662 E38.09357
G1 X90.322 Y54.662 E40.86278
G1 X90.322 Y55.358 E41.02384
G1 X78.357 Y55.358 E43.79305
G1 X78.357 Y56.054 E43.95412
G1 X90.322 Y56.054 E46.72333
G1 X90.322 Y56.750 E46.88439
G1 X78.357 Y56.750 E49.65360
G1 X78.357 Y57.446 E49.81466
G1 X90.322 Y57.446 E52.58388
G1 X78.492 Y57.446 E55.32196
G92 E0
G1 X90.703 Y57.894 F15000.000
G1 F3600
G1 X77.976 Y57.894 E0.96646
G1 X77.976 Y45.167 E1.93291
G1 X90.703 Y45.167 E2.89937
G1 X90.703 Y57.774 E3.85671
G1 X90.931 Y58.123 F15000.000
G1 F3600
G1 X77.748 Y58.123 E4.85784
G1 X77.748 Y44.939 E5.85898
G1 X90.931 Y44.939 E6.86011
G1 X90.931 Y58.003 E7.85213
G1 X91.400 Y58.591 F15000.000
G1 F1620
G1 X77.280 Y58.591 E11.17863
G1 X77.280 Y44.471 E14.50513
G1 X91.400 Y44.471 E17.83162
G1 X91.400 Y58.471 E21.12985
G1 X90.627 Y58.384 F15000.000
G1 Z1.950 F15000.000
G1 X90.255 Y57.513 F15000.000
G1 F1440
G1 X90.255 Y45.549 E23.89907
G1 X89.559 Y45.549 E24.06013
G1 X89.559 Y57.513 E26.82934
G1 X88.863 Y57.513 E26.99040
G1 X88.863 Y45.549 E29.75961
G1 X88.167 Y45.549 E29.92068
G1 X88.167 Y57.513 E32.68989
G1 X87.471 Y57.513 E32.85095
G1 X87.471 Y45.549 E35.62016
G1 X86.775 Y45.549 E35.78122
G1 X86.775 Y57.513 E38.55044
G1 X86.079 Y57.513 E38.71150
G1 X86.079 Y45.549 E41.48071
G1 X85.384 Y45.549 E41.64177
G1 X85.384 Y57.513 E44.41099
G1 X84.688 Y57.513 E44.57205
G1 X84.688 Y45.549 E47.34126
G1 X83.992 Y45.549 E47.50232
G1 X83.992 Y57.513 E50.27153
G1 X83.296 Y57.513 E50.43260
G1 X83.296 Y45.549 E53.20181
G1 X82.600 Y45.549 E53.36287
G1 X82.600 Y57.513 E56.13208
G1 X81.904 Y57.513 E56.29314
G1 X81.904 Y45.549 E59.06236
G1 X81.208 Y45.549 E59.22342
G1 X81.208 Y57.513 E61.99263
G1 X80.512 Y57.513 E62.15369
G1 X80.512 Y45.549 E64.92291
G1 X79.817 Y45.549 E65.08397
G1 X79.817 Y57.513 E67.85318
G1 X79.121 Y57.513 E68.01424
G1 X79.121 Y45.549 E70.78345
G1 X78.425 Y45.549 E70.94452
G1 X78.425 Y57.513 E73.71373
G1 X78.425 Y45.683 E76.45181
G92 E0
G1 X90.703 Y57.894 F15000.000
G1 F3600
G1 X77.976 Y57.894 E0.96646
G1 X77.976 Y45.167 E1.93291
G1 X90.703 Y45.167 E2.89937
G1 X90.703 Y57.774 E3.85671
G1 X90.931 Y58.123 F15000.000
G1 F3600
G1 X77.748 Y58.123 E4.85784
G1 X77.748 Y44.939 E5.85898
G1 X90.931 Y44.939 E6.86011
G1 X90.931 Y58.003 E7.85213
G1 X91.400 Y58.591 F15000.000
G1 F1620
G1 X77.280 Y58.591 E11.17863
G1 X77.280 Y44.471 E14.50513
G1 X91.400 Y44.471 E17.83162
G1 X91.400 Y58.471 E21.12985
G1 X90.627 Y58.384 F15000.000
M106 S255
G1 Z2.750 F15000.000
G92 E0
G1 X90.322 Y46.130 F15000.000
G1 F4800
G1 X78.357 Y46.130 E2.65954
G1 X78.357 Y46.805 E2.80959
G1 X90.322 Y46.805 E5.46913
G1 X90.322 Y47.480 E5.61919
G1 X78.357 Y47.480 E8.27873
G1 X78.357 Y48.155 E8.42878
G1 X90.322 Y48.155 E11.08832
G1 X90.322 Y48.831 E11.23838
G1 X78.357 Y48.831 E13.89791
G1 X78.357 Y49.506 E14.04797
G1 X90.322 Y49.506 E16.70751
G1 X90.322 Y50.181 E16.85756
G1 X78.357 Y50.181 E19.51710
G1 X78.357 Y50.856 E19.66716
G1 X90.322 Y50.856 E22.32669
G1 X90.322 Y51.531 E22.47675
G1 X78.357 Y51.531 E25.13629
G1 X78.357 Y52.206 E25.28635
G1 X90.322 Y52.206 E27.94588
G1 X90.322 Y52.881 E28.09594
G1 X78.357 Y52.881 E30.75548
G1 X78.357 Y53.556 E30.90553
G1 X90.322 Y53.556 E33.56507
G1 X90.322 Y54.231 E33.71513
G1 X78.357 Y54.231 E36.37466
G1 X78.357 Y54.906 E36.52472
G1 X90.322 Y54.906 E39.18426
G1 X90.322 Y55.581 E39.33431
G1 X78.357 Y55.581 E41.99385
G1 X78.357 Y56.256 E42.14391
G1 X90.322 Y56.256 E44.80345
G1 X90.322 Y56.931 E44.95350
G1 X78.357 Y56.931 E47.61304
G92 E0
G1 X90.703 Y57.894 F15000.000
G1 F3600
G1 X77.976 Y57.894 E0.96646
G1 X77.976 Y45.167 E1.93291
G1 X90.703 Y45.167 E2.89937
G1 X90.703 Y57.774 E3.85671
G1 X90.931 Y58.123 F15000.000
G1 F3600
G1 X77.748 Y58.123 E4.85784
G1 X77.748 Y44.939 E5.85898
G1 X90.931 Y44.939 E6.86011
G1 X90.931 Y58.003 E7.85213
G1 X91.400 Y58.591 F15000.000
G1 F1620
G1 X77.280 Y58.591 E11.17863
G1 X77.280 Y44.471 E14.50513
G1 X91.400 Y44.471 E17.83162
G1 X91.400 Y58.471 E21.12985
G1 X90.627 Y58.384 F15000.000
G1 Z3.550 F15000.000
G92 E0
G1 X90.322 Y46.130 F15000.000
G1 F4800
G1 X78.357 Y46.130 E2.65954
G1 X78.357 Y46.805 E2.80959
G1 X90.322 Y46.805 E5.46913
G1 X90.322 Y47.480 E5.61919
G1 X78.357 Y47.480 E8.27873
G1 X78.357 Y48.155 E8.42878
G1 X90.322 Y48.155 E11.08832
G1 X90.322 Y48.831 E11.23838
G1 X78.357 Y48.831 E13.89791
G1 X78.357 Y49.506 E14.04797
G1 X90.322 Y49.506 E16.70751
G1 X90.322 Y50.181 E16.85756
G1 X78.357 Y50.181 E19.51710
G1 X78.357 Y50.856 E19.66716
G1 X90.322 Y50.856 E22.32669
G1 X90.322 Y51.531 E22.47675
G1 X78.357 Y51.531 E25.13629
G1 X78.357 Y52.206 E25.28635
G1 X90.322 Y52.206 E27.94588
G1 X90.322 Y52.881 E28.09594
G1 X78.357 Y52.881 E30.75548
G1 X78.357 Y53.556 E30.90553
G1 X90.322 Y53.556 E33.56507
G1 X90.322 Y54.231 E33.71513
G1 X78.357 Y54.231 E36.37466
G1 X78.357 Y54.906 E36.52472
G1 X90.322 Y54.906 E39.18426
G1 X90.322 Y55.581 E39.33431
G1 X78.357 Y55.581 E41.99385
G1 X78.357 Y56.256 E42.14391
G1 X90.322 Y56.256 E44.80345
G1 X90.322 Y56.931 E44.95350
G1 X78.357 Y56.931 E47.61304
G92 E0
G1 X90.703 Y57.894 F15000.000
G1 F3600
G1 X77.976 Y57.894 E0.96646
G1 X77.976 Y45.167 E1.93291
G1 X90.703 Y45.167 E2.89937
G1 X90.703 Y57.774 E3.85671
G1 X90.931 Y58.123 F15000.000
G1 F3600
G1 X77.748 Y58.123 E4.85784
G1 X77.748 Y44.939 E5.85898
G1 X90.931 Y44.939 E6.86011
G1 X90.931 Y58.003 E7.85213
G1 X91.400 Y58.591 F15000.000
G1 F1620
G1 X77.280 Y58.591 E11.17863
G1 X77.280 Y44.471 E14.50513
G1 X91.400 Y44.471 E17.83162
G1 X91.400 Y58.471 E21.12985
G1 X90.627 Y58.384 F15000.000
G1 Z4.350 F15000.000
G92 E0
G1 X90.322 Y46.130 F15000.000
G1 F4800
G1 X78.357 Y46.130 E2.65954
G1 X78.357 Y46.805 E2.80959
G1 X90.322 Y46.805 E5.46913
G1 X90.322 Y47.480 E5.61919
G1 X78.357 Y47.480 E8.27873
G1 X78.357 Y48.155 E8.42878
G1 X90.322 Y48.155 E11.08832
G1 X90.322 Y48.831 E11.23838
G1 X78.357 Y48.831 E13.89791
G1 X78.357 Y49.506 E14.04797
G1 X90.322 Y49.506 E16.70751
G1 X90.322 Y50.181 E16.85756
G1 X78.357 Y50.181 E19.51710
G1 X78.357 Y50.856 E19.66716
G1 X90.322 Y50.856 E22.32669
G1 X90.322 Y51.531 E22.47675
G1 X78.357 Y51.531 E25.13629
G1 X78.357 Y52.206 E25.28635
G1 X90.322 Y52.206 E27.94588
G1 X90.322 Y52.881 E28.09594
G1 X78.357 Y52.881 E30.75548
G1 X78.357 Y53.556 E30.90553
G1 X90.322 Y53.556 E33.56507
G1 X90.322 Y54.231 E33.71513
G1 X78.357 Y54.231 E36.37466
G1 X78.357 Y54.906 E36.52472
G1 X90.322 Y54.906 E39.18426
G1 X90.322 Y55.581 E39.33431
G1 X78.357 Y55.581 E41.99385
G1 X78.357 Y56.256 E42.14391
G1 X90.322 Y56.256 E44.80345
G1 X90.322 Y56.931 E44.95350
G1 X78.357 Y56.931 E47.61304
G92 E0
G1 X90.703 Y57.894 F15000.000
G1 F3600
G1 X77.976 Y57.894 E0.96646
G1 X77.976 Y45.167 E1.93291
G1 X90.703 Y45.167 E2.89937
G1 X90.703 Y57.774 E3.85671
G1 X90.931 Y58.123 F15000.000
G1 F3600
G1 X77.748 Y58.123 E4.85784
G1 X77.748 Y44.939 E5.85898
G1 X90.931 Y44.939 E6.86011
G1 X90.931 Y58.003 E7.85213
G1 X91.400 Y58.591 F15000.000
G1 F1620
G1 X77.280 Y58.591 E11.17863
G1 X77.280 Y44.471 E14.50513
G1 X91.400 Y44.471 E17.83162
G1 X91.400 Y58.471 E21.12985
G1 X90.627 Y58.384 F15000.000
G1 Z5.150 F15000.000
G92 E0
G1 X90.322 Y46.130 F15000.000
G1 F4800
G1 X78.357 Y46.130 E2.65954
G1 X78.357 Y46.805 E2.80959
G1 X90.322 Y46.805 E5.46913
G1 X90.322 Y47.480 E5.61919
G1 X78.357 Y47.480 E8.27873
G1 X78.357 Y48.155 E8.42878
G1 X90.322 Y48.155 E11.08832
G1 X90.322 Y48.831 E11.23838
G1 X78.357 Y48.831 E13.89791
G1 X78.357 Y49.506 E14.04797
G1 X90.322 Y49.506 E16.70751
G1 X90.322 Y50.181 E16.85756
G1 X78.357 Y50.181 E19.51710
G1 X78.357 Y50.856 E19.66716
G1 X90.322 Y50.856 E22.32669
G1 X90.322 Y51.531 E22.47675
G1 X78.357 Y51.531 E25.13629
G1 X78.357 Y52.206 E25.28635
G1 X90.322 Y52.206 E27.94588
G1 X90.322 Y52.881 E28.09594
G1 X78.357 Y52.881 E30.75548
G1 X78.357 Y53.556 E30.90553
G1 X90.322 Y53.556 E33.56507
G1 X90.322 Y54.231 E33.71513
G1 X78.357 Y54.231 E36.37466
G1 X78.357 Y54.906 E36.52472
G1 X90.322 Y54.906 E39.18426
G1 X90.322 Y55.581 E39.33431
G1 X78.357 Y55.581 E41.99385
G1 X78.357 Y56.256 E42.14391
G1 X90.322 Y56.256 E44.80345
G1 X90.322 Y56.931 E44.95350
G1 X78.357 Y56.931 E47.61304
G92 E0
G1 X90.703 Y57.894 F15000.000
G1 F3600
G1 X77.976 Y57.894 E0.96646
G1 X77.976 Y45.167 E1.93291
G1 X90.703 Y45.167 E2.89937
G1 X90.703 Y57.774 E3.85671
G1 X90.931 Y58.123 F15000.000
G1 F3600
G1 X77.748 Y58.123 E4.85784
G1 X77.748 Y44.939 E5.85898
G1 X90.931 Y44.939 E6.86011
G1 X90.931 Y58.003 E7.85213
G1 X91.400 Y58.591 F15000.000
G1 F1620
G1 X77.280 Y58.591 E11.17863
G1 X77.280 Y44.471 E14.50513
G1 X91.400 Y44.471 E17.83162
G1 X91.400 Y58.471 E21.12985
G1 X90.627 Y58.384 F15000.000
G1 Z5.950 F15000.000
G92 E0
G1 X90.322 Y46.130 F15000.000
G1 F4800
G1 X78.357 Y46.130 E2.65954
G1 X78.357 Y46.805 E2.80959
G1 X90.322 Y46.805 E5.46913
G1 X90.322 Y47.480 E5.61919
G1 X78.357 Y47.480 E8.27873
G1 X78.357 Y48.155 E8.42878
G1 X90.322 Y48.155 E11.08832
G1 X90.322 Y48.831 E11.23838
G1 X78.357 Y48.831 E13.89791
G1 X78.357 Y49.506 E14.04797
G1 X90.322 Y49.506 E16.70751
G1 X90.322 Y50.181 E16.85756
G1 X78.357 Y50.181 E19.51710
G1 X78.357 Y50.856 E19.66716
G1 X90.322 Y50.856 E22.32669
G1 X90.322 Y51.531 E22.47675
G1 X78.357 Y51.531 E25.13629
G1 X78.357 Y52.206 E25.28635
G1 X90.322 Y52.206 E27.94588
G1 X90.322 Y52.881 E28.09594
G1 X78.357 Y52.881 E30.75548
G1 X78.357 Y53.556 E30.90553
G1 X90.322 Y53.556 E33.56507
G1 X90.322 Y54.231 E33.71513
G1 X78.357 Y54.231 E36.37466
G1 X78.357 Y54.906 E36.52472
G1 X90.322 Y54.906 E39.18426
G1 X90.322 Y55.581 E39.33431
G1 X78.357 Y55.581 E41.99385
G1 X78.357 Y56.256 E42.14391
G1 X90.322 Y56.256 E44.80345
G1 X90.322 Y56.931 E44.95350
G1 X78.357 Y56.931 E47.61304
G92 E0
G1 X90.703 Y57.894 F15000.000
G1 F3600
G1 X77.976 Y57.894 E0.96646
G1 X77.976 Y45.167 E1.93291
G1 X90.703 Y45.167 E2.89937
G1 X90.703 Y57.774 E3.85671
G1 X90.931 Y58.123 F15000.000
G1 F3600
G1 X77.748 Y58.123 E4.85784
G1 X77.748 Y44.939 E5.85898
G1 X90.931 Y44.939 E6.86011
G1 X90.931 Y58.003 E7.85213
G1 X91.400 Y58.591 F15000.000
G1 F1620
G1 X77.280 Y58.591 E11.17863
G1 X77.280 Y44.471 E14.50513
G1 X91.400 Y44.471 E17.83162
G1 X91.400 Y58.471 E21.12985
G1 X90.627 Y58.384 F15000.000
G1 Z6.750 F15000.000
G92 E0
G1 X90.322 Y46.130 F15000.000
G1 F4800
G1 X78.357 Y46.130 E2.65954
G1 X78.357 Y46.805 E2.80959
G1 X90.322 Y46.805 E5.46913
G1 X90.322 Y47.480 E5.61919
G1 X78.357 Y47.480 E8.27873
G1 X78.357 Y48.155 E8.42878
G1 X90.322 Y48.155 E11.08832
G1 X90.322 Y48.831 E11.23838
G1 X78.357 Y48.831 E13.89791
G1 X78.357 Y49.506 E14.04797
G1 X90.322 Y49.506 E16.70751
G1 X90.322 Y50.181 E16.85756
G1 X78.357 Y50.181 E19.51710
G1 X78.357 Y50.856 E19.66716
G1 X90.322 Y50.856 E22.32669
G1 X90.322 Y51.531 E22.47675
G1 X78.357 Y51.531 E25.13629
G1 X78.357 Y52.206 E25.28635
G1 X90.322 Y52.206 E27.94588
G1 X90.322 Y52.881 E28.09594
G1 X78.357 Y52.881 E30.75548
G1 X78.357 Y53.556 E30.90553
G1 X90.322 Y53.556 E33.56507
G1 X90.322 Y54.231 E33.71513
G1 X78.357 Y54.231 E36.37466
G1 X78.357 Y54.906 E36.52472
G1 X90.322 Y54.906 E39.18426
G1 X90.322 Y55.581 E39.33431
G1 X78.357 Y55.581 E41.99385
G1 X78.357 Y56.256 E42.14391
G1 X90.322 Y56.256 E44.80345
G1 X90.322 Y56.931 E44.95350
G1 X78.357 Y56.931 E47.61304
G92 E0
G1 X90.703 Y57.894 F15000.000
G1 F3600
G1 X77.976 Y57.894 E0.96646
G1 X77.976 Y45.167 E1.93291
G1 X90.703 Y45.167 E2.89937
G1 X90.703 Y57.774 E3.85671
G1 X90.931 Y58.123 F15000.000
G1 F3600
G1 X77.748 Y58.123 E4.85784
G1 X77.748 Y44.939 E5.85898
G1 X90.931 Y44.939 E6.86011
G1 X90.931 Y58.003 E7.85213
G1 X91.400 Y58.591 F15000.000
G1 F1620
G1 X77.280 Y58.591 E11.17863
G1 X77.280 Y44.471 E14.50513
G1 X91.400 Y44.471 E17.83162
G1 X91.400 Y58.471 E21.12985
G1 X90.627 Y58.384 F15000.000
G1 Z7.550 F15000.000
G92 E0
G1 X90.322 Y46.130 F15000.000
G1 F4800
G1 X78.357 Y46.130 E2.65954
G1 X78.357 Y46.805 E2.80959
G1 X90.322 Y46.805 E5.46913
G1 X90.322 Y47.480 E5.61919
G1 X78.357 Y47.480 E8.27873
G1 X78.357 Y48.155 E8.42878
G1 X90.322 Y48.155 E11.08832
G1 X90.322 Y48.831 E11.23838
G1 X78.357 Y48.831 E13.89791
G1 X78.357 Y49.506 E14.04797
G1 X90.322 Y49.506 E16.70751
G1 X90.322 Y50.181 E16.85756
G1 X78.357 Y50.181 E19.51710
G1 X78.357 Y50.856 E19.66716
G1 X90.322 Y50.856 E22.32669
G1 X90.322 Y51.531 E22.47675
G1 X78.357 Y51.531 E25.13629
G1 X78.357 Y52.206 E25.28635
G1 X90.322 Y52.206 E27.94588
G1 X90.322 Y52.881 E28.09594
G1 X78.357 Y52.881 E30.75548
G1 X78.357 Y53.556 E30.90553
G1 X90.322 Y53.556 E33.56507
G1 X90.322 Y54.231 E33.71513
G1 X78.357 Y54.231 E36.37466
G1 X78.357 Y54.906 E36.52472
G1 X90.322 Y54.906 E39.18426
G1 X90.322 Y55.581 E39.33431
G1 X78.357 Y55.581 E41.99385
G1 X78.357 Y56.256 E42.14391
G1 X90.322 Y56.256 E44.80345
G1 X90.322 Y56.931 E44.95350
G1 X78.357 Y56.931 E47.61304
G92 E0
G1 X90.703 Y57.894 F15000.000
G1 F3600
G1 X77.976 Y57.894 E0.96646
G1 X77.976 Y45.167 E1.93291
G1 X90.703 Y45.167 E2.89937
G1 X90.703 Y57.774 E3.85671
G1 X90.931 Y58.123 F15000.000
G1 F3600
G1 X77.748 Y58.123 E4.85784
G1 X77.748 Y44.939 E5.85898
G1 X90.931 Y44.939 E6.86011
