; G-Code generated by Simplify3D(R) Version 4.0.1
; Nov 5, 2018 at 2:37:27 PM
; Settings Summary
;   processName,Process1
;   applyToModels,ASTM_D638_TYPE_V_STLFILE
;   profileName,Monoprice Select Mini (modified)
;   profileVersion,2016-08-25 08:00:00
;   baseProfile,
;   printMaterial,PLA
;   printQuality,Medium
;   printExtruders,
;   extruderName,Primary Extruder
;   extruderToolheadNumber,0
;   extruderDiameter,0.6
;   extruderAutoWidth,0
;   extruderWidth,0.6
;   extrusionMultiplier,1
;   extruderUseRetract,1
;   extruderRetractionDistance,2.5
;   extruderExtraRestartDistance,0
;   extruderRetractionZLift,0
;   extruderRetractionSpeed,1800
;   extruderUseCoasting,0
;   extruderCoastingDistance,0.2
;   extruderUseWipe,0
;   extruderWipeDistance,5
;   primaryExtruder,0
;   layerHeight,0.2
;   topSolidLayers,0
;   bottomSolidLayers,0
;   perimeterOutlines,0
;   printPerimetersInsideOut,1
;   startPointOption,2
;   startPointOriginX,0
;   startPointOriginY,0
;   sequentialIslands,0
;   spiralVaseMode,0
;   firstLayerHeightPercentage,100
;   firstLayerWidthPercentage,100
;   firstLayerUnderspeed,1
;   useRaft,0
;   raftExtruder,0
;   raftTopLayers,3
;   raftBaseLayers,2
;   raftOffset,3
;   raftSeparationDistance,0.14
;   raftTopInfill,100
;   aboveRaftSpeedMultiplier,0.3
;   useSkirt,1
;   skirtExtruder,0
;   skirtLayers,1
;   skirtOutlines,2
;   skirtOffset,4
;   usePrimePillar,0
;   primePillarExtruder,999
;   primePillarWidth,12
;   primePillarLocation,7
;   primePillarSpeedMultiplier,1
;   useOozeShield,0
;   oozeShieldExtruder,999
;   oozeShieldOffset,2
;   oozeShieldOutlines,1
;   oozeShieldSidewallShape,1
;   oozeShieldSidewallAngle,30
;   oozeShieldSpeedMultiplier,1
;   infillExtruder,0
;   internalInfillPattern,Rectilinear
;   externalInfillPattern,Rectilinear
;   infillPercentage,100
;   outlineOverlapPercentage,30
;   infillExtrusionWidthPercentage,120
;   minInfillLength,5
;   infillLayerInterval,1
;   internalInfillAngles,0
;   overlapInternalInfillAngles,0
;   externalInfillAngles,0
;   generateSupport,0
;   supportExtruder,0
;   supportInfillPercentage,30
;   supportExtraInflation,0
;   supportBaseLayers,0
;   denseSupportExtruder,0
;   denseSupportLayers,0
;   denseSupportInfillPercentage,70
;   supportLayerInterval,1
;   supportHorizontalPartOffset,0.3
;   supportUpperSeparationLayers,1
;   supportLowerSeparationLayers,1
;   supportType,0
;   supportGridSpacing,4
;   maxOverhangAngle,45
;   supportAngles,0
;   temperatureName,Primary Extruder,Heated Bed
;   temperatureNumber,0,0
;   temperatureSetpointCount,1,1
;   temperatureSetpointLayers,1,1
;   temperatureSetpointTemperatures,210,60
;   temperatureStabilizeAtStartup,1,1
;   temperatureHeatedBed,0,1
;   temperatureRelayBetweenLayers,0,0
;   temperatureRelayBetweenLoops,0,0
;   fanLayers,1,2
;   fanSpeeds,0,100
;   blipFanToFullPower,0
;   adjustSpeedForCooling,0
;   minSpeedLayerTime,15
;   minCoolingSpeedSlowdown,20
;   increaseFanForCooling,0
;   minFanLayerTime,45
;   maxCoolingFanSpeed,100
;   increaseFanForBridging,0
;   bridgingFanSpeed,100
;   use5D,1
;   relativeEdistances,0
;   allowEaxisZeroing,1
;   independentExtruderAxes,0
;   includeM10123,0
;   stickySupport,1
;   applyToolheadOffsets,0
;   gcodeXoffset,0
;   gcodeYoffset,0
;   gcodeZoffset,0
;   overrideMachineDefinition,1
;   machineTypeOverride,0
;   strokeXoverride,120
;   strokeYoverride,120
;   strokeZoverride,120
;   originOffsetXoverride,0
;   originOffsetYoverride,0
;   originOffsetZoverride,0
;   homeXdirOverride,-1
;   homeYdirOverride,-1
;   homeZdirOverride,-1
;   flipXoverride,1
;   flipYoverride,-1
;   flipZoverride,1
;   toolheadOffsets,0,0|0,0|0,0|0,0|0,0|0,0
;   overrideFirmwareConfiguration,1
;   firmwareTypeOverride,RepRap (Marlin/Repetier/Sprinter)
;   GPXconfigOverride,r2
;   baudRateOverride,115200
;   overridePrinterModels,1
;   printerModelsOverride
;   startingGcode,G28 ; home all axes,G1 Z0.2 F1200 ; raise nozzle,G92 E0 ; reset extrusion distance,G1 X100 Y0 E12 F600 ; purge nozzle
;   layerChangeGcode,
;   retractionGcode,
;   toolChangeGcode,
;   endingGcode,M104 S0 ; turn off extruder,M140 S0 ; turn off bed,G1 X0 Y110 F1000 ; prepare for part removal,M84 ; disable motors
;   exportFileFormat,gcode
;   celebration,0
;   celebrationSong,Random Song
;   postProcessing,
;   defaultSpeed,300
;   outlineUnderspeed,1
;   solidInfillUnderspeed,1
;   supportUnderspeed,1
;   rapidXYspeed,300
;   rapidZspeed,300
;   minBridgingArea,50
;   bridgingExtraInflation,0
;   bridgingExtrusionMultiplier,1
;   bridgingSpeedMultiplier,1
;   useFixedBridgingAngle,0
;   fixedBridgingAngle,0
;   applyBridgingToPerimeters,0
;   filamentDiameters,1.75|1.75|1.75|1.75|1.75|1.75
;   filamentPricesPerKg,46|46|46|46|46|46
;   filamentDensities,1.25|1.25|1.25|1.25|1.25|1.25
;   useMinPrintHeight,0
;   minPrintHeight,0
;   useMaxPrintHeight,0
;   maxPrintHeight,0
;   useDiaphragm,0
;   diaphragmLayerInterval,20
;   robustSlicing,1
;   mergeAllIntoSolid,0
;   onlyRetractWhenCrossingOutline,1
;   retractBetweenLayers,1
;   useRetractionMinTravel,0
;   retractionMinTravel,3
;   retractWhileWiping,0
;   onlyWipeOutlines,1
;   avoidCrossingOutline,0
;   maxMovementDetourFactor,3
;   toolChangeRetractionDistance,12
;   toolChangeExtraRestartDistance,-0.5
;   toolChangeRetractionSpeed,600
;   externalThinWallType,0
;   internalThinWallType,2
;   thinWallAllowedOverlapPercentage,10
;   singleExtrusionMinLength,1
;   singleExtrusionMinPrintingWidthPercentage,50
;   singleExtrusionMaxPrintingWidthPercentage,200
;   singleExtrusionEndpointExtension,0.2
;   horizontalSizeCompensation,0
G90
M82
M106 S0
M140 S60
M190 S60
M104 S210 T0
M109 S210 T0
G28 ; home all axes
G1 Z0.2 F1200 ; raise nozzle
G92 E0 ; reset extrusion distance
G1 X100 Y0 E12 F600 ; purge nozzle
G92 E0
G1 E-2.5000 F1800
G1 Z0.200 F300
; process Process1
; layer 1, Z = 0.200
T0
; tool H0.200 W0.600
; skirt
G1 X26.083 Y50.472 F300
G1 E0.0000 F540
G92 E0
G1 X26.414 Y50.335 E0.0179 F300
G1 X47.254 Y50.335 E1.0576
G1 X47.335 Y50.342 E1.0616
G1 X48.129 Y50.488 E1.1019
G1 X48.208 Y50.510 E1.1060
G1 X54.658 Y52.952 E1.4501
G1 X55.697 Y53.275 E1.5044
G1 X56.621 Y53.444 E1.5512
G1 X57.707 Y53.510 E1.6055
G1 X62.293 Y53.510 E1.8343
G1 X63.379 Y53.444 E1.8886
G1 X64.303 Y53.275 E1.9354
G1 X65.341 Y52.952 E1.9897
G1 X71.792 Y50.510 E2.3338
G1 X71.871 Y50.488 E2.3379
G1 X72.665 Y50.342 E2.3782
G1 X72.746 Y50.335 E2.3823
G1 X93.586 Y50.335 E3.4219
G1 X93.917 Y50.472 E3.4398
G1 X96.513 Y53.068 E3.6230
G1 X96.650 Y53.399 E3.6409
G1 X96.650 Y66.601 E4.2995
G1 X96.513 Y66.932 E4.3174
G1 X93.917 Y69.528 E4.5005
G1 X93.586 Y69.665 E4.5184
G1 X72.746 Y69.665 E5.5581
G1 X72.665 Y69.658 E5.5622
G1 X71.871 Y69.512 E5.6024
G1 X71.792 Y69.490 E5.6065
G1 X65.341 Y67.048 E5.9506
G1 X64.303 Y66.725 E6.0049
G1 X63.379 Y66.556 E6.0518
G1 X62.293 Y66.490 E6.1060
G1 X57.707 Y66.490 E6.3349
G1 X56.621 Y66.556 E6.3891
G1 X55.697 Y66.725 E6.4360
G1 X54.658 Y67.048 E6.4903
G1 X48.208 Y69.490 E6.8344
G1 X48.129 Y69.512 E6.8385
G1 X47.335 Y69.658 E6.8787
G1 X47.254 Y69.665 E6.8828
G1 X26.414 Y69.665 E7.9225
G1 X26.083 Y69.528 E7.9404
G1 X23.487 Y66.932 E8.1235
G1 X23.350 Y66.601 E8.1414
G1 X23.350 Y53.399 E8.8000
G1 X23.487 Y53.068 E8.8179
G1 X26.083 Y50.472 E9.0011
G1 X26.423 Y50.981 F300
G92 E0
G1 X26.533 Y50.935 E0.0060 F300
G1 X47.227 Y50.935 E1.0383
G1 X47.254 Y50.937 E1.0397
G1 X47.994 Y51.073 E1.0773
G1 X48.021 Y51.080 E1.0786
G1 X54.463 Y53.520 E1.4223
G1 X55.553 Y53.859 E1.4793
G1 X56.549 Y54.041 E1.5298
G1 X57.689 Y54.110 E1.5867
G1 X62.311 Y54.110 E1.8174
G1 X63.451 Y54.041 E1.8743
G1 X64.447 Y53.859 E1.9248
G1 X65.537 Y53.520 E1.9818
G1 X71.979 Y51.080 E2.3255
G1 X72.006 Y51.073 E2.3268
G1 X72.746 Y50.937 E2.3644
G1 X72.773 Y50.935 E2.3658
G1 X93.467 Y50.935 E3.3981
G1 X93.577 Y50.981 E3.4041
G1 X96.004 Y53.408 E3.5754
G1 X96.050 Y53.518 E3.5813
G1 X96.050 Y66.482 E4.2281
G1 X96.004 Y66.592 E4.2340
G1 X93.577 Y69.019 E4.4053
G1 X93.467 Y69.065 E4.4112
G1 X72.773 Y69.065 E5.4436
G1 X72.746 Y69.063 E5.4450
G1 X72.006 Y68.927 E5.4825
G1 X71.979 Y68.920 E5.4839
G1 X65.537 Y66.480 E5.8276
G1 X64.447 Y66.141 E5.8846
G1 X63.451 Y65.959 E5.9350
G1 X62.311 Y65.890 E5.9920
G1 X57.689 Y65.890 E6.2226
G1 X56.549 Y65.959 E6.2796
G1 X55.553 Y66.141 E6.3301
G1 X54.463 Y66.480 E6.3871
G1 X48.021 Y68.920 E6.7308
G1 X47.994 Y68.927 E6.7321
G1 X47.254 Y69.063 E6.7697
G1 X47.227 Y69.065 E6.7710
G1 X26.533 Y69.065 E7.8034
G1 X26.423 Y69.019 E7.8094
G1 X23.996 Y66.592 E7.9806
G1 X23.950 Y66.482 E7.9866
G1 X23.950 Y53.518 E8.6333
G1 X23.996 Y53.408 E8.6393
G1 X26.423 Y50.981 E8.8106
G92 E0
G1 E-2.5000 F1800
; tool H0.200 W0.720
; infill
G1 X29.030 Y56.400 F300
G1 E0.0000 F1800
G92 E0
G1 X47.724 Y56.400 E1.1192 F300
G1 X49.626 Y57.120 E1.2409
G1 X29.030 Y57.120 E2.4739
G1 X29.030 Y57.840 E2.5170
G1 X51.527 Y57.840 E3.8639
G1 X52.807 Y58.325 E3.9459
G1 X53.563 Y58.560 E3.9933
G1 X29.030 Y58.560 E5.4620
G1 X29.030 Y59.280 E5.5051
G1 X90.970 Y59.280 E9.2134
G1 X90.970 Y60.000 E9.2565
G1 X29.030 Y60.000 E12.9647
G1 X29.030 Y60.720 E13.0078
G1 X90.970 Y60.720 E16.7161
G1 X90.970 Y61.440 E16.7592
G1 X66.437 Y61.440 E18.2279
G1 X65.663 Y61.199 E18.2764
G1 X64.064 Y60.907 E18.3738
G1 X62.465 Y60.810 E18.4697
G1 X57.535 Y60.810 E18.7648
G1 X55.936 Y60.907 E18.8607
G1 X54.337 Y61.199 E18.9580
G1 X53.563 Y61.440 E19.0065
G1 X29.030 Y61.440 E20.4753
G1 X29.030 Y62.160 E20.5184
G1 X51.527 Y62.160 E21.8653
G1 X49.625 Y62.880 E21.9870
G1 X29.030 Y62.880 E23.2200
G1 X29.030 Y63.600 E23.2631
G1 X47.724 Y63.600 E24.3823
G1 X66.437 Y58.560 F300
G92 E0
G1 X90.970 Y58.560 E1.4688 F300
G1 X90.970 Y57.840 E1.5119
G1 X68.473 Y57.840 E2.8587
G1 X70.374 Y57.120 E2.9805
G1 X90.970 Y57.120 E4.2135
G1 X90.970 Y56.400 E4.2566
G1 X72.276 Y56.400 E5.3758
G1 X68.473 Y62.160 F300
G92 E0
G1 X90.970 Y62.160 E1.3469 F300
G1 X90.970 Y62.880 E1.3900
G1 X70.375 Y62.880 E2.6230
G1 X72.276 Y63.600 E2.7447
G1 X90.970 Y63.600 E3.8639
G92 E0
G1 E-2.5000 F1800
; layer 2, Z = 0.400
M106 S255
G1 Z0.400 F300
G1 E0.0000 F1800
G92 E0
G1 X72.276 Y63.600 E1.1192 F300
G1 X70.375 Y62.880 E1.2409
G1 X90.970 Y62.880 E2.4739
G1 X90.970 Y62.160 E2.5170
G1 X68.473 Y62.160 E3.8639
G1 X66.437 Y58.560 F300
G92 E0
G1 X90.970 Y58.560 E1.4688 F300
G1 X90.970 Y57.840 E1.5119
G1 X68.473 Y57.840 E2.8587
G1 X70.374 Y57.120 E2.9805
G1 X90.970 Y57.120 E4.2135
G1 X90.970 Y56.400 E4.2566
G1 X72.276 Y56.400 E5.3758
G1 X47.724 Y63.600 F300
G92 E0
G1 X29.030 Y63.600 E1.1192 F300
G1 X29.030 Y62.880 E1.1623
G1 X49.625 Y62.880 E2.3953
G1 X51.527 Y62.160 E2.5170
G1 X29.030 Y62.160 E3.8639
G1 X29.030 Y61.440 E3.9070
G1 X53.563 Y61.440 E5.3757
G1 X54.337 Y61.199 E5.4243
G1 X55.936 Y60.907 E5.5216
G1 X57.535 Y60.810 E5.6175
G1 X62.465 Y60.810 E5.9126
G1 X64.064 Y60.907 E6.0085
G1 X65.663 Y61.199 E6.1058
G1 X66.437 Y61.440 E6.1544
G1 X90.970 Y61.440 E7.6231
G1 X90.970 Y60.720 E7.6662
G1 X29.030 Y60.720 E11.3745
G1 X29.030 Y60.000 E11.4176
G1 X90.970 Y60.000 E15.1258
G1 X90.970 Y59.280 E15.1689
G1 X29.030 Y59.280 E18.8772
G1 X29.030 Y58.560 E18.9203
G1 X53.563 Y58.560 E20.3890
G1 X52.807 Y58.325 E20.4364
G1 X51.527 Y57.840 E20.5184
G1 X29.030 Y57.840 E21.8653
G1 X29.030 Y57.120 E21.9084
G1 X49.626 Y57.120 E23.1414
G1 X47.724 Y56.400 E23.2631
G1 X29.030 Y56.400 E24.3823
G92 E0
G1 E-2.5000 F1800
; layer 3, Z = 0.600
G1 Z0.600 F300
G1 E0.0000 F1800
G92 E0
G1 X47.724 Y56.400 E1.1192 F300
G1 X49.626 Y57.120 E1.2409
G1 X29.030 Y57.120 E2.4739
G1 X29.030 Y57.840 E2.5170
G1 X51.527 Y57.840 E3.8639
G1 X52.807 Y58.325 E3.9459
G1 X53.563 Y58.560 E3.9933
G1 X29.030 Y58.560 E5.4620
G1 X29.030 Y59.280 E5.5051
G1 X90.970 Y59.280 E9.2134
G1 X90.970 Y60.000 E9.2565
G1 X29.030 Y60.000 E12.9647
G1 X29.030 Y60.720 E13.0078
G1 X90.970 Y60.720 E16.7161
G1 X90.970 Y61.440 E16.7592
G1 X66.437 Y61.440 E18.2279
G1 X65.663 Y61.199 E18.2764
G1 X64.064 Y60.907 E18.3738
G1 X62.465 Y60.810 E18.4697
G1 X57.535 Y60.810 E18.7648
G1 X55.936 Y60.907 E18.8607
G1 X54.337 Y61.199 E18.9580
G1 X53.563 Y61.440 E19.0065
G1 X29.030 Y61.440 E20.4753
G1 X29.030 Y62.160 E20.5184
G1 X51.527 Y62.160 E21.8653
G1 X49.625 Y62.880 E21.9870
G1 X29.030 Y62.880 E23.2200
G1 X29.030 Y63.600 E23.2631
G1 X47.724 Y63.600 E24.3823
G1 X66.437 Y58.560 F300
G92 E0
G1 X90.970 Y58.560 E1.4688 F300
G1 X90.970 Y57.840 E1.5119
G1 X68.473 Y57.840 E2.8587
G1 X70.374 Y57.120 E2.9805
G1 X90.970 Y57.120 E4.2135
G1 X90.970 Y56.400 E4.2566
G1 X72.276 Y56.400 E5.3758
G1 X68.473 Y62.160 F300
G92 E0
G1 X90.970 Y62.160 E1.3469 F300
G1 X90.970 Y62.880 E1.3900
G1 X70.375 Y62.880 E2.6230
G1 X72.276 Y63.600 E2.7447
G1 X90.970 Y63.600 E3.8639
G92 E0
G1 E-2.5000 F1800
; layer 4, Z = 0.800
G1 Z0.800 F300
G1 E0.0000 F1800
G92 E0
G1 X72.276 Y63.600 E1.1192 F300
G1 X70.375 Y62.880 E1.2409
G1 X90.970 Y62.880 E2.4739
G1 X90.970 Y62.160 E2.5170
G1 X68.473 Y62.160 E3.8639
G1 X66.437 Y58.560 F300
G92 E0
G1 X90.970 Y58.560 E1.4688 F300
G1 X90.970 Y57.840 E1.5119
G1 X68.473 Y57.840 E2.8587
G1 X70.374 Y57.120 E2.9805
G1 X90.970 Y57.120 E4.2135
G1 X90.970 Y56.400 E4.2566
G1 X72.276 Y56.400 E5.3758
G1 X47.724 Y63.600 F300
G92 E0
G1 X29.030 Y63.600 E1.1192 F300
G1 X29.030 Y62.880 E1.1623
G1 X49.625 Y62.880 E2.3953
G1 X51.527 Y62.160 E2.5170
G1 X29.030 Y62.160 E3.8639
G1 X29.030 Y61.440 E3.9070
G1 X53.563 Y61.440 E5.3757
G1 X54.337 Y61.199 E5.4243
G1 X55.936 Y60.907 E5.5216
G1 X57.535 Y60.810 E5.6175
G1 X62.465 Y60.810 E5.9126
G1 X64.064 Y60.907 E6.0085
G1 X65.663 Y61.199 E6.1058
G1 X66.437 Y61.440 E6.1544
G1 X90.970 Y61.440 E7.6231
G1 X90.970 Y60.720 E7.6662
G1 X29.030 Y60.720 E11.3745
G1 X29.030 Y60.000 E11.4176
G1 X90.970 Y60.000 E15.1258
G1 X90.970 Y59.280 E15.1689
G1 X29.030 Y59.280 E18.8772
G1 X29.030 Y58.560 E18.9203
G1 X53.563 Y58.560 E20.3890
G1 X52.807 Y58.325 E20.4364
G1 X51.527 Y57.840 E20.5184
G1 X29.030 Y57.840 E21.8653
G1 X29.030 Y57.120 E21.9084
G1 X49.626 Y57.120 E23.1414
G1 X47.724 Y56.400 E23.2631
G1 X29.030 Y56.400 E24.3823
G92 E0
G1 E-2.5000 F1800
; layer 5, Z = 1.000
G1 Z1.000 F300
G1 E0.0000 F1800
G92 E0
G1 X47.724 Y56.400 E1.1192 F300
G1 X49.626 Y57.120 E1.2409
G1 X29.030 Y57.120 E2.4739
G1 X29.030 Y57.840 E2.5170
G1 X51.527 Y57.840 E3.8639
G1 X52.807 Y58.325 E3.9459
G1 X53.563 Y58.560 E3.9933
G1 X29.030 Y58.560 E5.4620
G1 X29.030 Y59.280 E5.5051
G1 X90.970 Y59.280 E9.2134
G1 X90.970 Y60.000 E9.2565
G1 X29.030 Y60.000 E12.9647
G1 X29.030 Y60.720 E13.0078
G1 X90.970 Y60.720 E16.7161
G1 X90.970 Y61.440 E16.7592
G1 X66.437 Y61.440 E18.2279
G1 X65.663 Y61.199 E18.2764
G1 X64.064 Y60.907 E18.3738
G1 X62.465 Y60.810 E18.4697
G1 X57.535 Y60.810 E18.7648
G1 X55.936 Y60.907 E18.8607
G1 X54.337 Y61.199 E18.9580
G1 X53.563 Y61.440 E19.0065
G1 X29.030 Y61.440 E20.4753
G1 X29.030 Y62.160 E20.5184
G1 X51.527 Y62.160 E21.8653
G1 X49.625 Y62.880 E21.9870
G1 X29.030 Y62.880 E23.2200
G1 X29.030 Y63.600 E23.2631
G1 X47.724 Y63.600 E24.3823
G1 X66.437 Y58.560 F300
G92 E0
G1 X90.970 Y58.560 E1.4688 F300
G1 X90.970 Y57.840 E1.5119
G1 X68.473 Y57.840 E2.8587
G1 X70.374 Y57.120 E2.9805
G1 X90.970 Y57.120 E4.2135
G1 X90.970 Y56.400 E4.2566
G1 X72.276 Y56.400 E5.3758
G1 X68.473 Y62.160 F300
G92 E0
G1 X90.970 Y62.160 E1.3469 F300
G1 X90.970 Y62.880 E1.3900
G1 X70.375 Y62.880 E2.6230
G1 X72.276 Y63.600 E2.7447
G1 X90.970 Y63.600 E3.8639
G92 E0
G1 E-2.5000 F1800
; layer 6, Z = 1.200
G1 Z1.200 F300
G1 E0.0000 F1800
G92 E0
G1 X72.276 Y63.600 E1.1192 F300
G1 X70.375 Y62.880 E1.2409
G1 X90.970 Y62.880 E2.4739
G1 X90.970 Y62.160 E2.5170
G1 X68.473 Y62.160 E3.8639
G1 X66.437 Y58.560 F300
G92 E0
G1 X90.970 Y58.560 E1.4688 F300
G1 X90.970 Y57.840 E1.5119
G1 X68.473 Y57.840 E2.8587
G1 X70.374 Y57.120 E2.9805
G1 X90.970 Y57.120 E4.2135
G1 X90.970 Y56.400 E4.2566
G1 X72.276 Y56.400 E5.3758
G1 X47.724 Y63.600 F300
G92 E0
G1 X29.030 Y63.600 E1.1192 F300
G1 X29.030 Y62.880 E1.1623
G1 X49.625 Y62.880 E2.3953
G1 X51.527 Y62.160 E2.5170
G1 X29.030 Y62.160 E3.8639
G1 X29.030 Y61.440 E3.9070
G1 X53.563 Y61.440 E5.3757
G1 X54.337 Y61.199 E5.4243
G1 X55.936 Y60.907 E5.5216
G1 X57.535 Y60.810 E5.6175
G1 X62.465 Y60.810 E5.9126
G1 X64.064 Y60.907 E6.0085
