; generated by Slic3r 1.3.1-dev on 2019-07-15 at 10:24:43

; external perimeters extrusion width = 0.44mm (2.61mm^3/s)
; perimeters extrusion width = 0.40mm (5.20mm^3/s)
; infill extrusion width = 0.50mm (8.93mm^3/s)
; solid infill extrusion width = 0.56mm (3.02mm^3/s)
; top infill extrusion width = 0.38mm (1.54mm^3/s)

M107
M104 S230 ; set temperature
G28 ; home all axes
G1 X150 Y150 Z50 F10000
; Filament gcode
; layer 1
M109 S230 ; set temperature and wait for it to be reached
G21 ; set units to millimeters
G90 ; use absolute coordinates
M82 ; use absolute distances for extrusion
G92 E0
G92 E0
G1 Z0.350 F15000.000
G1 X75.438 Y57.235 F15000.000
G1 F3600
G1 X75.545 Y57.213 E0.01591
G1 X75.698 Y57.120 E0.04199
G1 X75.836 Y56.955 E0.07330
G1 X75.897 Y56.800 E0.09752
G1 X75.909 Y56.610 E0.12516
G1 X76.105 Y56.452 E0.16191
G1 X76.701 Y55.843 E0.28581
G1 X76.810 Y55.842 E0.30172
G1 X76.979 Y55.782 E0.32779
G1 X77.146 Y55.646 E0.35911
G1 X77.236 Y55.506 E0.38333
G1 X77.285 Y55.323 E0.41097
G1 X77.508 Y55.205 E0.44772
G1 X78.211 Y54.724 E0.57161
G1 X78.318 Y54.745 E0.58752
G1 X78.496 Y54.719 E0.61360
G1 X78.686 Y54.618 E0.64491
G1 X78.802 Y54.498 E0.66913
G1 X78.885 Y54.328 E0.69678
G1 X79.127 Y54.257 E0.73353
G1 X79.910 Y53.922 E0.85742
G1 X80.012 Y53.963 E0.87333
G1 X80.191 Y53.972 E0.89940
G1 X80.397 Y53.910 E0.93072
G1 X80.534 Y53.816 E0.95494
G1 X80.649 Y53.665 E0.98258
G1 X80.901 Y53.642 E1.01933
G1 X81.734 Y53.466 E1.14322
G1 X81.825 Y53.527 E1.15913
G1 X81.999 Y53.570 E1.18521
G1 X82.213 Y53.550 E1.21653
G1 X82.366 Y53.484 E1.24074
G1 X82.509 Y53.358 E1.26839
G1 X82.760 Y53.385 E1.30514
G1 X83.611 Y53.375 E1.42903
G1 X83.689 Y53.452 E1.44494
G1 X83.851 Y53.529 E1.47101
G1 X84.065 Y53.551 E1.50233
G1 X84.228 Y53.516 E1.52655
G1 X84.392 Y53.420 E1.55419
G1 X84.633 Y53.496 E1.59094
G1 X85.470 Y53.652 E1.71483
G1 X85.531 Y53.743 E1.73074
G1 X85.675 Y53.850 E1.75682
G1 X85.881 Y53.913 E1.78814
G1 X86.047 Y53.910 E1.81235
G1 X86.227 Y53.849 E1.84000
G1 X86.449 Y53.970 E1.87675
G1 X87.239 Y54.287 E2.00064
G1 X87.282 Y54.387 E2.01655
G1 X87.402 Y54.520 E2.04263
G1 X87.591 Y54.622 E2.07394
G1 X87.755 Y54.652 E2.09816
G1 X87.943 Y54.627 E2.12581
G1 X88.137 Y54.789 E2.16256
G1 X88.850 Y55.254 E2.28644
G1 X88.872 Y55.361 E2.30236
G1 X88.965 Y55.515 E2.32843
G1 X89.131 Y55.652 E2.35975
G1 X89.285 Y55.713 E2.38397
G1 X89.475 Y55.725 E2.41161
G1 X89.633 Y55.922 E2.44836
G1 X90.242 Y56.517 E2.57225
G1 X90.243 Y56.626 E2.58816
G1 X90.303 Y56.795 E2.61424
G1 X90.439 Y56.962 E2.64555
G1 X90.579 Y57.052 E2.66977
G1 X90.763 Y57.101 E2.69742
G1 X90.880 Y57.325 E2.73416
G1 X91.361 Y58.027 E2.85805
G1 X91.340 Y58.135 E2.87397
G1 X91.367 Y58.312 E2.90004
G1 X91.467 Y58.502 E2.93136
G1 X91.587 Y58.618 E2.95558
G1 X91.757 Y58.702 E2.98322
G1 X91.829 Y58.944 E3.01997
G1 X92.163 Y59.727 E3.14386
G1 X92.122 Y59.828 E3.15977
G1 X92.113 Y60.007 E3.18585
G1 X92.175 Y60.213 E3.21716
G1 X92.270 Y60.350 E3.24138
G1 X92.421 Y60.465 E3.26903
G1 X92.443 Y60.717 E3.30578
G1 X92.619 Y61.550 E3.42967
G1 X92.559 Y61.641 E3.44558
G1 X92.515 Y61.815 E3.47165
G1 X92.535 Y62.030 E3.50297
G1 X92.601 Y62.182 E3.52719
G1 X92.727 Y62.325 E3.55483
G1 X92.700 Y62.576 E3.59158
G1 X92.710 Y63.427 E3.71547
G1 X92.633 Y63.505 E3.73138
G1 X92.556 Y63.667 E3.75746
G1 X92.534 Y63.881 E3.78878
G1 X92.569 Y64.044 E3.81299
G1 X92.665 Y64.208 E3.84064
G1 X92.589 Y64.449 E3.87739
G1 X92.433 Y65.286 E4.00128
G1 X92.342 Y65.348 E4.01719
G1 X92.236 Y65.492 E4.04326
G1 X92.172 Y65.697 E4.07458
G1 X92.175 Y65.864 E4.09880
G1 X92.236 Y66.043 E4.12645
G1 X92.115 Y66.265 E4.16319
G1 X91.798 Y67.055 E4.28708
G1 X91.698 Y67.098 E4.30300
G1 X91.565 Y67.218 E4.32907
G1 X91.463 Y67.408 E4.36039
G1 X91.433 Y67.571 E4.38461
G1 X91.458 Y67.760 E4.41225
G1 X91.296 Y67.954 E4.44900
G1 X90.831 Y68.667 E4.57289
G1 X90.724 Y68.689 E4.58880
G1 X90.570 Y68.781 E4.61488
G1 X90.433 Y68.947 E4.64619
G1 X90.372 Y69.102 E4.67041
G1 X90.360 Y69.291 E4.69805
G1 X90.163 Y69.450 E4.73480
G1 X89.568 Y70.059 E4.85869
G1 X89.459 Y70.059 E4.87461
G1 X89.290 Y70.120 E4.90068
G1 X89.123 Y70.256 E4.93200
G1 X89.033 Y70.395 E4.95622
G1 X88.984 Y70.579 E4.98386
G1 X88.760 Y70.696 E5.02061
G1 X88.058 Y71.177 E5.14450
G1 X87.951 Y71.157 E5.16041
G1 X87.773 Y71.183 E5.18649
G1 X87.583 Y71.284 E5.21781
G1 X87.467 Y71.403 E5.24202
G1 X87.384 Y71.574 E5.26967
G1 X87.141 Y71.645 E5.30642
G1 X86.358 Y71.980 E5.43031
G1 X86.257 Y71.938 E5.44622
G1 X86.078 Y71.930 E5.47230
G1 X85.872 Y71.991 E5.50361
G1 X85.735 Y72.086 E5.52783
G1 X85.620 Y72.237 E5.55548
G1 X85.368 Y72.260 E5.59222
G1 X84.535 Y72.435 E5.71611
G1 X84.444 Y72.375 E5.73204
G1 X84.268 Y72.332 E5.75838
G1 X84.052 Y72.353 E5.78988
G1 X83.901 Y72.420 E5.81403
G1 X83.762 Y72.544 E5.84102
G1 X83.509 Y72.517 E5.87802
G1 X82.662 Y72.526 E6.00126
G1 X82.580 Y72.447 E6.01791
G1 X82.421 Y72.373 E6.04343
G1 X82.204 Y72.351 E6.07514
G1 X82.041 Y72.386 E6.09936
G1 X81.877 Y72.481 E6.12700
G1 X81.636 Y72.406 E6.16375
G1 X80.799 Y72.249 E6.28764
G1 X80.738 Y72.159 E6.30356
G1 X80.594 Y72.052 E6.32963
G1 X80.388 Y71.989 E6.36095
G1 X80.221 Y71.991 E6.38516
G1 X80.042 Y72.053 E6.41281
G1 X79.820 Y71.932 E6.44956
G1 X79.030 Y71.615 E6.57345
G1 X78.987 Y71.514 E6.58936
G1 X78.867 Y71.381 E6.61544
G1 X78.677 Y71.279 E6.64675
G1 X78.514 Y71.249 E6.67097
G1 X78.325 Y71.274 E6.69862
G1 X78.132 Y71.113 E6.73537
G1 X77.418 Y70.648 E6.85925
G1 X77.396 Y70.540 E6.87517
G1 X77.304 Y70.387 E6.90124
G1 X77.138 Y70.250 E6.93256
G1 X76.984 Y70.188 E6.95678
G1 X76.794 Y70.176 E6.98442
G1 X76.635 Y69.980 E7.02117
G1 X76.027 Y69.385 E7.14506
G1 X76.026 Y69.275 E7.16097
G1 X75.965 Y69.107 E7.18705
G1 X75.830 Y68.940 E7.21836
G1 X75.690 Y68.849 E7.24258
G1 X75.506 Y68.801 E7.27023
G1 X75.389 Y68.577 E7.30697
G1 X74.908 Y67.874 E7.43086
G1 X74.929 Y67.767 E7.44678
G1 X74.902 Y67.590 E7.47285
G1 X74.802 Y67.399 E7.50417
G1 X74.682 Y67.284 E7.52839
G1 X74.512 Y67.200 E7.55603
G1 X74.440 Y66.958 E7.59278
G1 X74.106 Y66.175 E7.71667
G1 X74.147 Y66.073 E7.73258
G1 X74.155 Y65.895 E7.75866
G1 X74.094 Y65.688 E7.78997
G1 X73.999 Y65.551 E7.81419
G1 X73.848 Y65.436 E7.84184
G1 X73.826 Y65.185 E7.87859
G1 X73.650 Y64.351 E8.00248
G1 X73.710 Y64.260 E8.01839
G1 X73.754 Y64.086 E8.04447
G1 X73.733 Y63.872 E8.07578
G1 X73.667 Y63.719 E8.10000
G1 X73.542 Y63.577 E8.12764
G1 X73.569 Y63.326 E8.16439
G1 X73.559 Y62.474 E8.28828
G1 X73.636 Y62.396 E8.30419
G1 X73.712 Y62.234 E8.33027
G1 X73.734 Y62.020 E8.36158
G1 X73.699 Y61.857 E8.38580
G1 X73.604 Y61.693 E8.41344
G1 X73.679 Y61.452 E8.45019
G1 X73.836 Y60.615 E8.57409
G1 X73.927 Y60.554 E8.59000
G1 X74.033 Y60.410 E8.61607
G1 X74.097 Y60.204 E8.64739
G1 X74.094 Y60.038 E8.67161
G1 X74.032 Y59.858 E8.69925
G1 X74.153 Y59.636 E8.73600
G1 X74.470 Y58.846 E8.85989
G1 X74.571 Y58.804 E8.87580
G1 X74.704 Y58.683 E8.90188
G1 X74.806 Y58.494 E8.93320
G1 X74.836 Y58.330 E8.95741
G1 X74.811 Y58.142 E8.98506
G1 X74.973 Y57.948 E9.02181
G1 X75.405 Y57.285 E9.13697
G92 E0
G1 X82.463 Y62.297 F15000.000
G1 F3600
G1 X82.604 Y62.179 E0.01697
G1 X82.765 Y62.090 E0.03394
G1 X82.940 Y62.035 E0.05091
G1 X83.122 Y62.014 E0.06788
G1 X83.305 Y62.030 E0.08485
G1 X83.481 Y62.081 E0.10182
G1 X83.644 Y62.165 E0.11879
G1 X83.788 Y62.280 E0.13576
G1 X83.906 Y62.420 E0.15273
G1 X83.995 Y62.581 E0.16970
G1 X84.051 Y62.756 E0.18667
G1 X84.071 Y62.938 E0.20364
G1 X84.055 Y63.121 E0.22061
G1 X84.004 Y63.298 E0.23758
G1 X83.920 Y63.461 E0.25455
G1 X83.805 Y63.604 E0.27152
G1 X83.665 Y63.723 E0.28849
G1 X83.504 Y63.811 E0.30546
G1 X83.329 Y63.867 E0.32243
G1 X83.166 Y63.883 E0.33757
G1 X82.918 Y63.861 E0.36059
G1 X82.787 Y63.821 E0.37324
G1 X82.624 Y63.736 E0.39021
G1 X82.481 Y63.622 E0.40718
G1 X82.362 Y63.481 E0.42415
G1 X82.274 Y63.321 E0.44112
G1 X82.218 Y63.146 E0.45809
G1 X82.198 Y62.963 E0.47506
G1 X82.213 Y62.780 E0.49203
G1 X82.264 Y62.604 E0.50900
G1 X82.349 Y62.441 E0.52597
G1 X82.425 Y62.343 E0.53740
G1 X82.004 Y61.856 F15000.000
G1 F3600
G1 X82.239 Y61.657 E0.56590
G1 X82.509 Y61.507 E0.59441
G1 X82.803 Y61.413 E0.62291
G1 X83.109 Y61.378 E0.65142
G1 X83.417 Y61.403 E0.67992
G1 X83.713 Y61.488 E0.70843
G1 X83.987 Y61.629 E0.73694
G1 X84.229 Y61.821 E0.76544
G1 X84.428 Y62.056 E0.79394
G1 X84.578 Y62.325 E0.82246
G1 X84.672 Y62.619 E0.85096
G1 X84.708 Y62.926 E0.87947
G1 X84.682 Y63.233 E0.90797
G1 X84.597 Y63.529 E0.93647
G1 X84.456 Y63.804 E0.96498
G1 X84.265 Y64.045 E0.99349
G1 X84.029 Y64.245 E1.02199
G1 X83.760 Y64.395 E1.05050
G1 X83.466 Y64.489 E1.07900
G1 X83.165 Y64.521 E1.10698
G1 X82.819 Y64.490 E1.13907
G1 X82.556 Y64.414 E1.16443
G1 X82.281 Y64.273 E1.19293
G1 X82.040 Y64.081 E1.22144
G1 X81.840 Y63.846 E1.24995
G1 X81.691 Y63.576 E1.27845
G1 X81.596 Y63.282 E1.30695
G1 X81.561 Y62.976 E1.33546
G1 X81.587 Y62.669 E1.36397
G1 X81.671 Y62.372 E1.39247
G1 X81.812 Y62.098 E1.42098
G1 X81.966 Y61.902 E1.44394
G1 X81.545 Y61.415 F15000.000
G1 F3600
G1 X81.875 Y61.135 E1.48398
G1 X82.254 Y60.924 E1.52402
G1 X82.666 Y60.791 E1.56407
G1 X83.096 Y60.741 E1.60411
G1 X83.528 Y60.776 E1.64415
G1 X83.945 Y60.895 E1.68419
G1 X84.330 Y61.092 E1.72423
G1 X84.670 Y61.361 E1.76427
G1 X84.951 Y61.691 E1.80431
G1 X85.161 Y62.070 E1.84436
G1 X85.294 Y62.482 E1.88439
G1 X85.344 Y62.913 E1.92444
G1 X85.309 Y63.345 E1.96448
G1 X85.191 Y63.761 E2.00452
G1 X84.993 Y64.147 E2.04457
G1 X84.724 Y64.486 E2.08461
G1 X84.394 Y64.767 E2.12465
G1 X84.015 Y64.978 E2.16469
G1 X83.603 Y65.111 E2.20473
G1 X83.164 Y65.158 E2.24553
G1 X82.713 Y65.119 E2.28738
G1 X82.324 Y65.007 E2.32478
G1 X81.938 Y64.809 E2.36482
G1 X81.599 Y64.540 E2.40486
G1 X81.318 Y64.210 E2.44491
G1 X81.107 Y63.832 E2.48494
G1 X80.975 Y63.419 E2.52498
G1 X80.925 Y62.989 E2.56503
G1 X80.960 Y62.557 E2.60507
G1 X81.078 Y62.140 E2.64511
G1 X81.276 Y61.755 E2.68515
G1 X81.507 Y61.461 E2.71965
G1 X81.086 Y60.974 F15000.000
G1 F3600
G1 X81.511 Y60.612 E2.77123
G1 X81.998 Y60.341 E2.82280
G1 X82.529 Y60.169 E2.87438
G1 X83.083 Y60.104 E2.92596
G1 X83.640 Y60.149 E2.97753
G1 X84.177 Y60.302 E3.02912
G1 X84.673 Y60.556 E3.08069
G1 X85.111 Y60.902 E3.13227
G1 X85.473 Y61.327 E3.18384
G1 X85.745 Y61.814 E3.23542
G1 X85.916 Y62.345 E3.28700
G1 X85.981 Y62.900 E3.33858
G1 X85.936 Y63.456 E3.39016
G1 X85.784 Y63.993 E3.44173
G1 X85.529 Y64.490 E3.49331
G1 X85.183 Y64.927 E3.54489
G1 X84.758 Y65.289 E3.59646
G1 X84.271 Y65.561 E3.64804
G1 X83.740 Y65.732 E3.69962
G1 X83.163 Y65.796 E3.75326
G1 X82.607 Y65.747 E3.80485
G1 X82.092 Y65.600 E3.85429
G1 X81.595 Y65.346 E3.90587
G1 X81.158 Y65.000 E3.95745
G1 X80.796 Y64.575 E4.00903
G1 X80.524 Y64.087 E4.06060
G1 X80.353 Y63.556 E4.11218
G1 X80.288 Y63.002 E4.16376
G1 X80.333 Y62.446 E4.21533
G1 X80.485 Y61.909 E4.26691
G1 X80.739 Y61.412 E4.31849
G1 X81.047 Y61.020 E4.36452
G1 X80.626 Y60.533 F15000.000
G1 F3600
G1 X81.146 Y60.090 E4.42764
G1 X81.742 Y59.757 E4.49075
G1 X82.392 Y59.547 E4.55386
G1 X83.070 Y59.468 E4.61698
G1 X83.751 Y59.522 E4.68009
G1 X84.408 Y59.708 E4.74320
G1 X85.016 Y60.019 E4.80632
G1 X85.552 Y60.443 E4.86943
G1 X85.995 Y60.963 E4.93254
G1 X86.328 Y61.559 E4.99566
G1 X86.538 Y62.209 E5.05876
G1 X86.617 Y62.887 E5.12188
G1 X86.563 Y63.568 E5.18500
G1 X86.377 Y64.225 E5.24811
G1 X86.066 Y64.833 E5.31122
G1 X85.642 Y65.368 E5.37434
G1 X85.123 Y65.811 E5.43745
G1 X84.526 Y66.144 E5.50056
G1 X83.877 Y66.354 E5.56367
G1 X83.162 Y66.433 E5.63014
G1 X82.501 Y66.375 E5.69149
G1 X81.861 Y66.193 E5.75298
G1 X81.253 Y65.882 E5.81609
G1 X80.717 Y65.459 E5.87920
G1 X80.274 Y64.939 E5.94232
G1 X79.941 Y64.343 E6.00543
G1 X79.731 Y63.693 E6.06854
G1 X79.651 Y63.015 E6.13166
G1 X79.706 Y62.334 E6.19477
G1 X79.892 Y61.677 E6.25788
G1 X80.203 Y61.069 E6.32099
G1 X80.588 Y60.579 E6.37857
G1 X80.167 Y60.092 F15000.000
G1 F3600
G1 X80.782 Y59.568 E6.45321
G1 X81.487 Y59.174 E6.52786
G1 X82.255 Y58.925 E6.60251
G1 X83.058 Y58.831 E6.67716
G1 X83.863 Y58.895 E6.75181
G1 X84.640 Y59.115 E6.82646
G1 X85.359 Y59.483 E6.90111
G1 X85.993 Y59.984 E6.97576
G1 X86.517 Y60.598 E7.05040
G1 X86.911 Y61.303 E7.12506
G1 X87.160 Y62.072 E7.19970
G1 X87.254 Y62.874 E7.27435
G1 X87.190 Y63.679 E7.34900
G1 X86.970 Y64.456 E7.42365
G1 X86.602 Y65.176 E7.49830
G1 X86.102 Y65.809 E7.57295
G1 X85.487 Y66.333 E7.64760
G1 X84.782 Y66.727 E7.72225
G1 X84.013 Y66.976 E7.79690
G1 X83.653 Y67.029 E7.83059
G1 X83.161 Y67.071 E7.87624
G1 X82.394 Y67.003 E7.94733
G1 X81.629 Y66.786 E8.02086
G1 X80.910 Y66.419 E8.09551
G1 X80.276 Y65.918 E8.17016
G1 X79.752 Y65.303 E8.24481
G1 X79.358 Y64.598 E8.31946
G1 X79.109 Y63.830 E8.39411
G1 X79.015 Y63.028 E8.46876
G1 X79.079 Y62.222 E8.54340
G1 X79.299 Y61.445 E8.61806
G1 X79.666 Y60.726 E8.69270
G1 X80.129 Y60.138 E8.76181
G1 X79.708 Y59.651 F15000.000
G1 F3600
G1 X80.036 Y59.354 E8.80271
G1 X80.417 Y59.046 E8.84803
G1 X80.797 Y58.819 E8.88893
G1 X81.231 Y58.591 E8.93424
G1 X81.648 Y58.443 E8.97515
G1 X82.119 Y58.304 E9.02046
G1 X82.556 Y58.239 E9.06136
G1 X83.045 Y58.195 E9.10668
G1 X83.487 Y58.217 E9.14758
G1 X83.974 Y58.268 E9.19289
G1 X84.403 Y58.377 E9.23380
G1 X84.872 Y58.522 E9.27911
G1 X85.271 Y58.712 E9.32001
G1 X85.702 Y58.946 E9.36533
G1 X86.057 Y59.210 E9.40623
G1 X86.434 Y59.524 E9.45155
G1 X86.731 Y59.853 E9.49245
G1 X87.039 Y60.234 E9.53776
G1 X87.266 Y60.614 E9.57867
G1 X87.494 Y61.048 E9.62398
G1 X87.643 Y61.465 E9.66488
G1 X87.782 Y61.935 E9.71019
G1 X87.846 Y62.373 E9.75110
G1 X87.891 Y62.861 E9.79641
G1 X87.868 Y63.303 E9.83732
G1 X87.817 Y63.791 E9.88263
G1 X87.709 Y64.220 E9.92353
G1 X87.563 Y64.688 E9.96885
G1 X87.373 Y65.088 E10.00975
G1 X87.139 Y65.519 E10.05507
G1 X86.875 Y65.874 E10.09596
G1 X86.561 Y66.250 E10.14129
G1 X86.233 Y66.547 E10.18218
G1 X85.851 Y66.856 E10.22750
G1 X85.471 Y67.083 E10.26840
G1 X85.037 Y67.311 E10.31372
G1 X84.620 Y67.459 E10.35462
G1 X84.150 Y67.598 E10.39993
G1 X83.726 Y67.660 E10.43959
G1 X83.159 Y67.708 E10.49211
G1 X82.288 Y67.631 E10.57296
G1 X81.865 Y67.525 E10.61325
G1 X81.397 Y67.379 E10.65856
G1 X80.997 Y67.189 E10.69947
G1 X80.567 Y66.955 E10.74478
G1 X80.212 Y66.691 E10.78568
G1 X79.835 Y66.377 E10.83099
G1 X79.538 Y66.049 E10.87190
G1 X79.230 Y65.668 E10.91722
G1 X79.003 Y65.288 E10.95811
G1 X78.775 Y64.854 E11.00343
G1 X78.626 Y64.437 E11.04433
G1 X78.487 Y63.967 E11.08965
G1 X78.423 Y63.529 E11.13055
G1 X78.378 Y63.040 E11.17587
G1 X78.401 Y62.598 E11.21677
G1 X78.452 Y62.111 E11.26208
G1 X78.560 Y61.682 E11.30298
G1 X78.706 Y61.214 E11.34830
G1 X78.896 Y60.814 E11.38920
G1 X79.130 Y60.383 E11.43452
G1 X79.669 Y59.697 E11.51516
G1 X79.249 Y59.210 F15000.000
G1 F3600
G1 X79.623 Y58.871 E11.56183
G1 X80.053 Y58.524 E11.61292
G1 X80.487 Y58.265 E11.65959
G1 X80.976 Y58.008 E11.71067
G1 X81.452 Y57.838 E11.75735
G1 X81.982 Y57.682 E11.80843
G1 X82.481 Y57.608 E11.85510
G1 X83.032 Y57.558 E11.90619
G1 X83.536 Y57.584 E11.95286
G1 X84.086 Y57.642 E12.00394
G1 X84.576 Y57.765 E12.05062
G1 X85.103 Y57.929 E12.10170
G1 X85.560 Y58.146 E12.14837
G1 X86.045 Y58.410 E12.19946
G1 X86.450 Y58.711 E12.24613
G1 X86.875 Y59.065 E12.29722
G1 X87.214 Y59.440 E12.34389
G1 X87.561 Y59.869 E12.39497
G1 X87.820 Y60.303 E12.44165
G1 X88.077 Y60.792 E12.49273
G1 X88.247 Y61.268 E12.53940
G1 X88.404 Y61.798 E12.59048
G1 X88.477 Y62.298 E12.63716
G1 X88.527 Y62.848 E12.68825
G1 X88.502 Y63.353 E12.73492
G1 X88.444 Y63.902 E12.78600
G1 X88.320 Y64.392 E12.83267
G1 X88.156 Y64.920 E12.88376
G1 X87.939 Y65.376 E12.93043
G1 X87.675 Y65.862 E12.98152
G1 X87.374 Y66.267 E13.02819
G1 X87.020 Y66.692 E13.07928
G1 X86.646 Y67.030 E13.12594
G1 X86.216 Y67.378 E13.17703
G1 X85.782 Y67.637 E13.22371
G1 X85.293 Y67.894 E13.27479
G1 X84.817 Y68.063 E13.32146
G1 X84.287 Y68.220 E13.37254
G1 X83.799 Y68.292 E13.41816
G1 X83.158 Y68.346 E13.47756
G1 X82.182 Y68.260 E13.56816
G1 X81.693 Y68.137 E13.61473
G1 X81.165 Y67.972 E13.66581
G1 X80.709 Y67.756 E13.71249
G1 X80.224 Y67.492 E13.76357
G1 X79.818 Y67.190 E13.81024
G1 X79.394 Y66.837 E13.86132
G1 X79.055 Y66.462 E13.90800
G1 X78.707 Y66.032 E13.95909
G1 X78.449 Y65.599 E14.00576
G1 X78.191 Y65.109 E14.05684
G1 X78.022 Y64.634 E14.10352
G1 X77.865 Y64.104 E14.15460
G1 X77.792 Y63.604 E14.20127
