; generated by Slic3r 1.3.1-dev on 2019-07-17 at 11:43:55

; external perimeters extrusion width = 0.44mm (3.04mm^3/s)
; perimeters extrusion width = 0.40mm (6.04mm^3/s)
; infill extrusion width = 0.48mm (10.05mm^3/s)
; solid infill extrusion width = 0.48mm (3.02mm^3/s)
; top infill extrusion width = 0.45mm (2.22mm^3/s)

M104 S230 ; set temperature
G28 ; home all axes
G1 X150 Y150 Z50 F10000
; Filament gcode
; layer 1
M109 S230 ; set temperature and wait for it to be reached
G21 ; set units to millimeters
G90 ; use absolute coordinates
M82 ; use absolute distances for extrusion
G92 E0
G92 E0
G1 Z1.300 F15000.000
G1 X63.171 Y35.527 F15000.000
G1 F3600
G1 X63.171 Y46.062 E0.70384
G1 X63.594 Y46.062 E0.73210
G1 X63.594 Y35.527 E1.43594
G1 X64.017 Y35.527 E1.46421
G1 X64.017 Y46.062 E2.16805
G1 X64.440 Y46.062 E2.19631
G1 X64.440 Y35.527 E2.90015
G1 X64.864 Y35.527 E2.92842
G1 X64.864 Y46.062 E3.63225
G1 X65.287 Y46.062 E3.66052
G1 X65.287 Y35.527 E4.36436
G1 X65.710 Y35.527 E4.39262
G1 X65.710 Y46.062 E5.09646
G1 X66.133 Y46.062 E5.12473
G1 X66.133 Y35.527 E5.82856
G1 X66.556 Y35.527 E5.85683
G1 X66.556 Y46.062 E6.56067
G1 X66.979 Y46.062 E6.58893
G1 X66.979 Y35.527 E7.29277
G1 X67.402 Y35.527 E7.32104
G1 X67.402 Y46.062 E8.02488
G1 X67.825 Y46.062 E8.05314
G1 X67.825 Y35.527 E8.75698
G1 X68.248 Y35.527 E8.78525
G1 X68.248 Y46.062 E9.48908
G1 X68.672 Y46.062 E9.51735
G1 X68.672 Y35.527 E10.22119
G1 X69.095 Y35.527 E10.24945
G1 X69.095 Y46.062 E10.95329
G1 X69.518 Y46.062 E10.98156
G1 X69.518 Y35.527 E11.68539
G1 X69.941 Y35.527 E11.71366
G1 X69.941 Y46.062 E12.41750
G1 X70.364 Y46.062 E12.44576
G1 X70.364 Y35.527 E13.14960
G1 X70.787 Y35.527 E13.17787
G1 X70.787 Y46.062 E13.88171
G1 X71.210 Y46.062 E13.90997
G1 X71.210 Y35.527 E14.61381
G1 X71.633 Y35.527 E14.64208
G1 X71.633 Y46.062 E15.34591
G1 X72.056 Y46.062 E15.37418
G1 X72.056 Y35.527 E16.07802
G1 X72.480 Y35.527 E16.10628
G1 X72.480 Y46.062 E16.81012
G1 X72.903 Y46.062 E16.83839
G1 X72.903 Y35.527 E17.54222
G1 X73.326 Y35.527 E17.57049
G1 X73.326 Y46.062 E18.27433
G1 X73.749 Y46.062 E18.30259
G1 X73.749 Y35.527 E19.00643
G1 X74.172 Y35.527 E19.03470
G1 X74.172 Y46.062 E19.73854
G1 X74.595 Y46.062 E19.76680
G1 X74.595 Y35.527 E20.47064
G1 X75.018 Y35.527 E20.49891
G1 X75.018 Y46.062 E21.20274
G1 X75.441 Y46.062 E21.23101
G1 X75.441 Y35.527 E21.93485
G1 X75.864 Y35.527 E21.96311
G1 X75.864 Y46.062 E22.66695
G1 X76.287 Y46.062 E22.69522
G1 X76.287 Y35.527 E23.39906
G1 X76.711 Y35.527 E23.42732
G1 X76.711 Y46.062 E24.13116
G1 X77.134 Y46.062 E24.15942
G1 X77.134 Y35.527 E24.86326
G1 X77.557 Y35.527 E24.89153
G1 X77.557 Y46.062 E25.59537
G1 X77.980 Y46.062 E25.62363
G1 X77.980 Y35.527 E26.32747
G1 X78.403 Y35.527 E26.35574
G1 X78.403 Y46.062 E27.05957
G1 X78.826 Y46.062 E27.08784
G1 X78.826 Y35.527 E27.79168
G1 X79.249 Y35.527 E27.81994
G1 X79.249 Y46.062 E28.52378
G1 X79.672 Y46.062 E28.55205
G1 X79.672 Y35.527 E29.25589
G1 X80.095 Y35.527 E29.28415
G1 X80.095 Y46.062 E29.98799
G1 X80.519 Y46.062 E30.01626
G1 X80.519 Y35.527 E30.72009
G1 X80.942 Y35.527 E30.74836
G1 X80.942 Y46.062 E31.45220
M104 S205 ; set temperature
G1 Z1.600 F15000.000
G1 X80.942 Y45.962 F15000.000
G1 F4800
G1 X80.942 Y35.627 E31.99218
G1 X80.519 Y35.627 E32.01429
G1 X80.519 Y45.962 E32.55427
G1 X80.095 Y45.962 E32.57638
G1 X80.095 Y35.627 E33.11636
G1 X79.672 Y35.627 E33.13847
G1 X79.672 Y45.962 E33.67845
G1 X79.249 Y45.962 E33.70056
G1 X79.249 Y35.627 E34.24054
G1 X78.826 Y35.627 E34.26265
G1 X78.826 Y45.962 E34.80263
G1 X78.403 Y45.962 E34.82474
G1 X78.403 Y35.627 E35.36472
G1 X77.980 Y35.627 E35.38683
G1 X77.980 Y45.962 E35.92681
G1 X77.557 Y45.962 E35.94892
G1 X77.557 Y35.627 E36.48890
G1 X77.134 Y35.627 E36.51101
G1 X77.134 Y45.962 E37.05099
G1 X76.711 Y45.962 E37.07310
G1 X76.711 Y35.627 E37.61308
G1 X76.287 Y35.627 E37.63518
G1 X76.287 Y45.962 E38.17517
G1 X75.864 Y45.962 E38.19727
G1 X75.864 Y35.627 E38.73726
G1 X75.441 Y35.627 E38.75936
G1 X75.441 Y45.962 E39.29935
G1 X75.018 Y45.962 E39.32145
G1 X75.018 Y35.627 E39.86144
G1 X74.595 Y35.627 E39.88354
G1 X74.595 Y45.962 E40.42353
G1 X74.172 Y45.962 E40.44563
G1 X74.172 Y35.627 E40.98562
G1 X73.749 Y35.627 E41.00772
G1 X73.749 Y45.962 E41.54771
G1 X73.326 Y45.962 E41.56981
G1 X73.326 Y35.627 E42.10980
G1 X72.903 Y35.627 E42.13190
G1 X72.903 Y45.962 E42.67189
G1 X72.480 Y45.962 E42.69399
G1 X72.480 Y35.627 E43.23398
G1 X72.056 Y35.627 E43.25608
G1 X72.056 Y45.962 E43.79607
G1 X71.633 Y45.962 E43.81817
G1 X71.633 Y35.627 E44.35816
G1 X71.210 Y35.627 E44.38026
G1 X71.210 Y45.962 E44.92025
G1 X70.787 Y45.962 E44.94235
G1 X70.787 Y35.627 E45.48234
G1 X70.364 Y35.627 E45.50444
G1 X70.364 Y45.962 E46.04443
G1 X69.941 Y45.962 E46.06653
G1 X69.941 Y35.627 E46.60652
G1 X69.518 Y35.627 E46.62862
G1 X69.518 Y45.962 E47.16861
G1 X69.095 Y45.962 E47.19071
G1 X69.095 Y35.627 E47.73070
G1 X68.672 Y35.627 E47.75280
G1 X68.672 Y45.962 E48.29279
G1 X68.248 Y45.962 E48.31489
G1 X68.248 Y35.627 E48.85488
G1 X67.825 Y35.627 E48.87698
G1 X67.825 Y45.962 E49.41697
G1 X67.402 Y45.962 E49.43907
G1 X67.402 Y35.627 E49.97906
G1 X66.979 Y35.627 E50.00116
G1 X66.979 Y45.962 E50.54115
G1 X66.563 Y45.962 E50.56288
G1 X66.563 Y36.381 E51.06344
G1 X66.979 Y36.381 E51.08517
G1 Z1.900 F15000.000
G92 E0
G1 X70.364 Y36.381 F15000.000
G1 F4800
G1 X69.992 Y36.381 E0.01943
G1 X69.992 Y45.962 E0.51999
G1 X70.364 Y45.962 E0.53942
G1 X70.364 Y35.627 E1.07940
G1 X70.787 Y35.627 E1.10151
G1 X70.787 Y45.962 E1.64149
G1 X71.210 Y45.962 E1.66360
G1 X71.210 Y35.627 E2.20358
G1 X71.633 Y35.627 E2.22569
G1 X71.633 Y45.962 E2.76567
G1 X72.056 Y45.962 E2.78778
G1 X72.056 Y35.627 E3.32776
G1 X72.480 Y35.627 E3.34987
G1 X72.480 Y45.962 E3.88985
G1 X72.903 Y45.962 E3.91196
G1 X72.903 Y35.627 E4.45194
G1 X73.326 Y35.627 E4.47405
G1 X73.326 Y45.962 E5.01403
G1 X73.749 Y45.962 E5.03613
G1 X73.749 Y35.627 E5.57612
G1 X74.172 Y35.627 E5.59822
G1 X74.172 Y45.962 E6.13821
G1 X74.595 Y45.962 E6.16031
G1 X74.595 Y35.627 E6.70030
G1 X75.018 Y35.627 E6.72240
G1 X75.018 Y45.962 E7.26239
G1 X75.441 Y45.962 E7.28449
G1 X75.441 Y35.627 E7.82448
G1 X75.864 Y35.627 E7.84658
G1 X75.864 Y45.962 E8.38657
G1 X76.287 Y45.962 E8.40867
G1 X76.287 Y35.627 E8.94866
G1 X76.711 Y35.627 E8.97076
G1 X76.711 Y45.962 E9.51075
G1 X77.134 Y45.962 E9.53285
G1 X77.134 Y35.627 E10.07284
G1 X77.557 Y35.627 E10.09494
G1 X77.557 Y45.962 E10.63493
G1 X77.980 Y45.962 E10.65703
G1 X77.980 Y35.627 E11.19702
G1 X78.403 Y35.627 E11.21912
G1 X78.403 Y45.962 E11.75911
G1 X78.826 Y45.962 E11.78121
G1 X78.826 Y35.627 E12.32120
G1 X79.249 Y35.627 E12.34330
G1 X79.249 Y45.962 E12.88329
G1 X79.672 Y45.962 E12.90539
G1 X79.672 Y35.627 E13.44538
G1 X80.095 Y35.627 E13.46748
G1 X80.095 Y45.962 E14.00747
G1 X80.519 Y45.962 E14.02957
G1 X80.519 Y35.627 E14.56956
G1 X80.942 Y35.627 E14.59166
G1 X80.942 Y45.962 E15.13165
M106 S255
G1 Z2.200 F15000.000
G1 F4800
G1 X80.942 Y35.627 E15.67163
G1 X80.519 Y35.627 E15.69374
G1 X80.519 Y45.962 E16.23372
G1 X80.095 Y45.962 E16.25583
G1 X80.095 Y35.627 E16.79581
G1 X79.672 Y35.627 E16.81792
G1 X79.672 Y45.962 E17.35790
G1 X79.249 Y45.962 E17.38001
G1 X79.249 Y35.627 E17.91999
G1 X78.826 Y35.627 E17.94210
G1 X78.826 Y45.962 E18.48208
G1 X78.403 Y45.962 E18.50419
G1 X78.403 Y35.627 E19.04417
G1 X77.980 Y35.627 E19.06628
G1 X77.980 Y45.962 E19.60626
G1 X77.557 Y45.962 E19.62837
G1 X77.557 Y35.627 E20.16835
G1 X77.134 Y35.627 E20.19046
G1 X77.134 Y45.962 E20.73044
G1 X76.711 Y45.962 E20.75255
G1 X76.711 Y35.627 E21.29253
G1 X76.287 Y35.627 E21.31463
G1 X76.287 Y45.962 E21.85462
G1 X75.864 Y45.962 E21.87672
G1 X75.864 Y35.627 E22.41671
G1 X75.441 Y35.627 E22.43881
G1 X75.441 Y45.962 E22.97880
G1 X75.018 Y45.962 E23.00090
G1 X75.018 Y35.627 E23.54089
G1 X74.595 Y35.627 E23.56299
G1 X74.595 Y45.962 E24.10298
G1 X74.172 Y45.962 E24.12508
G1 X74.172 Y35.627 E24.66507
G1 X73.749 Y35.627 E24.68717
G1 X73.749 Y45.962 E25.22716
G1 X73.421 Y45.962 E25.24428
G1 X73.421 Y36.381 E25.74484
G1 X73.749 Y36.381 E25.76196
G1 Z2.500 F15000.000
G92 E0
G1 X77.134 Y36.381 F15000.000
G1 F4800
G1 X76.850 Y36.381 E0.01481
G1 X76.850 Y45.962 E0.51538
G1 X77.134 Y45.962 E0.53019
G1 X77.134 Y35.627 E1.07018
G1 X77.557 Y35.627 E1.09228
G1 X77.557 Y45.962 E1.63227
G1 X77.980 Y45.962 E1.65437
G1 X77.980 Y35.627 E2.19436
G1 X78.403 Y35.627 E2.21646
G1 X78.403 Y45.962 E2.75645
G1 X78.826 Y45.962 E2.77855
G1 X78.826 Y35.627 E3.31854
G1 X79.249 Y35.627 E3.34064
G1 X79.249 Y45.962 E3.88063
G1 X79.672 Y45.962 E3.90273
G1 X79.672 Y35.627 E4.44272
G1 X80.095 Y35.627 E4.46482
G1 X80.095 Y45.962 E5.00481
G1 X80.519 Y45.962 E5.02691
G1 X80.519 Y35.627 E5.56690
G1 X80.942 Y35.627 E5.58900
G1 X80.942 Y45.962 E6.12899
G1 Z2.800 F15000.000
G1 F4800
G1 X80.942 Y35.627 E6.66897
G1 X80.519 Y35.627 E6.69108
G1 X80.519 Y45.962 E7.23106
G1 X80.279 Y45.962 E7.24357
G1 X80.279 Y36.381 E7.74413
G1 X80.519 Y36.381 E7.75664
G92 E0
M107
; Filament-specific end gcode 
;END gcode for filament

G92 E0
G1 E-15 F9000
M104 S0 T0 ; turn off temperature
M140 S0 ; turn off bed
G1 X320 Y290 F10000 ; lower bed
M84 ; disable motors
; filament used = 84.6mm (0.2cm3)
; total filament cost = 0.0

; avoid_crossing_perimeters = 0
; bed_shape = 0x0,300x0,300x300,0x300
; bed_temperature = 55
; before_layer_gcode = 
; between_objects_gcode = 
; bridge_acceleration = 0
; bridge_fan_speed = 100
; brim_connections_width = 0
; brim_width = 0
; complete_objects = 0
; cooling = 0
; default_acceleration = 0
; disable_fan_first_layers = 3
; duplicate_distance = 6
; end_filament_gcode = "; Filament-specific end gcode \n;END gcode for filament\n"
; end_gcode = G92 E0\nG1 E-15 F9000\nM104 S0 T0 ; turn off temperature\nM140 S0 ; turn off bed\nG1 X320 Y290 F10000 ; lower bed\nM84 ; disable motors
; extruder_clearance_height = 20
; extruder_clearance_radius = 20
; extruder_offset = 0x0
; extrusion_axis = E
; extrusion_multiplier = 1
; fan_always_on = 1
; fan_below_layer_time = 60
; filament_colour = #FFFFFF
; filament_cost = 0
; filament_density = 0
; filament_diameter = 1.75
; filament_max_volumetric_speed = 0
; filament_notes = ""
; first_layer_acceleration = 0
; first_layer_bed_temperature = 80
; first_layer_extrusion_width = 200%
; first_layer_speed = 60
; first_layer_temperature = 230
; gcode_arcs = 0
; gcode_comments = 0
; gcode_flavor = reprap
; has_heatbed = 0
; infill_acceleration = 0
; infill_first = 0
; interior_brim_width = 0
; label_printed_objects = 0
; layer_gcode = 
; max_fan_speed = 100
; max_layer_height = 0.4
; max_print_speed = 200
; max_volumetric_speed = 0
; min_fan_speed = 100
; min_layer_height = 0.15
; min_print_speed = 10
; min_skirt_length = 0
; notes = 
; nozzle_diameter = 0.4
; only_retract_when_crossing_perimeters = 0
; ooze_prevention = 0
; output_filename_format = [input_filename_base].gcode
; perimeter_acceleration = 0
; post_process = 
; pressure_advance = 0
; printer_notes = 
; resolution = 0
; retract_before_travel = 2
; retract_layer_change = 0
; retract_length = 0
; retract_length_toolchange = 10
; retract_lift = 1
; retract_lift_above = 0
; retract_lift_below = 0
; retract_restart_extra = 0
; retract_restart_extra_toolchange = 0
; retract_speed = 40
; skirt_distance = 3
; skirt_height = 1
; skirts = 0
; slowdown_below_layer_time = 7
; spiral_vase = 0
; standby_temperature_delta = 0
; start_filament_gcode = "; Filament gcode\n"
; start_gcode = G28 ; home all axes\nG1 X150 Y150 Z50 F10000
; temperature = 205
; threads = 4
; toolchange_gcode = 
; travel_speed = 250
; use_firmware_retraction = 0
; use_relative_e_distances = 0
; use_set_and_wait_bed = 0
; use_set_and_wait_extruder = 0
; use_volumetric_e = 0
; vibration_limit = 0
; wipe = 0
; z_offset = 1
; z_steps_per_mm = 0
; adaptive_slicing = 0
; adaptive_slicing_quality = 75%
; dont_support_bridges = 1
; extrusion_width = 0
; first_layer_height = 0.3
; infill_only_where_needed = 0
; interface_shells = 0
; layer_height = 0.3
; match_horizontal_surfaces = 0
; raft_layers = 0
; regions_overlap = 0
; seam_position = aligned
; sequential_print_priority = 0
; support_material = 0
; support_material_angle = 0
; support_material_buildplate_only = 0
; support_material_contact_distance = 0.2
; support_material_enforce_layers = 0
; support_material_extruder = 1
; support_material_extrusion_width = 0
; support_material_interface_extruder = 1
; support_material_interface_extrusion_width = 0
; support_material_interface_layers = 3
; support_material_interface_spacing = 0
; support_material_interface_speed = 100%
; support_material_max_layers = 0
; support_material_pattern = pillars
; support_material_pillar_size = 2.5
; support_material_pillar_spacing = 10
; support_material_spacing = 2.5
; support_material_speed = 80
; support_material_threshold = 30
; xy_size_compensation = 0
; bottom_infill_pattern = rectilinear
; bottom_solid_layers = 0
; bridge_flow_ratio = 1
; bridge_speed = 60
; external_perimeter_extrusion_width = 0
; external_perimeter_speed = 45%
; external_perimeters_first = 0
; extra_perimeters = 1
; fill_angle = 90
; fill_density = 99%
; fill_gaps = 1
; fill_pattern = alignedrectilinear
; gap_fill_speed = 20
; infill_every_layers = 1
; infill_extruder = 1
; infill_extrusion_width = 0
; infill_overlap = 100%
; infill_speed = 80
; min_shell_thickness = 0
; min_top_bottom_shell_thickness = 0
; overhangs = 1
; perimeter_extruder = 1
; perimeter_extrusion_width = 0.4
; perimeter_speed = 60
; perimeters = 0
; small_perimeter_speed = 30%
; solid_infill_below_area = 0
; solid_infill_every_layers = 0
; solid_infill_extruder = 1
; solid_infill_extrusion_width = 0
; solid_infill_speed = 30%
; thin_walls = 1
; top_infill_extrusion_width = 150%
; top_infill_pattern = rectilinear
; top_solid_infill_speed = 80%
; top_solid_layers = 0

