; generated by Slic3r 1.3.1-dev on 2019-07-17 at 11:23:13

; external perimeters extrusion width = 0.44mm (1.65mm^3/s)
; perimeters extrusion width = 0.40mm (3.31mm^3/s)
; infill extrusion width = 0.50mm (5.61mm^3/s)
; solid infill extrusion width = 0.56mm (1.90mm^3/s)
; top infill extrusion width = 0.23mm (0.56mm^3/s)

M104 S230 ; set temperature
G28 ; home all axes
G1 X150 Y150 Z50 F10000
; Filament gcode
; layer 1
M109 S230 ; set temperature and wait for it to be reached
G21 ; set units to millimeters
G90 ; use absolute coordinates
M82 ; use absolute distances for extrusion
G92 E0
G92 E0
G1 Z1.300 F15000.000
G1 X63.171 Y35.527 F15000.000
G1 F3600
G1 X63.171 Y46.062 E0.70384
G1 X63.594 Y46.062 E0.73210
G1 X63.594 Y35.527 E1.43594
G1 X64.017 Y35.527 E1.46421
G1 X64.017 Y46.062 E2.16805
G1 X64.440 Y46.062 E2.19631
G1 X64.440 Y35.527 E2.90015
G1 X64.864 Y35.527 E2.92842
G1 X64.864 Y46.062 E3.63225
G1 X65.287 Y46.062 E3.66052
G1 X65.287 Y35.527 E4.36436
G1 X65.710 Y35.527 E4.39262
G1 X65.710 Y46.062 E5.09646
G1 X66.133 Y46.062 E5.12473
G1 X66.133 Y35.527 E5.82856
G1 X66.556 Y35.527 E5.85683
G1 X66.556 Y46.062 E6.56067
G1 X66.979 Y46.062 E6.58893
G1 X66.979 Y35.527 E7.29277
G1 X67.402 Y35.527 E7.32104
G1 X67.402 Y46.062 E8.02488
G1 X67.825 Y46.062 E8.05314
G1 X67.825 Y35.527 E8.75698
G1 X68.248 Y35.527 E8.78525
G1 X68.248 Y46.062 E9.48908
G1 X68.672 Y46.062 E9.51735
G1 X68.672 Y35.527 E10.22119
G1 X69.095 Y35.527 E10.24945
G1 X69.095 Y46.062 E10.95329
G1 X69.518 Y46.062 E10.98156
G1 X69.518 Y35.527 E11.68539
G1 X69.941 Y35.527 E11.71366
G1 X69.941 Y46.062 E12.41750
G1 X70.364 Y46.062 E12.44576
G1 X70.364 Y35.527 E13.14960
G1 X70.787 Y35.527 E13.17787
G1 X70.787 Y46.062 E13.88171
G1 X71.210 Y46.062 E13.90997
G1 X71.210 Y35.527 E14.61381
G1 X71.633 Y35.527 E14.64208
G1 X71.633 Y46.062 E15.34591
G1 X72.056 Y46.062 E15.37418
G1 X72.056 Y35.527 E16.07802
G1 X72.480 Y35.527 E16.10628
G1 X72.480 Y46.062 E16.81012
G1 X72.903 Y46.062 E16.83839
G1 X72.903 Y35.527 E17.54222
G1 X73.326 Y35.527 E17.57049
G1 X73.326 Y46.062 E18.27433
G1 X73.749 Y46.062 E18.30259
G1 X73.749 Y35.527 E19.00643
G1 X74.172 Y35.527 E19.03470
G1 X74.172 Y46.062 E19.73854
G1 X74.595 Y46.062 E19.76680
G1 X74.595 Y35.527 E20.47064
G1 X75.018 Y35.527 E20.49891
G1 X75.018 Y46.062 E21.20274
G1 X75.441 Y46.062 E21.23101
G1 X75.441 Y35.527 E21.93485
G1 X75.864 Y35.527 E21.96311
G1 X75.864 Y46.062 E22.66695
G1 X76.287 Y46.062 E22.69522
G1 X76.287 Y35.527 E23.39906
G1 X76.711 Y35.527 E23.42732
G1 X76.711 Y46.062 E24.13116
G1 X77.134 Y46.062 E24.15942
G1 X77.134 Y35.527 E24.86326
G1 X77.557 Y35.527 E24.89153
G1 X77.557 Y46.062 E25.59537
G1 X77.980 Y46.062 E25.62363
G1 X77.980 Y35.527 E26.32747
G1 X78.403 Y35.527 E26.35574
G1 X78.403 Y46.062 E27.05957
G1 X78.826 Y46.062 E27.08784
G1 X78.826 Y35.527 E27.79168
G1 X79.249 Y35.527 E27.81994
G1 X79.249 Y46.062 E28.52378
G1 X79.672 Y46.062 E28.55205
G1 X79.672 Y35.527 E29.25589
G1 X80.095 Y35.527 E29.28415
G1 X80.095 Y46.062 E29.98799
G1 X80.519 Y46.062 E30.01626
G1 X80.519 Y35.527 E30.72009
G1 X80.942 Y35.527 E30.74836
G1 X80.942 Y46.062 E31.45220
M104 S205 ; set temperature
G1 Z1.450 F15000.000
G1 X80.661 Y45.978 F15000.000
G1 F4800
G1 X80.661 Y35.610 E31.75467
G1 X80.188 Y35.610 E31.76845
G1 X80.188 Y45.978 E32.07092
G1 X79.716 Y45.978 E32.08471
G1 X79.716 Y35.610 E32.38718
G1 X79.243 Y35.610 E32.40096
G1 X79.243 Y45.978 E32.70343
G1 X78.771 Y45.978 E32.71722
G1 X78.771 Y35.610 E33.01969
G1 X78.298 Y35.610 E33.03348
G1 X78.298 Y45.978 E33.33595
G1 X77.826 Y45.978 E33.34973
G1 X77.826 Y35.610 E33.65220
G1 X77.353 Y35.610 E33.66599
G1 X77.353 Y45.978 E33.96846
G1 X76.881 Y45.978 E33.98224
G1 X76.881 Y35.610 E34.28471
G1 X76.408 Y35.610 E34.29850
G1 X76.408 Y45.978 E34.60097
G1 X75.936 Y45.978 E34.61475
G1 X75.936 Y35.610 E34.91722
G1 X75.463 Y35.610 E34.93101
G1 X75.463 Y45.978 E35.23348
G1 X74.990 Y45.978 E35.24727
G1 X74.990 Y35.610 E35.54974
G1 X74.518 Y35.610 E35.56352
G1 X74.518 Y45.978 E35.86599
G1 X74.045 Y45.978 E35.87978
G1 X74.045 Y35.610 E36.18225
G1 X73.573 Y35.610 E36.19603
G1 X73.573 Y45.978 E36.49850
G1 X73.100 Y45.978 E36.51229
G1 X73.100 Y35.610 E36.81476
G1 X72.628 Y35.610 E36.82854
G1 X72.628 Y45.978 E37.13101
G1 X72.155 Y45.978 E37.14480
G1 X72.155 Y35.610 E37.44727
G1 X71.683 Y35.610 E37.46106
G1 X71.683 Y45.978 E37.76353
G1 X71.210 Y45.978 E37.77731
G1 X71.210 Y35.610 E38.07978
G1 X70.738 Y35.610 E38.09357
G1 X70.738 Y45.978 E38.39604
G1 X70.265 Y45.978 E38.40982
G1 X70.265 Y35.610 E38.71229
G1 X69.793 Y35.610 E38.72608
G1 X69.793 Y45.978 E39.02855
G1 X69.320 Y45.978 E39.04233
G1 X69.320 Y35.610 E39.34480
G1 X68.848 Y35.610 E39.35859
G1 X68.848 Y45.978 E39.66106
G1 X68.375 Y45.978 E39.67485
G1 X68.375 Y35.610 E39.97732
G1 X67.902 Y35.610 E39.99110
G1 X67.902 Y45.978 E40.29357
G1 X67.430 Y45.978 E40.30736
G1 X67.430 Y35.610 E40.60983
G1 X66.957 Y35.610 E40.62361
G1 X66.957 Y45.978 E40.92608
G1 X66.485 Y45.978 E40.93987
G1 X66.485 Y35.610 E41.24234
G1 X66.012 Y35.610 E41.25612
G1 X66.012 Y45.978 E41.55859
G1 X65.730 Y45.978 E41.56682
G1 X65.730 Y36.446 E41.84491
G1 X66.012 Y36.446 E41.85314
G1 Z1.600 F15000.000
G1 X67.902 Y36.446 F15000.000
G1 F4800
G1 X67.445 Y36.446 E41.86649
G1 X67.445 Y45.978 E42.14458
G1 X67.902 Y45.978 E42.15793
G1 X67.902 Y35.610 E42.46040
G1 X68.375 Y35.610 E42.47419
G1 X68.375 Y45.978 E42.77666
G1 X68.848 Y45.978 E42.79044
G1 X68.848 Y35.610 E43.09291
G1 X69.320 Y35.610 E43.10670
G1 X69.320 Y45.978 E43.40917
G1 X69.793 Y45.978 E43.42295
G1 X69.793 Y35.610 E43.72542
G1 X70.265 Y35.610 E43.73921
G1 X70.265 Y45.978 E44.04168
G1 X70.738 Y45.978 E44.05546
G1 X70.738 Y35.610 E44.35793
G1 X71.210 Y35.610 E44.37172
G1 X71.210 Y45.978 E44.67419
G1 X71.683 Y45.978 E44.68798
G1 X71.683 Y35.610 E44.99045
G1 X72.155 Y35.610 E45.00423
G1 X72.155 Y45.978 E45.30670
G1 X72.628 Y45.978 E45.32049
G1 X72.628 Y35.610 E45.62296
G1 X73.100 Y35.610 E45.63674
G1 X73.100 Y45.978 E45.93921
G1 X73.573 Y45.978 E45.95300
G1 X73.573 Y35.610 E46.25547
G1 X74.045 Y35.610 E46.26925
G1 X74.045 Y45.978 E46.57172
G1 X74.518 Y45.978 E46.58551
G1 X74.518 Y35.610 E46.88798
G1 X74.990 Y35.610 E46.90177
G1 X74.990 Y45.978 E47.20424
G1 X75.463 Y45.978 E47.21802
G1 X75.463 Y35.610 E47.52049
G1 X75.936 Y35.610 E47.53428
G1 X75.936 Y45.978 E47.83675
G1 X76.408 Y45.978 E47.85053
G1 X76.408 Y35.610 E48.15300
G1 X76.881 Y35.610 E48.16679
G1 X76.881 Y45.978 E48.46926
G1 X77.353 Y45.978 E48.48304
G1 X77.353 Y35.610 E48.78551
G1 X77.826 Y35.610 E48.79930
G1 X77.826 Y45.978 E49.10177
G1 X78.298 Y45.978 E49.11556
G1 X78.298 Y35.610 E49.41803
G1 X78.771 Y35.610 E49.43181
G1 X78.771 Y45.978 E49.73428
G1 X79.243 Y45.978 E49.74807
G1 X79.243 Y35.610 E50.05054
G1 X79.716 Y35.610 E50.06432
G1 X79.716 Y45.978 E50.36679
G1 X80.188 Y45.978 E50.38058
G1 X80.188 Y35.610 E50.68305
G1 X80.661 Y35.610 E50.69683
G1 X80.661 Y45.978 E50.99930
M106 S255
G1 Z1.750 F15000.000
G1 F4800
G1 X80.661 Y35.610 E51.30177
G1 X80.188 Y35.610 E51.31556
G1 X80.188 Y45.978 E51.61803
G1 X79.716 Y45.978 E51.63182
G1 X79.716 Y35.610 E51.93429
G1 X79.243 Y35.610 E51.94807
G1 X79.243 Y45.978 E52.25054
G1 X78.771 Y45.978 E52.26433
G1 X78.771 Y35.610 E52.56680
G1 X78.298 Y35.610 E52.58058
G1 X78.298 Y45.978 E52.88305
G1 X77.826 Y45.978 E52.89684
G1 X77.826 Y35.610 E53.19931
G1 X77.353 Y35.610 E53.21309
G1 X77.353 Y45.978 E53.51556
G1 X76.881 Y45.978 E53.52935
G1 X76.881 Y35.610 E53.83182
G1 X76.408 Y35.610 E53.84561
G1 X76.408 Y45.978 E54.14808
G1 X75.936 Y45.978 E54.16186
G1 X75.936 Y35.610 E54.46433
G1 X75.463 Y35.610 E54.47812
G1 X75.463 Y45.978 E54.78059
G1 X74.990 Y45.978 E54.79437
G1 X74.990 Y35.610 E55.09684
G1 X74.518 Y35.610 E55.11063
G1 X74.518 Y45.978 E55.41310
G1 X74.045 Y45.978 E55.42688
G1 X74.045 Y35.610 E55.72935
G1 X73.573 Y35.610 E55.74314
G1 X73.573 Y45.978 E56.04561
G1 X73.100 Y45.978 E56.05940
G1 X73.100 Y35.610 E56.36187
G1 X72.628 Y35.610 E56.37565
G1 X72.628 Y45.978 E56.67812
G1 X72.155 Y45.978 E56.69191
G1 X72.155 Y35.610 E56.99438
G1 X71.683 Y35.610 E57.00816
G1 X71.683 Y45.978 E57.31063
G1 X71.210 Y45.978 E57.32442
G1 X71.210 Y35.610 E57.62689
G1 X70.738 Y35.610 E57.64067
G1 X70.738 Y45.978 E57.94314
G1 X70.265 Y45.978 E57.95693
G1 X70.265 Y35.610 E58.25940
G1 X69.793 Y35.610 E58.27319
G1 X69.793 Y45.978 E58.57566
G1 X69.320 Y45.978 E58.58944
G1 X69.320 Y35.610 E58.89191
G1 Z1.900 F15000.000
G1 X71.210 Y35.610 F15000.000
G1 F4800
G1 X71.210 Y45.978 E59.19438
G1 X71.683 Y45.978 E59.20817
G1 X71.683 Y35.610 E59.51064
G1 X72.155 Y35.610 E59.52442
G1 X72.155 Y45.978 E59.82689
G1 X72.628 Y45.978 E59.84068
G1 X72.628 Y35.610 E60.14315
G1 X73.100 Y35.610 E60.15693
G1 X73.100 Y45.978 E60.45940
G1 X73.573 Y45.978 E60.47319
G1 X73.573 Y35.610 E60.77566
G1 X74.045 Y35.610 E60.78945
G1 X74.045 Y45.978 E61.09192
G1 X74.518 Y45.978 E61.10570
G1 X74.518 Y35.610 E61.40817
G1 X74.990 Y35.610 E61.42196
G1 X74.990 Y45.978 E61.72443
G1 X75.463 Y45.978 E61.73821
G1 X75.463 Y35.610 E62.04068
G1 X75.936 Y35.610 E62.05447
G1 X75.936 Y45.978 E62.35694
G1 X76.408 Y45.978 E62.37072
G1 X76.408 Y35.610 E62.67320
G1 X76.881 Y35.610 E62.68698
G1 X76.881 Y45.978 E62.98945
G1 X77.353 Y45.978 E63.00324
G1 X77.353 Y35.610 E63.30571
G1 X77.826 Y35.610 E63.31949
G1 X77.826 Y45.978 E63.62196
G1 X78.298 Y45.978 E63.63575
G1 X78.298 Y35.610 E63.93822
G1 X78.771 Y35.610 E63.95200
G1 X78.771 Y45.978 E64.25447
G1 X79.243 Y45.978 E64.26826
G1 X79.243 Y35.610 E64.57073
G1 X79.716 Y35.610 E64.58452
G1 X79.716 Y45.978 E64.88699
G1 X80.188 Y45.978 E64.90077
G1 X80.188 Y35.610 E65.20324
G1 X80.661 Y35.610 E65.21703
G1 X80.661 Y45.978 E65.51950
G1 Z2.050 F15000.000
G1 F4800
G1 X80.661 Y35.610 E65.82197
G1 X80.188 Y35.610 E65.83575
G1 X80.188 Y45.978 E66.13822
G1 X79.716 Y45.978 E66.15201
G1 X79.716 Y35.610 E66.45448
G1 X79.243 Y35.610 E66.46826
G1 X79.243 Y45.978 E66.77073
G1 X78.771 Y45.978 E66.78452
G1 X78.771 Y35.610 E67.08699
G1 X78.298 Y35.610 E67.10078
G1 X78.298 Y45.978 E67.40325
G1 X77.826 Y45.978 E67.41703
G1 X77.826 Y35.610 E67.71950
G1 X77.353 Y35.610 E67.73329
G1 X77.353 Y45.978 E68.03576
G1 X76.881 Y45.978 E68.04954
G1 X76.881 Y35.610 E68.35201
G1 X76.408 Y35.610 E68.36580
G1 X76.408 Y45.978 E68.66827
G1 X75.936 Y45.978 E68.68205
G1 X75.936 Y35.610 E68.98452
G1 X75.463 Y35.610 E68.99831
G1 X75.463 Y45.978 E69.30078
G1 X74.990 Y45.978 E69.31457
G1 X74.990 Y35.610 E69.61704
G1 X74.518 Y35.610 E69.63082
G1 X74.518 Y45.978 E69.93329
G1 X74.045 Y45.978 E69.94708
G1 X74.045 Y35.610 E70.24955
G1 X73.573 Y35.610 E70.26333
G1 X73.573 Y45.978 E70.56580
G1 X73.100 Y45.978 E70.57959
G1 X73.100 Y35.610 E70.88206
G1 X72.628 Y35.610 E70.89584
G1 X72.628 Y45.978 E71.19831
G1 X72.588 Y45.978 E71.19946
G1 X72.588 Y36.446 E71.47756
G1 X72.628 Y36.446 E71.47871
G1 Z2.200 F15000.000
G1 X74.518 Y36.446 F15000.000
G1 F4800
G1 X74.303 Y36.446 E71.48498
G1 X74.303 Y45.978 E71.76307
G1 X74.518 Y45.978 E71.76934
G1 X74.518 Y35.610 E72.07181
G1 X74.990 Y35.610 E72.08560
G1 X74.990 Y45.978 E72.38807
G1 X75.463 Y45.978 E72.40186
G1 X75.463 Y35.610 E72.70433
G1 X75.936 Y35.610 E72.71811
G1 X75.936 Y45.978 E73.02058
G1 X76.408 Y45.978 E73.03437
G1 X76.408 Y35.610 E73.33684
G1 X76.881 Y35.610 E73.35062
G1 X76.881 Y45.978 E73.65309
G1 X77.353 Y45.978 E73.66688
G1 X77.353 Y35.610 E73.96935
G1 X77.826 Y35.610 E73.98313
G1 X77.826 Y45.978 E74.28560
G1 X78.298 Y45.978 E74.29939
G1 X78.298 Y35.610 E74.60186
G1 X78.771 Y35.610 E74.61565
G1 X78.771 Y45.978 E74.91812
G1 X79.243 Y45.978 E74.93190
G1 X79.243 Y35.610 E75.23437
G1 X79.716 Y35.610 E75.24816
G1 X79.716 Y45.978 E75.55063
G1 X80.188 Y45.978 E75.56441
G1 X80.188 Y35.610 E75.86688
G1 X80.661 Y35.610 E75.88067
G1 X80.661 Y45.978 E76.18314
G1 Z2.350 F15000.000
G1 F4800
G1 X80.661 Y35.610 E76.48561
G1 X80.188 Y35.610 E76.49939
G1 X80.188 Y45.978 E76.80186
G1 X79.716 Y45.978 E76.81565
G1 X79.716 Y35.610 E77.11812
G1 X79.243 Y35.610 E77.13191
G1 X79.243 Y45.978 E77.43438
G1 X78.771 Y45.978 E77.44816
G1 X78.771 Y35.610 E77.75063
G1 X78.298 Y35.610 E77.76442
G1 X78.298 Y45.978 E78.06689
G1 X77.826 Y45.978 E78.08067
G1 X77.826 Y35.610 E78.38314
G1 X77.353 Y35.610 E78.39693
G1 X77.353 Y45.978 E78.69940
G1 X76.881 Y45.978 E78.71318
G1 X76.881 Y35.610 E79.01565
G1 X76.408 Y35.610 E79.02944
G1 X76.408 Y45.978 E79.33191
G1 X76.017 Y45.978 E79.34331
G1 X76.017 Y36.446 E79.62140
G1 X76.408 Y36.446 E79.63280
G1 Z2.500 F15000.000
G1 X77.826 Y35.610 F15000.000
G1 F4800
G1 X77.826 Y45.978 E79.93527
G1 X78.298 Y45.978 E79.94905
G1 X78.298 Y35.610 E80.25152
G1 X78.771 Y35.610 E80.26531
G1 X78.771 Y45.978 E80.56778
G1 X79.243 Y45.978 E80.58156
G1 X79.243 Y35.610 E80.88403
G1 X79.716 Y35.610 E80.89782
G1 X79.716 Y45.978 E81.20029
G1 X80.188 Y45.978 E81.21407
G1 X80.188 Y35.610 E81.51654
G1 X80.661 Y35.610 E81.53033
G1 X80.661 Y45.978 E81.83280
G1 Z2.650 F15000.000
G1 F4800
G1 X80.661 Y35.610 E82.13527
G1 X80.188 Y35.610 E82.14906
G1 X80.188 Y45.978 E82.45153
G1 X79.716 Y45.978 E82.46531
G1 X79.716 Y35.610 E82.76778
G1 Z2.800 F15000.000
G92 E0
M107
; Filament-specific end gcode 
;END gcode for filament

G92 E0
G1 E-15 F9000
M104 S0 T0 ; turn off temperature
M140 S0 ; turn off bed
G1 X320 Y290 F10000 ; lower bed
M84 ; disable motors
; filament used = 82.8mm (0.2cm3)
; total filament cost = 0.0

; avoid_crossing_perimeters = 0
; bed_shape = 0x0,300x0,300x300,0x300
; bed_temperature = 55
; before_layer_gcode = 
; between_objects_gcode = 
; bridge_acceleration = 0
; bridge_fan_speed = 100
; brim_connections_width = 0
; brim_width = 0
; complete_objects = 0
; cooling = 0
; default_acceleration = 0
; disable_fan_first_layers = 3
; duplicate_distance = 6
; end_filament_gcode = "; Filament-specific end gcode \n;END gcode for filament\n"
; end_gcode = G92 E0\nG1 E-15 F9000\nM104 S0 T0 ; turn off temperature\nM140 S0 ; turn off bed\nG1 X320 Y290 F10000 ; lower bed\nM84 ; disable motors
; extruder_clearance_height = 20
; extruder_clearance_radius = 20
; extruder_offset = 0x0
; extrusion_axis = E
; extrusion_multiplier = 1
; fan_always_on = 1
; fan_below_layer_time = 60
; filament_colour = #FFFFFF
; filament_cost = 0
; filament_density = 0
; filament_diameter = 1.75
; filament_max_volumetric_speed = 0
; filament_notes = ""
; first_layer_acceleration = 0
; first_layer_bed_temperature = 80
; first_layer_extrusion_width = 200%
; first_layer_speed = 60
; first_layer_temperature = 230
; gcode_arcs = 0
; gcode_comments = 0
; gcode_flavor = reprap
; has_heatbed = 0
; infill_acceleration = 0
; infill_first = 0
; interior_brim_width = 0
; label_printed_objects = 0
; layer_gcode = 
; max_fan_speed = 100
; max_layer_height = 0.4
; max_print_speed = 200
; max_volumetric_speed = 0
; min_fan_speed = 100
; min_layer_height = 0.15
; min_print_speed = 10
; min_skirt_length = 0
; notes = 
; nozzle_diameter = 0.4
; only_retract_when_crossing_perimeters = 0
; ooze_prevention = 0
; output_filename_format = [input_filename_base].gcode
; perimeter_acceleration = 0
; post_process = 
; pressure_advance = 0
; printer_notes = 
; resolution = 0
; retract_before_travel = 2
; retract_layer_change = 0
; retract_length = 0
; retract_length_toolchange = 10
; retract_lift = 1
; retract_lift_above = 0
; retract_lift_below = 0
; retract_restart_extra = 0
; retract_restart_extra_toolchange = 0
; retract_speed = 40
; skirt_distance = 3
; skirt_height = 1
; skirts = 0
; slowdown_below_layer_time = 7
; spiral_vase = 0
; standby_temperature_delta = 0
; start_filament_gcode = "; Filament gcode\n"
; start_gcode = G28 ; home all axes\nG1 X150 Y150 Z50 F10000
; temperature = 205
; threads = 4
; toolchange_gcode = 
; travel_speed = 250
; use_firmware_retraction = 0
; use_relative_e_distances = 0
; use_set_and_wait_bed = 0
; use_set_and_wait_extruder = 0
; use_volumetric_e = 0
; vibration_limit = 0
; wipe = 0
; z_offset = 1
; z_steps_per_mm = 0
; adaptive_slicing = 0
; adaptive_slicing_quality = 75%
; dont_support_bridges = 1
; extrusion_width = 0
; first_layer_height = 0.3
; infill_only_where_needed = 0
; interface_shells = 0
; layer_height = 0.15
; match_horizontal_surfaces = 0
; raft_layers = 0
; regions_overlap = 0
