; generated by Slic3r 1.3.1-dev on 2019-07-17 at 11:49:26

; external perimeters extrusion width = 0.44mm (1.13mm^3/s)
; perimeters extrusion width = 0.40mm (2.27mm^3/s)
; infill extrusion width = 0.50mm (3.83mm^3/s)
; solid infill extrusion width = 0.56mm (1.29mm^3/s)
; top infill extrusion width = 0.15mm (0.25mm^3/s)

M104 S230 ; set temperature
G28 ; home all axes
G1 X150 Y150 Z50 F10000
; Filament gcode
; layer 1
M109 S230 ; set temperature and wait for it to be reached
G21 ; set units to millimeters
G90 ; use absolute coordinates
M82 ; use absolute distances for extrusion
G92 E0
G92 E0
G1 Z1.300 F15000.000
G1 X63.171 Y35.527 F15000.000
G1 F3600
G1 X63.171 Y46.062 E0.70384
G1 X63.594 Y46.062 E0.73210
G1 X63.594 Y35.527 E1.43594
G1 X64.017 Y35.527 E1.46421
G1 X64.017 Y46.062 E2.16805
G1 X64.440 Y46.062 E2.19631
G1 X64.440 Y35.527 E2.90015
G1 X64.864 Y35.527 E2.92842
G1 X64.864 Y46.062 E3.63225
G1 X65.287 Y46.062 E3.66052
G1 X65.287 Y35.527 E4.36436
G1 X65.710 Y35.527 E4.39262
G1 X65.710 Y46.062 E5.09646
G1 X66.133 Y46.062 E5.12473
G1 X66.133 Y35.527 E5.82856
G1 X66.556 Y35.527 E5.85683
G1 X66.556 Y46.062 E6.56067
G1 X66.979 Y46.062 E6.58893
G1 X66.979 Y35.527 E7.29277
G1 X67.402 Y35.527 E7.32104
G1 X67.402 Y46.062 E8.02488
G1 X67.825 Y46.062 E8.05314
G1 X67.825 Y35.527 E8.75698
G1 X68.248 Y35.527 E8.78525
G1 X68.248 Y46.062 E9.48908
G1 X68.672 Y46.062 E9.51735
G1 X68.672 Y35.527 E10.22119
G1 X69.095 Y35.527 E10.24945
G1 X69.095 Y46.062 E10.95329
G1 X69.518 Y46.062 E10.98156
G1 X69.518 Y35.527 E11.68539
G1 X69.941 Y35.527 E11.71366
G1 X69.941 Y46.062 E12.41750
G1 X70.364 Y46.062 E12.44576
G1 X70.364 Y35.527 E13.14960
G1 X70.787 Y35.527 E13.17787
G1 X70.787 Y46.062 E13.88171
G1 X71.210 Y46.062 E13.90997
G1 X71.210 Y35.527 E14.61381
G1 X71.633 Y35.527 E14.64208
G1 X71.633 Y46.062 E15.34591
G1 X72.056 Y46.062 E15.37418
G1 X72.056 Y35.527 E16.07802
G1 X72.480 Y35.527 E16.10628
G1 X72.480 Y46.062 E16.81012
G1 X72.903 Y46.062 E16.83839
G1 X72.903 Y35.527 E17.54222
G1 X73.326 Y35.527 E17.57049
G1 X73.326 Y46.062 E18.27433
G1 X73.749 Y46.062 E18.30259
G1 X73.749 Y35.527 E19.00643
G1 X74.172 Y35.527 E19.03470
G1 X74.172 Y46.062 E19.73854
G1 X74.595 Y46.062 E19.76680
G1 X74.595 Y35.527 E20.47064
G1 X75.018 Y35.527 E20.49891
G1 X75.018 Y46.062 E21.20274
G1 X75.441 Y46.062 E21.23101
G1 X75.441 Y35.527 E21.93485
G1 X75.864 Y35.527 E21.96311
G1 X75.864 Y46.062 E22.66695
G1 X76.287 Y46.062 E22.69522
G1 X76.287 Y35.527 E23.39906
G1 X76.711 Y35.527 E23.42732
G1 X76.711 Y46.062 E24.13116
G1 X77.134 Y46.062 E24.15942
G1 X77.134 Y35.527 E24.86326
G1 X77.557 Y35.527 E24.89153
G1 X77.557 Y46.062 E25.59537
G1 X77.980 Y46.062 E25.62363
G1 X77.980 Y35.527 E26.32747
G1 X78.403 Y35.527 E26.35574
G1 X78.403 Y46.062 E27.05957
G1 X78.826 Y46.062 E27.08784
G1 X78.826 Y35.527 E27.79168
G1 X79.249 Y35.527 E27.81994
G1 X79.249 Y46.062 E28.52378
G1 X79.672 Y46.062 E28.55205
G1 X79.672 Y35.527 E29.25589
G1 X80.095 Y35.527 E29.28415
G1 X80.095 Y46.062 E29.98799
G1 X80.519 Y46.062 E30.01626
G1 X80.519 Y35.527 E30.72009
G1 X80.942 Y35.527 E30.74836
G1 X80.942 Y46.062 E31.45220
M104 S205 ; set temperature
G1 Z1.400 F15000.000
G1 X80.878 Y45.984 F15000.000
G1 F4800
G1 X80.878 Y35.605 E31.65868
G1 X80.394 Y35.605 E31.66830
G1 X80.394 Y45.984 E31.87478
G1 X79.911 Y45.984 E31.88440
G1 X79.911 Y35.605 E32.09089
G1 X79.427 Y35.605 E32.10050
G1 X79.427 Y45.984 E32.30699
G1 X78.944 Y45.984 E32.31661
G1 X78.944 Y35.605 E32.52309
G1 X78.461 Y35.605 E32.53271
G1 X78.461 Y45.984 E32.73919
G1 X77.977 Y45.984 E32.74881
G1 X77.977 Y35.605 E32.95530
G1 X77.494 Y35.605 E32.96491
G1 X77.494 Y45.984 E33.17140
G1 X77.011 Y45.984 E33.18101
G1 X77.011 Y35.605 E33.38750
G1 X76.527 Y35.605 E33.39712
G1 X76.527 Y45.984 E33.60360
G1 X76.044 Y45.984 E33.61322
G1 X76.044 Y35.605 E33.81970
G1 X75.561 Y35.605 E33.82932
G1 X75.561 Y45.984 E34.03581
G1 X75.077 Y45.984 E34.04542
G1 X75.077 Y35.605 E34.25191
G1 X74.594 Y35.605 E34.26153
G1 X74.594 Y45.984 E34.46801
G1 X74.110 Y45.984 E34.47763
G1 X74.110 Y35.605 E34.68411
G1 X73.627 Y35.605 E34.69373
G1 X73.627 Y45.984 E34.90021
G1 X73.144 Y45.984 E34.90983
G1 X73.144 Y35.605 E35.11632
G1 X72.660 Y35.605 E35.12593
G1 X72.660 Y45.984 E35.33242
G1 X72.177 Y45.984 E35.34204
G1 X72.177 Y35.605 E35.54852
G1 X71.694 Y35.605 E35.55814
G1 X71.694 Y45.984 E35.76462
G1 X71.210 Y45.984 E35.77424
G1 X71.210 Y35.605 E35.98073
G1 X70.727 Y35.605 E35.99034
G1 X70.727 Y45.984 E36.19683
G1 X70.243 Y45.984 E36.20645
G1 X70.243 Y35.605 E36.41293
G1 X69.760 Y35.605 E36.42255
G1 X69.760 Y45.984 E36.62903
G1 X69.277 Y45.984 E36.63865
G1 X69.277 Y35.605 E36.84513
G1 X68.793 Y35.605 E36.85475
G1 X68.793 Y45.984 E37.06124
G1 X68.310 Y45.984 E37.07085
G1 X68.310 Y35.605 E37.27734
G1 X67.827 Y35.605 E37.28696
G1 X67.827 Y45.984 E37.49344
G1 X67.343 Y45.984 E37.50306
G1 X67.343 Y35.605 E37.70954
G1 X66.860 Y35.605 E37.71916
G1 X66.860 Y45.984 E37.92565
G1 X66.376 Y45.984 E37.93526
G1 X66.376 Y35.605 E38.14175
G1 X65.893 Y35.605 E38.15136
G1 X65.893 Y45.984 E38.35785
G1 X65.450 Y45.984 E38.36667
G1 X65.450 Y36.462 E38.55610
G1 X65.893 Y36.462 E38.56492
G1 Z1.500 F15000.000
G1 X66.860 Y36.462 F15000.000
G1 F4800
G1 X66.593 Y36.462 E38.57023
G1 X66.593 Y45.984 E38.75966
G1 X66.860 Y45.984 E38.76497
G1 X66.860 Y35.605 E38.97145
G1 X67.343 Y35.605 E38.98107
G1 X67.343 Y45.984 E39.18756
G1 X67.827 Y45.984 E39.19717
G1 X67.827 Y35.605 E39.40366
G1 X68.310 Y35.605 E39.41328
G1 X68.310 Y45.984 E39.61976
G1 X68.793 Y45.984 E39.62938
G1 X68.793 Y35.605 E39.83586
G1 X69.277 Y35.605 E39.84548
G1 X69.277 Y45.984 E40.05196
G1 X69.760 Y45.984 E40.06158
G1 X69.760 Y35.605 E40.26807
G1 X70.243 Y35.605 E40.27768
G1 X70.243 Y45.984 E40.48417
G1 X70.727 Y45.984 E40.49379
G1 X70.727 Y35.605 E40.70027
G1 X71.210 Y35.605 E40.70989
G1 X71.210 Y45.984 E40.91637
G1 X71.694 Y45.984 E40.92599
G1 X71.694 Y35.605 E41.13248
G1 X72.177 Y35.605 E41.14209
G1 X72.177 Y45.984 E41.34858
G1 X72.660 Y45.984 E41.35819
G1 X72.660 Y35.605 E41.56468
G1 X73.144 Y35.605 E41.57430
G1 X73.144 Y45.984 E41.78078
G1 X73.627 Y45.984 E41.79040
G1 X73.627 Y35.605 E41.99688
G1 X74.110 Y35.605 E42.00650
G1 X74.110 Y45.984 E42.21299
G1 X74.594 Y45.984 E42.22260
G1 X74.594 Y35.605 E42.42909
G1 X75.077 Y35.605 E42.43871
G1 X75.077 Y45.984 E42.64519
G1 X75.561 Y45.984 E42.65481
G1 X75.561 Y35.605 E42.86129
G1 X76.044 Y35.605 E42.87091
G1 X76.044 Y45.984 E43.07740
G1 X76.527 Y45.984 E43.08701
G1 X76.527 Y35.605 E43.29350
G1 X77.011 Y35.605 E43.30311
G1 X77.011 Y45.984 E43.50960
G1 X77.494 Y45.984 E43.51922
G1 X77.494 Y35.605 E43.72570
G1 X77.977 Y35.605 E43.73532
G1 X77.977 Y45.984 E43.94180
G1 X78.461 Y45.984 E43.95142
G1 X78.461 Y35.605 E44.15791
G1 X78.944 Y35.605 E44.16752
G1 X78.944 Y45.984 E44.37401
G1 X79.427 Y45.984 E44.38363
G1 X79.427 Y35.605 E44.59011
G1 X79.911 Y35.605 E44.59973
G1 X79.911 Y45.984 E44.80621
G1 X80.394 Y45.984 E44.81583
G1 X80.394 Y35.605 E45.02232
G1 X80.878 Y35.605 E45.03193
G1 X80.878 Y45.984 E45.23842
M106 S255
G1 Z1.600 F15000.000
G1 F4800
G1 X80.878 Y35.605 E45.44490
G1 X80.394 Y35.605 E45.45452
G1 X80.394 Y45.984 E45.66101
G1 X79.911 Y45.984 E45.67062
G1 X79.911 Y35.605 E45.87711
G1 X79.427 Y35.605 E45.88672
G1 X79.427 Y45.984 E46.09321
G1 X78.944 Y45.984 E46.10283
G1 X78.944 Y35.605 E46.30931
G1 X78.461 Y35.605 E46.31893
G1 X78.461 Y45.984 E46.52541
G1 X77.977 Y45.984 E46.53503
G1 X77.977 Y35.605 E46.74152
G1 X77.494 Y35.605 E46.75113
G1 X77.494 Y45.984 E46.95762
G1 X77.011 Y45.984 E46.96724
G1 X77.011 Y35.605 E47.17372
G1 X76.527 Y35.605 E47.18334
G1 X76.527 Y45.984 E47.38982
G1 X76.044 Y45.984 E47.39944
G1 X76.044 Y35.605 E47.60592
G1 X75.561 Y35.605 E47.61554
G1 X75.561 Y45.984 E47.82203
G1 X75.077 Y45.984 E47.83164
G1 X75.077 Y35.605 E48.03813
G1 X74.594 Y35.605 E48.04775
G1 X74.594 Y45.984 E48.25423
G1 X74.110 Y45.984 E48.26385
G1 X74.110 Y35.605 E48.47033
G1 X73.627 Y35.605 E48.47995
G1 X73.627 Y45.984 E48.68644
G1 X73.144 Y45.984 E48.69605
G1 X73.144 Y35.605 E48.90254
G1 X72.660 Y35.605 E48.91215
G1 X72.660 Y45.984 E49.11864
G1 X72.177 Y45.984 E49.12826
G1 X72.177 Y35.605 E49.33474
G1 X71.694 Y35.605 E49.34436
G1 X71.694 Y45.984 E49.55084
G1 X71.210 Y45.984 E49.56046
G1 X71.210 Y35.605 E49.76695
G1 X70.727 Y35.605 E49.77656
G1 X70.727 Y45.984 E49.98305
G1 X70.243 Y45.984 E49.99267
G1 X70.243 Y35.605 E50.19915
G1 X69.760 Y35.605 E50.20877
G1 X69.760 Y45.984 E50.41525
G1 X69.277 Y45.984 E50.42487
G1 X69.277 Y35.605 E50.63136
G1 X68.793 Y35.605 E50.64097
G1 X68.793 Y45.984 E50.84746
G1 X68.310 Y45.984 E50.85707
G1 X68.310 Y35.605 E51.06356
G1 X67.827 Y35.605 E51.07318
G1 X67.827 Y45.984 E51.27966
G1 X67.736 Y45.984 E51.28146
G1 X67.736 Y36.462 E51.47090
G1 X67.827 Y36.462 E51.47270
G1 Z1.700 F15000.000
G1 X69.277 Y35.605 F15000.000
G1 F4800
G1 X69.277 Y45.984 E51.67919
G1 X69.760 Y45.984 E51.68880
G1 X69.760 Y35.605 E51.89529
G1 X70.243 Y35.605 E51.90491
G1 X70.243 Y45.984 E52.11139
G1 X70.727 Y45.984 E52.12101
G1 X70.727 Y35.605 E52.32749
G1 X71.210 Y35.605 E52.33711
G1 X71.210 Y45.984 E52.54360
G1 X71.694 Y45.984 E52.55321
G1 X71.694 Y35.605 E52.75970
G1 X72.177 Y35.605 E52.76931
G1 X72.177 Y45.984 E52.97580
G1 X72.660 Y45.984 E52.98542
G1 X72.660 Y35.605 E53.19190
G1 X73.144 Y35.605 E53.20152
G1 X73.144 Y45.984 E53.40800
G1 X73.627 Y45.984 E53.41762
G1 X73.627 Y35.605 E53.62411
G1 X74.110 Y35.605 E53.63372
G1 X74.110 Y45.984 E53.84021
G1 X74.594 Y45.984 E53.84983
G1 X74.594 Y35.605 E54.05631
G1 X75.077 Y35.605 E54.06593
G1 X75.077 Y45.984 E54.27241
G1 X75.561 Y45.984 E54.28203
G1 X75.561 Y35.605 E54.48851
G1 X76.044 Y35.605 E54.49813
G1 X76.044 Y45.984 E54.70462
G1 X76.527 Y45.984 E54.71423
G1 X76.527 Y35.605 E54.92072
G1 X77.011 Y35.605 E54.93034
G1 X77.011 Y45.984 E55.13682
G1 X77.494 Y45.984 E55.14644
G1 X77.494 Y35.605 E55.35292
G1 X77.977 Y35.605 E55.36254
G1 X77.977 Y45.984 E55.56903
G1 X78.461 Y45.984 E55.57864
G1 X78.461 Y35.605 E55.78513
G1 X78.944 Y35.605 E55.79474
G1 X78.944 Y45.984 E56.00123
G1 X79.427 Y45.984 E56.01085
G1 X79.427 Y35.605 E56.21733
G1 X79.911 Y35.605 E56.22695
G1 X79.911 Y45.984 E56.43343
G1 X80.394 Y45.984 E56.44305
G1 X80.394 Y35.605 E56.64954
G1 X80.878 Y35.605 E56.65915
G1 X80.878 Y45.984 E56.86564
G1 Z1.800 F15000.000
G1 F4800
G1 X80.878 Y35.605 E57.07212
G1 X80.394 Y35.605 E57.08174
G1 X80.394 Y45.984 E57.28823
G1 X79.911 Y45.984 E57.29784
G1 X79.911 Y35.605 E57.50433
G1 X79.427 Y35.605 E57.51395
G1 X79.427 Y45.984 E57.72043
G1 X78.944 Y45.984 E57.73005
G1 X78.944 Y35.605 E57.93653
G1 X78.461 Y35.605 E57.94615
G1 X78.461 Y45.984 E58.15264
G1 X77.977 Y45.984 E58.16225
G1 X77.977 Y35.605 E58.36874
G1 X77.494 Y35.605 E58.37835
G1 X77.494 Y45.984 E58.58484
G1 X77.011 Y45.984 E58.59446
G1 X77.011 Y35.605 E58.80094
G1 X76.527 Y35.605 E58.81056
G1 X76.527 Y45.984 E59.01704
G1 X76.044 Y45.984 E59.02666
G1 X76.044 Y35.605 E59.23315
G1 X75.561 Y35.605 E59.24276
G1 X75.561 Y45.984 E59.44925
G1 X75.077 Y45.984 E59.45887
G1 X75.077 Y35.605 E59.66535
G1 X74.594 Y35.605 E59.67497
G1 X74.594 Y45.984 E59.88145
G1 X74.110 Y45.984 E59.89107
G1 X74.110 Y35.605 E60.09756
G1 X73.627 Y35.605 E60.10717
G1 X73.627 Y45.984 E60.31366
G1 X73.144 Y45.984 E60.32327
G1 X73.144 Y35.605 E60.52976
G1 X72.660 Y35.605 E60.53938
G1 X72.660 Y45.984 E60.74586
G1 X72.177 Y45.984 E60.75548
G1 X72.177 Y35.605 E60.96196
G1 X71.694 Y35.605 E60.97158
G1 X71.694 Y45.984 E61.17807
G1 X71.210 Y45.984 E61.18768
G1 X71.210 Y35.605 E61.39417
G1 X70.727 Y35.605 E61.40379
G1 X70.727 Y45.984 E61.61027
G1 X70.243 Y45.984 E61.61989
G1 X70.243 Y35.605 E61.82637
G1 Z1.900 F15000.000
G1 X71.210 Y35.605 F15000.000
G1 F4800
G1 X71.210 Y45.984 E62.03286
G1 X71.694 Y45.984 E62.04247
G1 X71.694 Y35.605 E62.24896
G1 X72.177 Y35.605 E62.25858
G1 X72.177 Y45.984 E62.46506
G1 X72.660 Y45.984 E62.47468
G1 X72.660 Y35.605 E62.68116
G1 X73.144 Y35.605 E62.69078
G1 X73.144 Y45.984 E62.89727
G1 X73.627 Y45.984 E62.90688
G1 X73.627 Y35.605 E63.11337
G1 X74.110 Y35.605 E63.12299
G1 X74.110 Y45.984 E63.32947
G1 X74.594 Y45.984 E63.33909
G1 X74.594 Y35.605 E63.54557
G1 X75.077 Y35.605 E63.55519
G1 X75.077 Y45.984 E63.76168
G1 X75.561 Y45.984 E63.77129
G1 X75.561 Y35.605 E63.97778
G1 X76.044 Y35.605 E63.98739
G1 X76.044 Y45.984 E64.19388
G1 X76.527 Y45.984 E64.20350
G1 X76.527 Y35.605 E64.40998
G1 X77.011 Y35.605 E64.41960
G1 X77.011 Y45.984 E64.62608
G1 X77.494 Y45.984 E64.63570
G1 X77.494 Y35.605 E64.84219
G1 X77.977 Y35.605 E64.85180
G1 X77.977 Y45.984 E65.05829
G1 X78.461 Y45.984 E65.06791
G1 X78.461 Y35.605 E65.27439
G1 X78.944 Y35.605 E65.28401
G1 X78.944 Y45.984 E65.49049
G1 X79.427 Y45.984 E65.50011
G1 X79.427 Y35.605 E65.70660
G1 X79.911 Y35.605 E65.71621
G1 X79.911 Y45.984 E65.92270
G1 X80.394 Y45.984 E65.93231
G1 X80.394 Y35.605 E66.13880
G1 X80.878 Y35.605 E66.14842
G1 X80.878 Y45.984 E66.35490
G1 Z2.000 F15000.000
G1 F4800
G1 X80.878 Y35.605 E66.56139
G1 X80.394 Y35.605 E66.57100
G1 X80.394 Y45.984 E66.77749
G1 X79.911 Y45.984 E66.78711
G1 X79.911 Y35.605 E66.99359
G1 X79.427 Y35.605 E67.00321
G1 X79.427 Y45.984 E67.20969
G1 X78.944 Y45.984 E67.21931
G1 X78.944 Y35.605 E67.42580
G1 X78.461 Y35.605 E67.43541
G1 X78.461 Y45.984 E67.64190
G1 X77.977 Y45.984 E67.65152
G1 X77.977 Y35.605 E67.85800
G1 X77.494 Y35.605 E67.86762
G1 X77.494 Y45.984 E68.07410
G1 X77.011 Y45.984 E68.08372
G1 X77.011 Y35.605 E68.29020
G1 X76.527 Y35.605 E68.29982
G1 X76.527 Y45.984 E68.50631
G1 X76.044 Y45.984 E68.51592
G1 X76.044 Y35.605 E68.72241
G1 X75.561 Y35.605 E68.73203
G1 X75.561 Y45.984 E68.93851
G1 X75.077 Y45.984 E68.94813
G1 X75.077 Y35.605 E69.15461
G1 X74.594 Y35.605 E69.16423
G1 X74.594 Y45.984 E69.37072
G1 X74.110 Y45.984 E69.38033
G1 X74.110 Y35.605 E69.58682
G1 X73.627 Y35.605 E69.59644
G1 X73.627 Y45.984 E69.80292
G1 X73.144 Y45.984 E69.81254
G1 X73.144 Y35.605 E70.01902
G1 X72.660 Y35.605 E70.02864
G1 X72.660 Y45.984 E70.23512
G1 X72.308 Y45.984 E70.24213
G1 X72.308 Y36.462 E70.43157
G1 X72.660 Y36.462 E70.43858
G1 Z2.100 F15000.000
G1 X73.627 Y36.462 F15000.000
G1 F4800
G1 X73.451 Y36.462 E70.44208
G1 X73.451 Y45.984 E70.63151
G1 X73.627 Y45.984 E70.63502
G1 X73.627 Y35.605 E70.84150
G1 X74.110 Y35.605 E70.85112
G1 X74.110 Y45.984 E71.05760
G1 X74.594 Y45.984 E71.06722
G1 X74.594 Y35.605 E71.27370
G1 X75.077 Y35.605 E71.28332
G1 X75.077 Y45.984 E71.48981
G1 X75.561 Y45.984 E71.49942
G1 X75.561 Y35.605 E71.70591
G1 X76.044 Y35.605 E71.71553
G1 X76.044 Y45.984 E71.92201
G1 X76.527 Y45.984 E71.93163
G1 X76.527 Y35.605 E72.13811
G1 X77.011 Y35.605 E72.14773
G1 X77.011 Y45.984 E72.35422
G1 X77.494 Y45.984 E72.36383
G1 X77.494 Y35.605 E72.57032
G1 X77.977 Y35.605 E72.57993
G1 X77.977 Y45.984 E72.78642
G1 X78.461 Y45.984 E72.79604
G1 X78.461 Y35.605 E73.00252
G1 X78.944 Y35.605 E73.01214
G1 X78.944 Y45.984 E73.21862
G1 X79.427 Y45.984 E73.22824
G1 X79.427 Y35.605 E73.43473
G1 X79.911 Y35.605 E73.44434
G1 X79.911 Y45.984 E73.65083
G1 X80.394 Y45.984 E73.66045
G1 X80.394 Y35.605 E73.86693
G1 X80.878 Y35.605 E73.87655
G1 X80.878 Y45.984 E74.08303
G1 Z2.200 F15000.000
G1 F4800
G1 X80.878 Y35.605 E74.28952
G1 X80.394 Y35.605 E74.29914
G1 X80.394 Y45.984 E74.50562
G1 X79.911 Y45.984 E74.51524
G1 X79.911 Y35.605 E74.72172
G1 X79.427 Y35.605 E74.73134
G1 X79.427 Y45.984 E74.93783
G1 X78.944 Y45.984 E74.94744
G1 X78.944 Y35.605 E75.15393
G1 X78.461 Y35.605 E75.16354
G1 X78.461 Y45.984 E75.37003
G1 X77.977 Y45.984 E75.37965
G1 X77.977 Y35.605 E75.58613
G1 X77.494 Y35.605 E75.59575
G1 X77.494 Y45.984 E75.80223
G1 X77.011 Y45.984 E75.81185
G1 X77.011 Y35.605 E76.01834
G1 X76.527 Y35.605 E76.02795
G1 X76.527 Y45.984 E76.23444
G1 X76.044 Y45.984 E76.24406
G1 X76.044 Y35.605 E76.45054
G1 X75.561 Y35.605 E76.46016
G1 X75.561 Y45.984 E76.66664
G1 X75.077 Y45.984 E76.67626
G1 X75.077 Y35.605 E76.88275
G1 Z2.300 F15000.000
G1 X76.044 Y35.605 F15000.000
G1 F4800
G1 X76.044 Y45.984 E77.08923
G1 X76.527 Y45.984 E77.09885
G1 X76.527 Y35.605 E77.30533
G1 X77.011 Y35.605 E77.31495
G1 X77.011 Y45.984 E77.52143
G1 X77.494 Y45.984 E77.53105
G1 X77.494 Y35.605 E77.73754
G1 X77.977 Y35.605 E77.74715
G1 X77.977 Y45.984 E77.95364
