; generated by Slic3r 1.3.1-dev on 2019-07-17 at 11:37:42

; external perimeters extrusion width = 0.44mm (2.61mm^3/s)
; perimeters extrusion width = 0.40mm (5.20mm^3/s)
; infill extrusion width = 0.50mm (8.93mm^3/s)
; solid infill extrusion width = 0.56mm (3.02mm^3/s)
; top infill extrusion width = 0.38mm (1.54mm^3/s)

M104 S200 ; set temperature
G28 ; home all axes
G1 X150 Y150 Z50 F10000
; Filament gcode
; layer 1
M109 S200 ; set temperature and wait for it to be reached
G21 ; set units to millimeters
G90 ; use absolute coordinates
M82 ; use absolute distances for extrusion
G92 E0
G92 E0
G1 Z1.300 F15000.000
G1 X63.171 Y35.527 F15000.000
G1 F3600
G1 X63.171 Y46.062 E0.76014
G1 X63.594 Y46.062 E0.79067
G1 X63.594 Y35.527 E1.55082
G1 X64.017 Y35.527 E1.58134
G1 X64.017 Y46.062 E2.34149
G1 X64.440 Y46.062 E2.37202
G1 X64.440 Y35.527 E3.13216
G1 X64.864 Y35.527 E3.16269
G1 X64.864 Y46.062 E3.92283
G1 X65.287 Y46.062 E3.95336
G1 X65.287 Y35.527 E4.71351
G1 X65.710 Y35.527 E4.74403
G1 X65.710 Y46.062 E5.50418
G1 X66.133 Y46.062 E5.53470
G1 X66.133 Y35.527 E6.29485
G1 X66.556 Y35.527 E6.32538
G1 X66.556 Y46.062 E7.08552
G1 X66.979 Y46.062 E7.11605
G1 X66.979 Y35.527 E7.87619
G1 X67.402 Y35.527 E7.90672
G1 X67.402 Y46.062 E8.66687
G1 X67.825 Y46.062 E8.69739
G1 X67.825 Y35.527 E9.45754
G1 X68.248 Y35.527 E9.48807
G1 X68.248 Y46.062 E10.24821
G1 X68.672 Y46.062 E10.27874
G1 X68.672 Y35.527 E11.03888
G1 X69.095 Y35.527 E11.06941
G1 X69.095 Y46.062 E11.82955
G1 X69.518 Y46.062 E11.86008
G1 X69.518 Y35.527 E12.62023
G1 X69.941 Y35.527 E12.65075
G1 X69.941 Y46.062 E13.41090
G1 X70.364 Y46.062 E13.44143
G1 X70.364 Y35.527 E14.20157
G1 X70.787 Y35.527 E14.23210
G1 X70.787 Y46.062 E14.99224
G1 X71.210 Y46.062 E15.02277
G1 X71.210 Y35.527 E15.78291
G1 X71.633 Y35.527 E15.81344
G1 X71.633 Y46.062 E16.57359
G1 X72.056 Y46.062 E16.60411
G1 X72.056 Y35.527 E17.36426
G1 X72.480 Y35.527 E17.39479
G1 X72.480 Y46.062 E18.15493
G1 X72.903 Y46.062 E18.18546
G1 X72.903 Y35.527 E18.94560
G1 X73.326 Y35.527 E18.97613
G1 X73.326 Y46.062 E19.73627
G1 X73.749 Y46.062 E19.76680
G1 X73.749 Y35.527 E20.52695
G1 X74.172 Y35.527 E20.55747
G1 X74.172 Y46.062 E21.31762
G1 X74.595 Y46.062 E21.34815
G1 X74.595 Y35.527 E22.10829
G1 X75.018 Y35.527 E22.13882
G1 X75.018 Y46.062 E22.89896
G1 X75.441 Y46.062 E22.92949
G1 X75.441 Y35.527 E23.68964
G1 X75.864 Y35.527 E23.72016
G1 X75.864 Y46.062 E24.48031
G1 X76.287 Y46.062 E24.51083
G1 X76.287 Y35.527 E25.27098
G1 X76.711 Y35.527 E25.30151
G1 X76.711 Y46.062 E26.06165
G1 X77.134 Y46.062 E26.09218
G1 X77.134 Y35.527 E26.85232
G1 X77.557 Y35.527 E26.88285
G1 X77.557 Y46.062 E27.64300
G1 X77.980 Y46.062 E27.67352
G1 X77.980 Y35.527 E28.43367
G1 X78.403 Y35.527 E28.46420
G1 X78.403 Y46.062 E29.22434
G1 X78.826 Y46.062 E29.25487
G1 X78.826 Y35.527 E30.01501
G1 X79.249 Y35.527 E30.04554
G1 X79.249 Y46.062 E30.80568
G1 X79.672 Y46.062 E30.83621
G1 X79.672 Y35.527 E31.59636
G1 X80.095 Y35.527 E31.62688
G1 X80.095 Y46.062 E32.38703
G1 X80.519 Y46.062 E32.41756
G1 X80.519 Y35.527 E33.17770
G1 X80.942 Y35.527 E33.20823
G1 X80.942 Y46.062 E33.96837
G1 Z1.550 F15000.000
G1 X80.678 Y45.968 F15000.000
G1 F4800
G1 X80.678 Y35.621 E34.48677
G1 X80.227 Y35.621 E34.50936
G1 X80.227 Y45.968 E35.02775
G1 X79.776 Y45.968 E35.05034
G1 X79.776 Y35.621 E35.56874
G1 X79.326 Y35.621 E35.59133
G1 X79.326 Y45.968 E36.10972
G1 X78.875 Y45.968 E36.13231
G1 X78.875 Y35.621 E36.65071
G1 X78.424 Y35.621 E36.67330
G1 X78.424 Y45.968 E37.19169
G1 X77.973 Y45.968 E37.21428
G1 X77.973 Y35.621 E37.73268
G1 X77.522 Y35.621 E37.75527
G1 X77.522 Y45.968 E38.27366
G1 X77.071 Y45.968 E38.29625
G1 X77.071 Y35.621 E38.81465
G1 X76.620 Y35.621 E38.83724
G1 X76.620 Y45.968 E39.35563
G1 X76.170 Y45.968 E39.37822
G1 X76.170 Y35.621 E39.89662
G1 X75.719 Y35.621 E39.91921
G1 X75.719 Y45.968 E40.43760
G1 X75.268 Y45.968 E40.46019
G1 X75.268 Y35.621 E40.97859
G1 X74.817 Y35.621 E41.00118
G1 X74.817 Y45.968 E41.51957
G1 X74.366 Y45.968 E41.54216
G1 X74.366 Y35.621 E42.06056
G1 X73.915 Y35.621 E42.08315
G1 X73.915 Y45.968 E42.60154
G1 X73.464 Y45.968 E42.62413
G1 X73.464 Y35.621 E43.14253
G1 X73.014 Y35.621 E43.16511
G1 X73.014 Y45.968 E43.68351
G1 X72.563 Y45.968 E43.70610
G1 X72.563 Y35.621 E44.22449
G1 X72.112 Y35.621 E44.24708
G1 X72.112 Y45.968 E44.76548
G1 X71.661 Y45.968 E44.78807
G1 X71.661 Y35.621 E45.30646
G1 X71.210 Y35.621 E45.32905
G1 X71.210 Y45.968 E45.84745
G1 X70.759 Y45.968 E45.87004
G1 X70.759 Y35.621 E46.38843
G1 X70.308 Y35.621 E46.41102
G1 X70.308 Y45.968 E46.92942
G1 X69.858 Y45.968 E46.95201
G1 X69.858 Y35.621 E47.47040
G1 X69.407 Y35.621 E47.49299
G1 X69.407 Y45.968 E48.01139
G1 X68.956 Y45.968 E48.03398
G1 X68.956 Y35.621 E48.55237
G1 X68.505 Y35.621 E48.57496
G1 X68.505 Y45.968 E49.09336
G1 X68.054 Y45.968 E49.11595
G1 X68.054 Y35.621 E49.63434
G1 X67.603 Y35.621 E49.65693
G1 X67.603 Y45.968 E50.17533
G1 X67.152 Y45.968 E50.19792
G1 X67.152 Y35.621 E50.71631
G1 X66.702 Y35.621 E50.73890
G1 X66.702 Y45.968 E51.25730
G1 X66.291 Y45.968 E51.27787
G1 X66.291 Y36.414 E51.75654
G1 X66.702 Y36.414 E51.77711
G1 Z1.800 F15000.000
G92 E0
G1 X69.407 Y36.414 F15000.000
G1 F4800
G1 X69.149 Y36.414 E0.01293
G1 X69.149 Y45.968 E0.49161
G1 X69.407 Y45.968 E0.50454
G1 X69.407 Y35.621 E1.02294
G1 X69.858 Y35.621 E1.04553
G1 X69.858 Y45.968 E1.56392
G1 X70.308 Y45.968 E1.58651
G1 X70.308 Y35.621 E2.10491
G1 X70.759 Y35.621 E2.12750
G1 X70.759 Y45.968 E2.64589
G1 X71.210 Y45.968 E2.66848
G1 X71.210 Y35.621 E3.18688
G1 X71.661 Y35.621 E3.20947
G1 X71.661 Y45.968 E3.72786
G1 X72.112 Y45.968 E3.75045
G1 X72.112 Y35.621 E4.26885
G1 X72.563 Y35.621 E4.29144
G1 X72.563 Y45.968 E4.80983
G1 X73.014 Y45.968 E4.83242
G1 X73.014 Y35.621 E5.35082
G1 X73.464 Y35.621 E5.37341
G1 X73.464 Y45.968 E5.89180
G1 X73.915 Y45.968 E5.91439
G1 X73.915 Y35.621 E6.43279
G1 X74.366 Y35.621 E6.45538
G1 X74.366 Y45.968 E6.97377
G1 X74.817 Y45.968 E6.99636
G1 X74.817 Y35.621 E7.51476
G1 X75.268 Y35.621 E7.53735
G1 X75.268 Y45.968 E8.05574
G1 X75.719 Y45.968 E8.07833
G1 X75.719 Y35.621 E8.59673
G1 X76.170 Y35.621 E8.61932
G1 X76.170 Y45.968 E9.13771
G1 X76.620 Y45.968 E9.16030
G1 X76.620 Y35.621 E9.67870
G1 X77.071 Y35.621 E9.70129
G1 X77.071 Y45.968 E10.21968
G1 X77.522 Y45.968 E10.24227
G1 X77.522 Y35.621 E10.76067
G1 X77.973 Y35.621 E10.78326
G1 X77.973 Y45.968 E11.30165
G1 X78.424 Y45.968 E11.32424
G1 X78.424 Y35.621 E11.84264
G1 X78.875 Y35.621 E11.86523
G1 X78.875 Y45.968 E12.38362
G1 X79.326 Y45.968 E12.40621
G1 X79.326 Y35.621 E12.92461
G1 X79.776 Y35.621 E12.94720
G1 X79.776 Y45.968 E13.46559
G1 X80.227 Y45.968 E13.48818
G1 X80.227 Y35.621 E14.00658
G1 X80.678 Y35.621 E14.02917
G1 X80.678 Y45.968 E14.54756
G1 Z2.050 F15000.000
G1 F4800
G1 X80.678 Y35.621 E15.06596
G1 X80.227 Y35.621 E15.08854
G1 X80.227 Y45.968 E15.60694
G1 X79.776 Y45.968 E15.62953
G1 X79.776 Y35.621 E16.14792
G1 X79.326 Y35.621 E16.17051
G1 X79.326 Y45.968 E16.68891
G1 X78.875 Y45.968 E16.71150
G1 X78.875 Y35.621 E17.22989
G1 X78.424 Y35.621 E17.25248
G1 X78.424 Y45.968 E17.77088
G1 X77.973 Y45.968 E17.79347
G1 X77.973 Y35.621 E18.31186
G1 X77.522 Y35.621 E18.33445
G1 X77.522 Y45.968 E18.85285
G1 X77.071 Y45.968 E18.87544
G1 X77.071 Y35.621 E19.39383
G1 X76.620 Y35.621 E19.41642
G1 X76.620 Y45.968 E19.93482
G1 X76.170 Y45.968 E19.95741
G1 X76.170 Y35.621 E20.47580
G1 X75.719 Y35.621 E20.49839
G1 X75.719 Y45.968 E21.01679
G1 X75.268 Y45.968 E21.03938
G1 X75.268 Y35.621 E21.55777
G1 X74.817 Y35.621 E21.58036
G1 X74.817 Y45.968 E22.09876
G1 X74.366 Y45.968 E22.12135
G1 X74.366 Y35.621 E22.63974
G1 X73.915 Y35.621 E22.66233
G1 X73.915 Y45.968 E23.18073
G1 X73.464 Y45.968 E23.20332
G1 X73.464 Y35.621 E23.72171
G1 X73.014 Y35.621 E23.74430
G1 X73.014 Y45.968 E24.26270
G1 X72.563 Y45.968 E24.28529
G1 X72.563 Y35.621 E24.80368
G1 X72.112 Y35.621 E24.82627
G1 X72.112 Y45.968 E25.34467
G1 X72.006 Y45.968 E25.34997
G1 X72.006 Y36.414 E25.82864
G1 X72.112 Y36.414 E25.83394
G1 Z2.300 F15000.000
G92 E0
G1 X75.268 Y35.621 F15000.000
G1 F4800
G1 X75.268 Y45.968 E0.51840
G1 X75.719 Y45.968 E0.54098
G1 X75.719 Y35.621 E1.05938
G1 X76.170 Y35.621 E1.08197
G1 X76.170 Y45.968 E1.60036
G1 X76.620 Y45.968 E1.62295
G1 X76.620 Y35.621 E2.14135
G1 X77.071 Y35.621 E2.16394
G1 X77.071 Y45.968 E2.68233
G1 X77.522 Y45.968 E2.70492
G1 X77.522 Y35.621 E3.22332
G1 X77.973 Y35.621 E3.24591
G1 X77.973 Y45.968 E3.76430
G1 X78.424 Y45.968 E3.78689
G1 X78.424 Y35.621 E4.30529
G1 X78.875 Y35.621 E4.32788
G1 X78.875 Y45.968 E4.84627
G1 X79.326 Y45.968 E4.86886
G1 X79.326 Y35.621 E5.38726
G1 X79.776 Y35.621 E5.40985
G1 X79.776 Y45.968 E5.92824
G1 X80.227 Y45.968 E5.95083
G1 X80.227 Y35.621 E6.46923
G1 X80.678 Y35.621 E6.49182
G1 X80.678 Y45.968 E7.01021
G1 Z2.550 F15000.000
G1 F4800
G1 X80.678 Y35.621 E7.52861
G1 X80.227 Y35.621 E7.55120
G1 X80.227 Y45.968 E8.06959
G1 X79.776 Y45.968 E8.09218
G1 X79.776 Y35.621 E8.61058
G1 X79.326 Y35.621 E8.63317
G1 X79.326 Y45.968 E9.15156
G1 X78.875 Y45.968 E9.17415
G1 X78.875 Y35.621 E9.69255
G1 X78.424 Y35.621 E9.71514
G1 X78.424 Y45.968 E10.23353
G1 X77.973 Y45.968 E10.25612
G1 X77.973 Y35.621 E10.77452
G1 Z2.800 F15000.000
G92 E0
; Filament-specific end gcode 
;END gcode for filament

G92 E0
G1 E-15 F9000
M104 S0 T0 ; turn off temperature
M140 S0 ; turn off bed
G1 X320 Y290 F10000 ; lower bed
M84 ; disable motors
; filament used = 88.4mm (0.2cm3)
; total filament cost = 0.0

; avoid_crossing_perimeters = 0
; bed_shape = 0x0,300x0,300x300,0x300
; bed_temperature = 0
; before_layer_gcode = 
; between_objects_gcode = 
; bridge_acceleration = 0
; bridge_fan_speed = 100
; brim_connections_width = 0
; brim_width = 0
; complete_objects = 0
; cooling = 0
; default_acceleration = 0
; disable_fan_first_layers = 1
; duplicate_distance = 6
; end_filament_gcode = "; Filament-specific end gcode \n;END gcode for filament\n"
; end_gcode = G92 E0\nG1 E-15 F9000\nM104 S0 T0 ; turn off temperature\nM140 S0 ; turn off bed\nG1 X320 Y290 F10000 ; lower bed\nM84 ; disable motors
; extruder_clearance_height = 20
; extruder_clearance_radius = 20
; extruder_offset = 0x0
; extrusion_axis = E
; extrusion_multiplier = 1.08
; fan_always_on = 0
; fan_below_layer_time = 60
; filament_colour = #FFFFFF
; filament_cost = 0
; filament_density = 0
; filament_diameter = 1.75
; filament_max_volumetric_speed = 0
; filament_notes = ""
; first_layer_acceleration = 0
; first_layer_bed_temperature = 0
; first_layer_extrusion_width = 200%
; first_layer_speed = 60
; first_layer_temperature = 200
; gcode_arcs = 0
; gcode_comments = 0
; gcode_flavor = reprap
; has_heatbed = 0
; infill_acceleration = 0
; infill_first = 0
; interior_brim_width = 0
; label_printed_objects = 0
; layer_gcode = 
; max_fan_speed = 100
; max_layer_height = 0.4
; max_print_speed = 200
; max_volumetric_speed = 0
; min_fan_speed = 60
; min_layer_height = 0.15
; min_print_speed = 10
; min_skirt_length = 0
; notes = 
; nozzle_diameter = 0.4
; only_retract_when_crossing_perimeters = 0
; ooze_prevention = 0
; output_filename_format = [input_filename_base].gcode
; perimeter_acceleration = 0
; post_process = 
; pressure_advance = 0
; printer_notes = 
; resolution = 0
; retract_before_travel = 2
; retract_layer_change = 0
; retract_length = 0
; retract_length_toolchange = 10
; retract_lift = 1
; retract_lift_above = 0
; retract_lift_below = 0
; retract_restart_extra = 0
; retract_restart_extra_toolchange = 0
; retract_speed = 40
; skirt_distance = 3
; skirt_height = 1
; skirts = 0
; slowdown_below_layer_time = 30
; spiral_vase = 0
; standby_temperature_delta = 0
; start_filament_gcode = "; Filament gcode\n"
; start_gcode = G28 ; home all axes\nG1 X150 Y150 Z50 F10000
; temperature = 200
; threads = 4
; toolchange_gcode = 
; travel_speed = 250
; use_firmware_retraction = 0
; use_relative_e_distances = 0
; use_set_and_wait_bed = 0
; use_set_and_wait_extruder = 0
; use_volumetric_e = 0
; vibration_limit = 0
; wipe = 0
; z_offset = 1
; z_steps_per_mm = 0
; adaptive_slicing = 0
; adaptive_slicing_quality = 75%
; dont_support_bridges = 1
; extrusion_width = 0
; first_layer_height = 0.3
; infill_only_where_needed = 0
; interface_shells = 0
; layer_height = 0.25
; match_horizontal_surfaces = 0
; raft_layers = 0
; regions_overlap = 0
; seam_position = aligned
; sequential_print_priority = 0
; support_material = 0
; support_material_angle = 0
; support_material_buildplate_only = 0
; support_material_contact_distance = 0.2
; support_material_enforce_layers = 0
; support_material_extruder = 1
; support_material_extrusion_width = 0
; support_material_interface_extruder = 1
; support_material_interface_extrusion_width = 0
; support_material_interface_layers = 3
; support_material_interface_spacing = 0
; support_material_interface_speed = 100%
; support_material_max_layers = 0
; support_material_pattern = pillars
; support_material_pillar_size = 2.5
; support_material_pillar_spacing = 10
; support_material_spacing = 2.5
; support_material_speed = 80
; support_material_threshold = 30
; xy_size_compensation = 0
; bottom_infill_pattern = rectilinear
; bottom_solid_layers = 0
; bridge_flow_ratio = 1
; bridge_speed = 60
; external_perimeter_extrusion_width = 0
; external_perimeter_speed = 45%
; external_perimeters_first = 0
; extra_perimeters = 1
; fill_angle = 90
; fill_density = 99%
; fill_gaps = 1
; fill_pattern = alignedrectilinear
; gap_fill_speed = 20
; infill_every_layers = 1
; infill_extruder = 1
; infill_extrusion_width = 0
; infill_overlap = 100%
; infill_speed = 80
; min_shell_thickness = 0
; min_top_bottom_shell_thickness = 0
; overhangs = 1
; perimeter_extruder = 1
; perimeter_extrusion_width = 0.4
; perimeter_speed = 60
; perimeters = 0
; small_perimeter_speed = 30%
; solid_infill_below_area = 0
; solid_infill_every_layers = 0
; solid_infill_extruder = 1
; solid_infill_extrusion_width = 0
; solid_infill_speed = 30%
; thin_walls = 1
; top_infill_extrusion_width = 150%
; top_infill_pattern = rectilinear
; top_solid_infill_speed = 80%
; top_solid_layers = 0

