; generated by Slic3r 1.3.1-dev on 2019-07-17 at 11:32:25

; external perimeters extrusion width = 0.44mm (2.14mm^3/s)
; perimeters extrusion width = 0.40mm (4.28mm^3/s)
; infill extrusion width = 0.50mm (7.31mm^3/s)
; solid infill extrusion width = 0.56mm (2.48mm^3/s)
; top infill extrusion width = 0.30mm (0.99mm^3/s)

M104 S200 ; set temperature
G28 ; home all axes
G1 X150 Y150 Z50 F10000
; Filament gcode
; layer 1
M109 S200 ; set temperature and wait for it to be reached
G21 ; set units to millimeters
G90 ; use absolute coordinates
M82 ; use absolute distances for extrusion
G92 E0
G92 E0
G1 Z1.300 F15000.000
G1 X63.171 Y35.527 F15000.000
G1 F3600
G1 X63.171 Y46.062 E0.76014
G1 X63.594 Y46.062 E0.79067
G1 X63.594 Y35.527 E1.55082
G1 X64.017 Y35.527 E1.58134
G1 X64.017 Y46.062 E2.34149
G1 X64.440 Y46.062 E2.37202
G1 X64.440 Y35.527 E3.13216
G1 X64.864 Y35.527 E3.16269
G1 X64.864 Y46.062 E3.92283
G1 X65.287 Y46.062 E3.95336
G1 X65.287 Y35.527 E4.71351
G1 X65.710 Y35.527 E4.74403
G1 X65.710 Y46.062 E5.50418
G1 X66.133 Y46.062 E5.53470
G1 X66.133 Y35.527 E6.29485
G1 X66.556 Y35.527 E6.32538
G1 X66.556 Y46.062 E7.08552
G1 X66.979 Y46.062 E7.11605
G1 X66.979 Y35.527 E7.87619
G1 X67.402 Y35.527 E7.90672
G1 X67.402 Y46.062 E8.66687
G1 X67.825 Y46.062 E8.69739
G1 X67.825 Y35.527 E9.45754
G1 X68.248 Y35.527 E9.48807
G1 X68.248 Y46.062 E10.24821
G1 X68.672 Y46.062 E10.27874
G1 X68.672 Y35.527 E11.03888
G1 X69.095 Y35.527 E11.06941
G1 X69.095 Y46.062 E11.82955
G1 X69.518 Y46.062 E11.86008
G1 X69.518 Y35.527 E12.62023
G1 X69.941 Y35.527 E12.65075
G1 X69.941 Y46.062 E13.41090
G1 X70.364 Y46.062 E13.44143
G1 X70.364 Y35.527 E14.20157
G1 X70.787 Y35.527 E14.23210
G1 X70.787 Y46.062 E14.99224
G1 X71.210 Y46.062 E15.02277
G1 X71.210 Y35.527 E15.78291
G1 X71.633 Y35.527 E15.81344
G1 X71.633 Y46.062 E16.57359
G1 X72.056 Y46.062 E16.60411
G1 X72.056 Y35.527 E17.36426
G1 X72.480 Y35.527 E17.39479
G1 X72.480 Y46.062 E18.15493
G1 X72.903 Y46.062 E18.18546
G1 X72.903 Y35.527 E18.94560
G1 X73.326 Y35.527 E18.97613
G1 X73.326 Y46.062 E19.73627
G1 X73.749 Y46.062 E19.76680
G1 X73.749 Y35.527 E20.52695
G1 X74.172 Y35.527 E20.55747
G1 X74.172 Y46.062 E21.31762
G1 X74.595 Y46.062 E21.34815
G1 X74.595 Y35.527 E22.10829
G1 X75.018 Y35.527 E22.13882
G1 X75.018 Y46.062 E22.89896
G1 X75.441 Y46.062 E22.92949
G1 X75.441 Y35.527 E23.68964
G1 X75.864 Y35.527 E23.72016
G1 X75.864 Y46.062 E24.48031
G1 X76.287 Y46.062 E24.51083
G1 X76.287 Y35.527 E25.27098
G1 X76.711 Y35.527 E25.30151
G1 X76.711 Y46.062 E26.06165
G1 X77.134 Y46.062 E26.09218
G1 X77.134 Y35.527 E26.85232
G1 X77.557 Y35.527 E26.88285
G1 X77.557 Y46.062 E27.64300
G1 X77.980 Y46.062 E27.67352
G1 X77.980 Y35.527 E28.43367
G1 X78.403 Y35.527 E28.46420
G1 X78.403 Y46.062 E29.22434
G1 X78.826 Y46.062 E29.25487
G1 X78.826 Y35.527 E30.01501
G1 X79.249 Y35.527 E30.04554
G1 X79.249 Y46.062 E30.80568
G1 X79.672 Y46.062 E30.83621
G1 X79.672 Y35.527 E31.59636
G1 X80.095 Y35.527 E31.62688
G1 X80.095 Y46.062 E32.38703
G1 X80.519 Y46.062 E32.41756
G1 X80.519 Y35.527 E33.17770
G1 X80.942 Y35.527 E33.20823
G1 X80.942 Y46.062 E33.96837
G1 Z1.500 F15000.000
G1 X80.906 Y45.973 F15000.000
G1 F4800
G1 X80.906 Y35.616 E34.39350
G1 X80.444 Y35.616 E34.41245
G1 X80.444 Y45.973 E34.83758
G1 X79.982 Y45.973 E34.85653
G1 X79.982 Y35.616 E35.28165
G1 X79.521 Y35.616 E35.30060
G1 X79.521 Y45.973 E35.72573
G1 X79.059 Y45.973 E35.74468
G1 X79.059 Y35.616 E36.16981
G1 X78.597 Y35.616 E36.18876
G1 X78.597 Y45.973 E36.61388
G1 X78.136 Y45.973 E36.63284
G1 X78.136 Y35.616 E37.05796
G1 X77.674 Y35.616 E37.07691
G1 X77.674 Y45.973 E37.50204
G1 X77.212 Y45.973 E37.52099
G1 X77.212 Y35.616 E37.94612
G1 X76.751 Y35.616 E37.96507
G1 X76.751 Y45.973 E38.39019
G1 X76.289 Y45.973 E38.40915
G1 X76.289 Y35.616 E38.83427
G1 X75.827 Y35.616 E38.85322
G1 X75.827 Y45.973 E39.27835
G1 X75.365 Y45.973 E39.29730
G1 X75.365 Y35.616 E39.72243
G1 X74.904 Y35.616 E39.74138
G1 X74.904 Y45.973 E40.16650
G1 X74.442 Y45.973 E40.18545
G1 X74.442 Y35.616 E40.61058
G1 X73.980 Y35.616 E40.62953
G1 X73.980 Y45.973 E41.05466
G1 X73.519 Y45.973 E41.07361
G1 X73.519 Y35.616 E41.49873
G1 X73.057 Y35.616 E41.51769
G1 X73.057 Y45.973 E41.94281
G1 X72.595 Y45.973 E41.96176
G1 X72.595 Y35.616 E42.38689
G1 X72.134 Y35.616 E42.40584
G1 X72.134 Y45.973 E42.83097
G1 X71.672 Y45.973 E42.84992
G1 X71.672 Y35.616 E43.27504
G1 X71.210 Y35.616 E43.29399
G1 X71.210 Y45.973 E43.71912
G1 X70.748 Y45.973 E43.73807
G1 X70.748 Y35.616 E44.16320
G1 X70.287 Y35.616 E44.18215
G1 X70.287 Y45.973 E44.60728
G1 X69.825 Y45.973 E44.62623
G1 X69.825 Y35.616 E45.05135
G1 X69.363 Y35.616 E45.07030
G1 X69.363 Y45.973 E45.49543
G1 X68.902 Y45.973 E45.51438
G1 X68.902 Y35.616 E45.93951
G1 X68.440 Y35.616 E45.95846
G1 X68.440 Y45.973 E46.38358
G1 X67.978 Y45.973 E46.40254
G1 X67.978 Y35.616 E46.82766
G1 X67.517 Y35.616 E46.84661
G1 X67.517 Y45.973 E47.27174
G1 X67.055 Y45.973 E47.29069
G1 X67.055 Y35.616 E47.71582
G1 X66.593 Y35.616 E47.73477
G1 X66.593 Y45.973 E48.15989
G1 X66.132 Y45.973 E48.17884
G1 X66.132 Y35.616 E48.60397
G1 Z1.700 F15000.000
G92 E0
G1 X68.440 Y36.430 F15000.000
G1 F4800
G1 X68.297 Y36.430 E0.00588
G1 X68.297 Y45.973 E0.39759
G1 X68.440 Y45.973 E0.40347
G1 X68.440 Y35.616 E0.82860
G1 X68.902 Y35.616 E0.84755
G1 X68.902 Y45.973 E1.27267
G1 X69.363 Y45.973 E1.29162
G1 X69.363 Y35.616 E1.71675
G1 X69.825 Y35.616 E1.73570
G1 X69.825 Y45.973 E2.16083
G1 X70.287 Y45.973 E2.17978
G1 X70.287 Y35.616 E2.60490
G1 X70.748 Y35.616 E2.62386
G1 X70.748 Y45.973 E3.04898
G1 X71.210 Y45.973 E3.06793
G1 X71.210 Y35.616 E3.49306
G1 X71.672 Y35.616 E3.51201
G1 X71.672 Y45.973 E3.93714
G1 X72.134 Y45.973 E3.95609
G1 X72.134 Y35.616 E4.38121
G1 X72.595 Y35.616 E4.40016
G1 X72.595 Y45.973 E4.82529
G1 X73.057 Y45.973 E4.84424
G1 X73.057 Y35.616 E5.26937
G1 X73.519 Y35.616 E5.28832
G1 X73.519 Y45.973 E5.71345
G1 X73.980 Y45.973 E5.73240
G1 X73.980 Y35.616 E6.15752
G1 X74.442 Y35.616 E6.17647
G1 X74.442 Y45.973 E6.60160
G1 X74.904 Y45.973 E6.62055
G1 X74.904 Y35.616 E7.04568
G1 X75.365 Y35.616 E7.06463
G1 X75.365 Y45.973 E7.48975
G1 X75.827 Y45.973 E7.50871
G1 X75.827 Y35.616 E7.93383
G1 X76.289 Y35.616 E7.95278
G1 X76.289 Y45.973 E8.37791
G1 X76.751 Y45.973 E8.39686
G1 X76.751 Y35.616 E8.82199
G1 X77.212 Y35.616 E8.84094
G1 X77.212 Y45.973 E9.26606
G1 X77.674 Y45.973 E9.28501
G1 X77.674 Y35.616 E9.71014
G1 X78.136 Y35.616 E9.72909
G1 X78.136 Y45.973 E10.15422
G1 X78.597 Y45.973 E10.17317
G1 X78.597 Y35.616 E10.59829
G1 X79.059 Y35.616 E10.61725
G1 X79.059 Y45.973 E11.04237
G1 X79.521 Y45.973 E11.06132
G1 X79.521 Y35.616 E11.48645
G1 X79.982 Y35.616 E11.50540
G1 X79.982 Y45.973 E11.93053
G1 X80.444 Y45.973 E11.94948
G1 X80.444 Y35.616 E12.37460
G1 X80.906 Y35.616 E12.39356
G1 X80.906 Y45.973 E12.81868
G1 Z1.900 F15000.000
G1 F4800
G1 X80.906 Y35.616 E13.24381
G1 X80.444 Y35.616 E13.26276
G1 X80.444 Y45.973 E13.68788
G1 X79.982 Y45.973 E13.70684
G1 X79.982 Y35.616 E14.13196
G1 X79.521 Y35.616 E14.15091
G1 X79.521 Y45.973 E14.57604
G1 X79.059 Y45.973 E14.59499
G1 X79.059 Y35.616 E15.02012
G1 X78.597 Y35.616 E15.03907
G1 X78.597 Y45.973 E15.46419
G1 X78.136 Y45.973 E15.48314
G1 X78.136 Y35.616 E15.90827
G1 X77.674 Y35.616 E15.92722
G1 X77.674 Y45.973 E16.35235
G1 X77.212 Y45.973 E16.37130
G1 X77.212 Y35.616 E16.79643
G1 X76.751 Y35.616 E16.81538
G1 X76.751 Y45.973 E17.24050
G1 X76.289 Y45.973 E17.25945
G1 X76.289 Y35.616 E17.68458
G1 X75.827 Y35.616 E17.70353
G1 X75.827 Y45.973 E18.12866
G1 X75.365 Y45.973 E18.14761
G1 X75.365 Y35.616 E18.57273
G1 X74.904 Y35.616 E18.59169
G1 X74.904 Y45.973 E19.01681
G1 X74.442 Y45.973 E19.03576
G1 X74.442 Y35.616 E19.46089
G1 X73.980 Y35.616 E19.47984
G1 X73.980 Y45.973 E19.90497
G1 X73.519 Y45.973 E19.92392
G1 X73.519 Y35.616 E20.34904
G1 X73.057 Y35.616 E20.36799
G1 X73.057 Y45.973 E20.79312
G1 X72.595 Y45.973 E20.81207
G1 X72.595 Y35.616 E21.23720
G1 X72.134 Y35.616 E21.25615
G1 X72.134 Y45.973 E21.68128
G1 X71.672 Y45.973 E21.70023
G1 X71.672 Y35.616 E22.12535
G1 X71.210 Y35.616 E22.14430
G1 X71.210 Y45.973 E22.56943
G1 X70.748 Y45.973 E22.58838
G1 X70.748 Y35.616 E23.01351
G1 Z2.100 F15000.000
G92 E0
G1 X73.057 Y36.430 F15000.000
G1 F4800
G1 X72.869 Y36.430 E0.00772
G1 X72.869 Y45.973 E0.39943
G1 X73.057 Y45.973 E0.40716
G1 X73.057 Y35.616 E0.83228
G1 X73.519 Y35.616 E0.85123
G1 X73.519 Y45.973 E1.27636
G1 X73.980 Y45.973 E1.29531
G1 X73.980 Y35.616 E1.72044
G1 X74.442 Y35.616 E1.73939
G1 X74.442 Y45.973 E2.16452
G1 X74.904 Y45.973 E2.18347
G1 X74.904 Y35.616 E2.60859
G1 X75.365 Y35.616 E2.62754
G1 X75.365 Y45.973 E3.05267
G1 X75.827 Y45.973 E3.07162
G1 X75.827 Y35.616 E3.49675
G1 X76.289 Y35.616 E3.51570
G1 X76.289 Y45.973 E3.94082
G1 X76.751 Y45.973 E3.95978
G1 X76.751 Y35.616 E4.38490
G1 X77.212 Y35.616 E4.40385
G1 X77.212 Y45.973 E4.82898
G1 X77.674 Y45.973 E4.84793
G1 X77.674 Y35.616 E5.27306
G1 X78.136 Y35.616 E5.29201
G1 X78.136 Y45.973 E5.71713
G1 X78.597 Y45.973 E5.73608
G1 X78.597 Y35.616 E6.16121
G1 X79.059 Y35.616 E6.18016
G1 X79.059 Y45.973 E6.60529
G1 X79.521 Y45.973 E6.62424
G1 X79.521 Y35.616 E7.04937
G1 X79.982 Y35.616 E7.06832
G1 X79.982 Y45.973 E7.49344
G1 X80.444 Y45.973 E7.51239
G1 X80.444 Y35.616 E7.93752
G1 X80.906 Y35.616 E7.95647
G1 X80.906 Y45.973 E8.38160
G1 Z2.300 F15000.000
G1 F4800
G1 X80.906 Y35.616 E8.80672
G1 X80.444 Y35.616 E8.82567
G1 X80.444 Y45.973 E9.25080
G1 X79.982 Y45.973 E9.26975
G1 X79.982 Y35.616 E9.69488
G1 X79.521 Y35.616 E9.71383
G1 X79.521 Y45.973 E10.13895
G1 X79.059 Y45.973 E10.15791
G1 X79.059 Y35.616 E10.58303
G1 X78.597 Y35.616 E10.60198
G1 X78.597 Y45.973 E11.02711
G1 X78.136 Y45.973 E11.04606
G1 X78.136 Y35.616 E11.47119
G1 X77.674 Y35.616 E11.49014
G1 X77.674 Y45.973 E11.91526
G1 X77.212 Y45.973 E11.93422
G1 X77.212 Y35.616 E12.35934
G1 X76.751 Y35.616 E12.37829
G1 X76.751 Y45.973 E12.80342
G1 X76.289 Y45.973 E12.82237
G1 X76.289 Y35.616 E13.24750
G1 X75.827 Y35.616 E13.26645
G1 X75.827 Y45.973 E13.69157
G1 X75.365 Y45.973 E13.71052
G1 X75.365 Y35.616 E14.13565
G1 Z2.500 F15000.000
G92 E0
G1 X77.674 Y36.430 F15000.000
G1 F4800
G1 X77.441 Y36.430 E0.00957
G1 X77.441 Y45.973 E0.40128
G1 X77.674 Y45.973 E0.41085
G1 X77.674 Y35.616 E0.83597
G1 X78.136 Y35.616 E0.85492
G1 X78.136 Y45.973 E1.28005
G1 X78.597 Y45.973 E1.29900
G1 X78.597 Y35.616 E1.72413
G1 X79.059 Y35.616 E1.74308
G1 X79.059 Y45.973 E2.16820
G1 X79.521 Y45.973 E2.18715
G1 X79.521 Y35.616 E2.61228
G1 X79.982 Y35.616 E2.63123
G1 X79.982 Y45.973 E3.05636
G1 X80.444 Y45.973 E3.07531
G1 X80.444 Y35.616 E3.50044
G1 X80.906 Y35.616 E3.51939
G1 X80.906 Y45.973 E3.94451
G1 Z2.700 F15000.000
G1 F4800
G1 X80.906 Y35.616 E4.36964
G1 X80.444 Y35.616 E4.38859
G1 X80.444 Y45.973 E4.81372
G1 X79.982 Y45.973 E4.83267
G1 X79.982 Y35.616 E5.25779
G92 E0
; Filament-specific end gcode 
;END gcode for filament

G92 E0
G1 E-15 F9000
M104 S0 T0 ; turn off temperature
M140 S0 ; turn off bed
G1 X320 Y290 F10000 ; lower bed
M84 ; disable motors
; filament used = 91.0mm (0.2cm3)
; total filament cost = 0.0

; avoid_crossing_perimeters = 0
; bed_shape = 0x0,300x0,300x300,0x300
; bed_temperature = 0
; before_layer_gcode = 
; between_objects_gcode = 
; bridge_acceleration = 0
; bridge_fan_speed = 100
; brim_connections_width = 0
; brim_width = 0
; complete_objects = 0
; cooling = 0
; default_acceleration = 0
; disable_fan_first_layers = 1
; duplicate_distance = 6
; end_filament_gcode = "; Filament-specific end gcode \n;END gcode for filament\n"
; end_gcode = G92 E0\nG1 E-15 F9000\nM104 S0 T0 ; turn off temperature\nM140 S0 ; turn off bed\nG1 X320 Y290 F10000 ; lower bed\nM84 ; disable motors
; extruder_clearance_height = 20
; extruder_clearance_radius = 20
; extruder_offset = 0x0
; extrusion_axis = E
; extrusion_multiplier = 1.08
; fan_always_on = 0
; fan_below_layer_time = 60
; filament_colour = #FFFFFF
; filament_cost = 0
; filament_density = 0
; filament_diameter = 1.75
; filament_max_volumetric_speed = 0
; filament_notes = ""
; first_layer_acceleration = 0
; first_layer_bed_temperature = 0
; first_layer_extrusion_width = 200%
; first_layer_speed = 60
; first_layer_temperature = 200
; gcode_arcs = 0
; gcode_comments = 0
; gcode_flavor = reprap
; has_heatbed = 0
; infill_acceleration = 0
; infill_first = 0
; interior_brim_width = 0
; label_printed_objects = 0
; layer_gcode = 
; max_fan_speed = 100
; max_layer_height = 0.4
; max_print_speed = 200
; max_volumetric_speed = 0
; min_fan_speed = 60
; min_layer_height = 0.15
; min_print_speed = 10
; min_skirt_length = 0
; notes = 
; nozzle_diameter = 0.4
; only_retract_when_crossing_perimeters = 0
; ooze_prevention = 0
; output_filename_format = [input_filename_base].gcode
; perimeter_acceleration = 0
; post_process = 
; pressure_advance = 0
; printer_notes = 
; resolution = 0
; retract_before_travel = 2
; retract_layer_change = 0
; retract_length = 0
; retract_length_toolchange = 10
; retract_lift = 1
; retract_lift_above = 0
; retract_lift_below = 0
; retract_restart_extra = 0
; retract_restart_extra_toolchange = 0
; retract_speed = 40
; skirt_distance = 3
; skirt_height = 1
; skirts = 0
; slowdown_below_layer_time = 30
; spiral_vase = 0
; standby_temperature_delta = 0
; start_filament_gcode = "; Filament gcode\n"
; start_gcode = G28 ; home all axes\nG1 X150 Y150 Z50 F10000
; temperature = 200
; threads = 4
; toolchange_gcode = 
; travel_speed = 250
; use_firmware_retraction = 0
; use_relative_e_distances = 0
; use_set_and_wait_bed = 0
; use_set_and_wait_extruder = 0
; use_volumetric_e = 0
; vibration_limit = 0
; wipe = 0
; z_offset = 1
; z_steps_per_mm = 0
; adaptive_slicing = 0
; adaptive_slicing_quality = 75%
; dont_support_bridges = 1
; extrusion_width = 0
; first_layer_height = 0.3
; infill_only_where_needed = 0
; interface_shells = 0
; layer_height = 0.2
; match_horizontal_surfaces = 0
; raft_layers = 0
; regions_overlap = 0
; seam_position = aligned
; sequential_print_priority = 0
; support_material = 0
; support_material_angle = 0
; support_material_buildplate_only = 0
; support_material_contact_distance = 0.2
; support_material_enforce_layers = 0
; support_material_extruder = 1
; support_material_extrusion_width = 0
; support_material_interface_extruder = 1
; support_material_interface_extrusion_width = 0
; support_material_interface_layers = 3
; support_material_interface_spacing = 0
; support_material_interface_speed = 100%
; support_material_max_layers = 0
; support_material_pattern = pillars
; support_material_pillar_size = 2.5
; support_material_pillar_spacing = 10
; support_material_spacing = 2.5
; support_material_speed = 80
; support_material_threshold = 30
; xy_size_compensation = 0
; bottom_infill_pattern = rectilinear
; bottom_solid_layers = 0
; bridge_flow_ratio = 1
; bridge_speed = 60
; external_perimeter_extrusion_width = 0
; external_perimeter_speed = 45%
; external_perimeters_first = 0
; extra_perimeters = 1
; fill_angle = 90
; fill_density = 99%
; fill_gaps = 1
; fill_pattern = alignedrectilinear
; gap_fill_speed = 20
; infill_every_layers = 1
; infill_extruder = 1
; infill_extrusion_width = 0
; infill_overlap = 100%
; infill_speed = 80
; min_shell_thickness = 0
; min_top_bottom_shell_thickness = 0
; overhangs = 1
; perimeter_extruder = 1
; perimeter_extrusion_width = 0.4
; perimeter_speed = 60
; perimeters = 0
; small_perimeter_speed = 30%
; solid_infill_below_area = 0
; solid_infill_every_layers = 0
; solid_infill_extruder = 1
; solid_infill_extrusion_width = 0
; solid_infill_speed = 30%
; thin_walls = 1
; top_infill_extrusion_width = 150%
; top_infill_pattern = rectilinear
; top_solid_infill_speed = 80%
; top_solid_layers = 0

