; generated by Slic3r 1.3.1-dev on 2019-02-26 at 10:55:55

; external perimeters extrusion width = 0.88mm (6.61mm^3/s)
; perimeters extrusion width = 0.40mm (6.04mm^3/s)
; infill extrusion width = 1.00mm (22.45mm^3/s)
; solid infill extrusion width = 1.12mm (7.60mm^3/s)
; top infill extrusion width = 0.45mm (2.22mm^3/s)

M107
M190 S80 ; set bed temperature and wait for it to be reached
M104 S230 ; set temperature
G28 ; home all axes
G1 X150 Y150 Z50 F10000
; Filament gcode
; layer 1
M109 S230 ; set temperature and wait for it to be reached
G21 ; set units to millimeters
G90 ; use absolute coordinates
M82 ; use absolute distances for extrusion
G92 E0
G92 E0
G1 E-6.00000 F2400.00000
G92 E0
G1 Z1.000 F15000.000
G1 X85.182 Y82.427 F15000.000
G1 Z0.300 F15000.000
G1 E6.00000 F2400.00000
G1 F3600
G1 X85.532 Y82.083 E6.03282
G1 X86.133 Y81.551 E6.08644
G1 X87.047 Y80.864 E6.16277
G1 X87.450 Y80.601 E6.19496
G1 X88.152 Y80.193 E6.24922
G1 X89.183 Y79.700 E6.32555
G1 X89.630 Y79.521 E6.35774
G1 X90.399 Y79.259 E6.41201
G1 X91.507 Y78.979 E6.48834
G1 X91.981 Y78.892 E6.52051
G1 X92.786 Y78.787 E6.57478
G1 X93.927 Y78.730 E6.65111
G1 X94.418 Y78.739 E6.68387
G1 X95.219 Y78.795 E6.73754
G1 X96.350 Y78.964 E6.81390
G1 X97.141 Y79.148 E6.86815
G1 X97.603 Y79.281 E6.90033
G1 X98.678 Y79.670 E6.97668
G1 X99.417 Y80.007 E7.03094
G1 X99.845 Y80.229 E7.06313
G1 X100.821 Y80.822 E7.13946
G1 X101.223 Y81.104 E7.17226
G1 X101.855 Y81.599 E7.22590
G1 X102.696 Y82.373 E7.30223
G1 X103.028 Y82.722 E7.33442
G1 X103.556 Y83.339 E7.38868
G1 X104.048 Y83.998 E7.44360
G1 X104.651 Y84.957 E7.51928
G1 X105.028 Y85.676 E7.57353
G1 X105.229 Y86.114 E7.60573
G1 X105.636 Y87.182 E7.68205
G1 X105.863 Y87.962 E7.73632
G1 X105.974 Y88.431 E7.76851
G1 X106.162 Y89.558 E7.84483
G1 X106.210 Y90.037 E7.87702
G1 X106.248 Y90.848 E7.93128
G1 X106.210 Y91.990 E8.00762
G1 X106.161 Y92.479 E8.04045
G1 X106.039 Y93.273 E8.09406
G1 X105.777 Y94.385 E8.17040
G1 X105.636 Y94.845 E8.20258
G1 X105.357 Y95.608 E8.25683
G1 X104.881 Y96.647 E8.33318
G1 X104.651 Y97.071 E8.36536
G1 X104.228 Y97.764 E8.41961
G1 X103.556 Y98.688 E8.49596
G1 X103.028 Y99.305 E8.55022
G1 X102.696 Y99.654 E8.58240
G1 X101.855 Y100.428 E8.65874
G1 X101.480 Y100.730 E8.69092
G1 X100.821 Y101.206 E8.74518
G1 X99.845 Y101.799 E8.82152
G1 X99.409 Y102.025 E8.85434
G1 X98.678 Y102.357 E8.90795
G1 X97.604 Y102.746 E8.98429
G1 X96.820 Y102.961 E9.03855
G1 X96.350 Y103.063 E9.07074
G1 X95.219 Y103.233 E9.14708
G1 X94.730 Y103.273 E9.17992
G1 X93.928 Y103.297 E9.23351
G1 X92.786 Y103.240 E9.30986
G1 X92.308 Y103.185 E9.34203
G1 X91.507 Y103.049 E9.39627
G1 X90.399 Y102.768 E9.47264
G1 X89.932 Y102.616 E9.50548
G1 X89.184 Y102.328 E9.55903
G1 X88.446 Y101.987 E9.61333
G1 X87.450 Y101.427 E9.68968
G1 X87.047 Y101.163 E9.72186
G1 X86.391 Y100.684 E9.77611
G1 X85.525 Y99.938 E9.85245
G1 X85.175 Y99.593 E9.88531
G1 X84.634 Y99.001 E9.93889
G1 X83.932 Y98.099 E10.01524
G1 X83.662 Y97.701 E10.04737
G1 X83.242 Y97.005 E10.10165
G1 X82.732 Y95.982 E10.17801
G1 X82.546 Y95.538 E10.21020
G1 X82.272 Y94.774 E10.26442
G1 X81.973 Y93.671 E10.34080
G1 X81.878 Y93.198 E10.37298
G1 X81.760 Y92.395 E10.42723
G1 X81.684 Y91.255 E10.50358
G1 X81.695 Y90.442 E10.55784
G1 X81.727 Y89.962 E10.59003
G1 X81.878 Y88.829 E10.66636
G1 X82.049 Y88.035 E10.72061
G1 X82.175 Y87.570 E10.75281
G1 X82.546 Y86.489 E10.82913
G1 X82.870 Y85.744 E10.88340
G1 X83.085 Y85.313 E10.91558
G1 X83.661 Y84.327 E10.99191
G1 X83.932 Y83.928 E11.02409
G1 X84.422 Y83.281 E11.07836
G1 X85.099 Y82.514 E11.14668
G1 X85.570 Y82.796 F15000.000
G1 F3600
G1 X85.895 Y82.477 E11.17714
G1 X86.469 Y81.968 E11.22839
G1 X87.354 Y81.303 E11.30236
G1 X87.728 Y81.059 E11.33217
G1 X88.399 Y80.668 E11.38407
G1 X89.398 Y80.190 E11.45804
G1 X89.813 Y80.024 E11.48786
G1 X90.548 Y79.774 E11.53976
G1 X91.621 Y79.502 E11.61372
G1 X92.070 Y79.420 E11.64419
G1 X92.831 Y79.321 E11.69544
G1 X93.936 Y79.266 E11.76940
G1 X94.393 Y79.274 E11.79989
G1 X95.157 Y79.327 E11.85110
G1 X95.937 Y79.433 E11.90368
G1 X97.009 Y79.667 E11.97698
G1 X97.438 Y79.791 E12.00679
G1 X98.172 Y80.045 E12.05868
G1 X99.186 Y80.490 E12.13266
G1 X99.582 Y80.696 E12.16249
G1 X100.252 Y81.089 E12.21437
G1 X101.158 Y81.725 E12.28834
G1 X101.506 Y82.005 E12.31816
G1 X102.085 Y82.523 E12.37006
G1 X102.848 Y83.325 E12.44403
G1 X103.133 Y83.668 E12.47385
G1 X103.599 Y84.290 E12.52573
G1 X104.189 Y85.227 E12.59971
G1 X104.549 Y85.915 E12.65160
G1 X104.735 Y86.321 E12.68143
G1 X105.129 Y87.356 E12.75538
G1 X105.346 Y88.102 E12.80729
G1 X105.449 Y88.536 E12.83711
G1 X105.631 Y89.628 E12.91107
G1 X105.675 Y90.072 E12.94089
G1 X105.712 Y90.848 E12.99279
G1 X105.675 Y91.955 E13.06675
G1 X105.631 Y92.399 E13.09656
G1 X105.514 Y93.167 E13.14846
G1 X105.260 Y94.245 E13.22244
G1 X105.129 Y94.672 E13.25226
G1 X104.863 Y95.401 E13.30414
G1 X104.401 Y96.408 E13.37812
G1 X104.189 Y96.800 E13.40794
G1 X103.784 Y97.463 E13.45982
G1 X103.133 Y98.359 E13.53380
G1 X102.628 Y98.949 E13.58569
G1 X102.320 Y99.272 E13.61551
G1 X101.506 Y100.022 E13.68948
G1 X101.158 Y100.302 E13.71930
G1 X100.528 Y100.757 E13.77119
G1 X99.582 Y101.332 E13.84516
G1 X99.186 Y101.538 E13.87496
G1 X98.479 Y101.860 E13.92686
G1 X97.438 Y102.236 E14.00084
G1 X96.689 Y102.441 E14.05274
G1 X96.253 Y102.537 E14.08255
G1 X95.158 Y102.701 E14.15653
G1 X94.713 Y102.738 E14.18633
G1 X93.936 Y102.761 E14.23823
G1 X92.830 Y102.707 E14.31221
G1 X92.387 Y102.655 E14.34202
G1 X91.622 Y102.525 E14.39389
G1 X90.548 Y102.253 E14.46789
G1 X90.115 Y102.112 E14.49832
G1 X89.399 Y101.838 E14.54955
G1 X88.693 Y101.512 E14.60148
G1 X87.728 Y100.969 E14.67547
G1 X87.354 Y100.725 E14.70528
G1 X86.727 Y100.267 E14.75716
G1 X85.888 Y99.544 E14.83114
G1 X85.570 Y99.231 E14.86096
G1 X85.045 Y98.658 E14.91285
G1 X84.365 Y97.784 E14.98683
G1 X84.110 Y97.407 E15.01726
G1 X83.713 Y96.750 E15.06851
G1 X83.219 Y95.759 E15.14251
G1 X83.046 Y95.348 E15.17232
G1 X82.784 Y94.617 E15.22418
G1 X82.494 Y93.548 E15.29819
G1 X82.406 Y93.110 E15.32801
G1 X82.293 Y92.342 E15.37990
G1 X82.220 Y91.237 E15.45387
G1 X82.231 Y90.460 E15.50577
G1 X82.260 Y90.015 E15.53559
G1 X82.406 Y88.917 E15.60955
G1 X82.570 Y88.158 E15.66145
G1 X82.687 Y87.727 E15.69127
G1 X83.046 Y86.680 E15.76523
G1 X83.356 Y85.968 E15.81713
G1 X83.556 Y85.568 E15.84695
G1 X84.115 Y84.613 E15.92091
G1 X84.559 Y83.976 E15.97281
G1 X84.833 Y83.623 E16.00263
G1 X85.487 Y82.883 E16.06858
G1 X85.958 Y83.166 F15000.000
G1 F3600
G1 X86.251 Y82.878 E16.09602
G1 X86.805 Y82.385 E16.14556
G1 X87.662 Y81.741 E16.21716
G1 X88.006 Y81.516 E16.24461
G1 X88.646 Y81.143 E16.29414
G1 X89.613 Y80.681 E16.36575
G1 X89.995 Y80.528 E16.39320
G1 X90.697 Y80.289 E16.44274
G1 X91.735 Y80.025 E16.51433
G1 X92.149 Y79.950 E16.54243
G1 X92.875 Y79.855 E16.59131
G1 X93.945 Y79.802 E16.66291
G1 X94.365 Y79.809 E16.69095
G1 X95.096 Y79.859 E16.73988
G1 X96.156 Y80.018 E16.81150
G1 X96.878 Y80.186 E16.86102
G1 X97.272 Y80.300 E16.88847
G1 X98.280 Y80.665 E16.96008
G1 X98.955 Y80.973 E17.00961
G1 X99.319 Y81.163 E17.03707
G1 X100.236 Y81.719 E17.10867
G1 X100.836 Y82.153 E17.15819
G1 X101.156 Y82.411 E17.18564
G1 X101.945 Y83.137 E17.25725
G1 X102.448 Y83.682 E17.30678
G1 X102.711 Y83.997 E17.33423
G1 X103.155 Y84.591 E17.38375
G1 X103.727 Y85.498 E17.45536
G1 X104.070 Y86.155 E17.50489
G1 X104.241 Y86.528 E17.53235
G1 X104.622 Y87.530 E17.60394
G1 X104.743 Y87.923 E17.63139
G1 X104.924 Y88.642 E17.68093
G1 X105.100 Y89.699 E17.75253
G1 X105.141 Y90.108 E17.77998
G1 X105.176 Y90.848 E17.82951
G1 X105.141 Y91.920 E17.90111
G1 X105.099 Y92.338 E17.92923
G1 X104.989 Y93.061 E17.97809
G1 X104.743 Y94.105 E18.04970
G1 X104.623 Y94.498 E18.07715
G1 X104.369 Y95.194 E18.12667
G1 X103.922 Y96.169 E18.19828
G1 X103.727 Y96.530 E18.22573
G1 X103.341 Y97.163 E18.27525
G1 X102.711 Y98.030 E18.34687
G1 X102.228 Y98.593 E18.39639
G1 X101.945 Y98.890 E18.42384
G1 X101.156 Y99.616 E18.49544
G1 X100.836 Y99.874 E18.52290
G1 X100.236 Y100.309 E18.57243
G1 X99.319 Y100.865 E18.64403
G1 X98.946 Y101.059 E18.67213
G1 X98.280 Y101.362 E18.72100
G1 X97.272 Y101.727 E18.79261
G1 X96.557 Y101.922 E18.84214
G1 X96.156 Y102.010 E18.86959
G1 X95.096 Y102.169 E18.94120
G1 X94.686 Y102.203 E18.96864
G1 X93.945 Y102.226 E19.01817
G1 X92.875 Y102.173 E19.08978
G1 X92.467 Y102.125 E19.11723
G1 X91.736 Y102.002 E19.16674
G1 X90.696 Y101.739 E19.23836
G1 X90.297 Y101.609 E19.26643
G1 X89.614 Y101.347 E19.31530
G1 X88.940 Y101.037 E19.36486
G1 X88.006 Y100.511 E19.43648
G1 X87.662 Y100.286 E19.46392
G1 X87.063 Y99.850 E19.51344
G1 X86.251 Y99.150 E19.58506
G1 X85.958 Y98.862 E19.61251
G1 X85.457 Y98.316 E19.66203
G1 X84.798 Y97.470 E19.73365
G1 X84.563 Y97.122 E19.76171
G1 X84.184 Y96.495 E19.81059
G1 X83.706 Y95.536 E19.88222
G1 X83.547 Y95.157 E19.90967
G1 X83.296 Y94.460 E19.95917
G1 X83.015 Y93.425 E20.03081
G1 X82.934 Y93.022 E20.05826
G1 X82.826 Y92.289 E20.10778
G1 X82.755 Y91.219 E20.17939
G1 X82.766 Y90.478 E20.22892
G1 X82.793 Y90.068 E20.25638
G1 X82.934 Y89.005 E20.32797
G1 X83.091 Y88.281 E20.37750
G1 X83.199 Y87.884 E20.40496
G1 X83.547 Y86.870 E20.47656
G1 X83.843 Y86.191 E20.52609
G1 X84.027 Y85.823 E20.55354
G1 X84.568 Y84.898 E20.62514
G1 X84.993 Y84.290 E20.67467
G1 X85.245 Y83.966 E20.70212
G1 X85.875 Y83.253 E20.76571
G1 X86.346 Y83.535 F15000.000
G1 F3600
G1 X87.141 Y82.803 E20.83794
G1 X87.969 Y82.180 E20.90717
G1 X88.894 Y81.619 E20.97940
G1 X89.828 Y81.171 E21.04863
G1 X90.845 Y80.803 E21.12087
G1 X91.850 Y80.549 E21.19010
G1 X92.919 Y80.388 E21.26233
G1 X93.954 Y80.337 E21.33156
G1 X95.034 Y80.391 E21.40378
G1 X96.059 Y80.544 E21.47303
G1 X97.107 Y80.810 E21.54525
G1 X98.081 Y81.162 E21.61449
G1 X99.057 Y81.629 E21.68673
G1 X99.943 Y82.167 E21.75596
G1 X100.807 Y82.817 E21.82818
G1 X101.569 Y83.519 E21.89742
G1 X102.048 Y84.038 E21.94459
G1 X102.712 Y84.891 E22.01681
G1 X103.264 Y85.768 E22.08605
G1 X103.747 Y86.735 E22.15829
G1 X104.116 Y87.704 E22.22751
G1 X104.399 Y88.747 E22.29975
G1 X104.569 Y89.770 E22.36898
G1 X104.641 Y90.848 E22.44121
G1 X104.606 Y91.884 E22.51044
G1 X104.464 Y92.956 E22.58267
G1 X104.226 Y93.965 E22.65191
G1 X103.875 Y94.987 E22.72413
G1 X103.443 Y95.929 E22.79337
G1 X102.897 Y96.863 E22.86559
G1 X102.288 Y97.701 E22.93484
G1 X101.569 Y98.509 E23.00706
G1 X100.807 Y99.210 E23.07630
G1 X99.943 Y99.860 E23.14853
G1 X99.057 Y100.398 E23.21776
G1 X98.082 Y100.865 E23.28998
G1 X97.107 Y101.218 E23.35923
G1 X96.059 Y101.483 E23.43145
G1 X95.034 Y101.637 E23.50069
G1 X93.954 Y101.690 E23.57291
G1 X92.919 Y101.639 E23.64216
G1 X91.850 Y101.479 E23.71436
G1 X90.845 Y101.224 E23.78362
G1 X89.829 Y100.857 E23.85580
G1 X89.178 Y100.557 E23.90367
G1 X88.284 Y100.053 E23.97225
G1 X87.399 Y99.432 E24.04446
G1 X86.613 Y98.756 E24.11371
G1 X85.868 Y97.973 E24.18593
G1 X85.232 Y97.155 E24.25518
G1 X84.655 Y96.240 E24.32738
G1 X84.192 Y95.313 E24.39664
G1 X83.808 Y94.303 E24.46883
G1 X83.537 Y93.302 E24.53811
G1 X83.359 Y92.236 E24.61032
G1 X83.290 Y91.201 E24.67957
G1 X83.326 Y90.121 E24.75180
G1 X83.463 Y89.094 E24.82103
G1 X83.711 Y88.041 E24.89326
G1 X84.047 Y87.061 E24.96249
G1 X84.498 Y86.078 E25.03472
G1 X85.021 Y85.184 E25.10395
G1 X85.657 Y84.309 E25.17618
G1 X86.263 Y83.622 E25.23741
G1 X86.734 Y83.904 F15000.000
G1 F3600
G1 X87.477 Y83.220 E25.30491
G1 X88.277 Y82.618 E25.37177
G1 X89.141 Y82.094 E25.43927
G1 X90.044 Y81.662 E25.50614
G1 X90.994 Y81.318 E25.57365
G1 X91.964 Y81.072 E25.64051
G1 X92.963 Y80.922 E25.70801
G1 X93.963 Y80.873 E25.77488
G1 X94.972 Y80.923 E25.84237
G1 X95.962 Y81.071 E25.90925
G1 X96.941 Y81.319 E25.97674
G1 X97.883 Y81.660 E26.04362
G1 X98.794 Y82.096 E26.11112
G1 X99.650 Y82.616 E26.17799
G1 X100.457 Y83.223 E26.24548
G1 X101.194 Y83.901 E26.31235
G1 X101.648 Y84.394 E26.35715
G1 X102.268 Y85.191 E26.42464
G1 X102.802 Y86.038 E26.49152
G1 X103.253 Y86.942 E26.55903
G1 X103.609 Y87.878 E26.62588
G1 X103.874 Y88.853 E26.69339
G1 X104.038 Y89.840 E26.76025
G1 X104.105 Y90.848 E26.82776
G1 X104.072 Y91.849 E26.89463
G1 X103.939 Y92.850 E26.96212
G1 X103.709 Y93.825 E27.02899
G1 X103.381 Y94.780 E27.09649
G1 X102.964 Y95.690 E27.16336
G1 X102.454 Y96.562 E27.23085
G1 X101.865 Y97.372 E27.29773
G1 X101.194 Y98.127 E27.36522
G1 X100.457 Y98.805 E27.43210
G1 X99.650 Y99.412 E27.49959
G1 X98.794 Y99.931 E27.56647
G1 X97.883 Y100.368 E27.63396
G1 X96.941 Y100.708 E27.70083
G1 X95.962 Y100.956 E27.76833
G1 X94.972 Y101.105 E27.83520
G1 X93.963 Y101.155 E27.90269
G1 X92.963 Y101.105 E27.96957
G1 X91.964 Y100.955 E28.03705
G1 X90.994 Y100.710 E28.10394
G1 X90.044 Y100.366 E28.17140
G1 X89.434 Y100.086 E28.21622
G1 X88.562 Y99.595 E28.28311
G1 X87.735 Y99.015 E28.35059
G1 X86.976 Y98.362 E28.41747
G1 X86.280 Y97.630 E28.48497
G1 X85.665 Y96.840 E28.55184
G1 X85.127 Y95.985 E28.61931
G1 X84.679 Y95.090 E28.68621
G1 X84.320 Y94.146 E28.75368
G1 X84.058 Y93.179 E28.82058
G1 X83.892 Y92.183 E28.88807
G1 X83.826 Y91.184 E28.95494
G1 X83.859 Y90.174 E29.02245
G1 X83.991 Y89.182 E29.08931
G1 X84.223 Y88.198 E29.15682
G1 X84.548 Y87.252 E29.22368
G1 X84.969 Y86.333 E29.29118
G1 X85.474 Y85.469 E29.35804
G1 X86.068 Y84.652 E29.42555
G1 X86.651 Y83.991 E29.48440
G1 X87.122 Y84.273 F15000.000
G1 F3600
G1 X87.813 Y83.637 E29.54717
G1 X88.585 Y83.057 E29.61167
G1 X89.388 Y82.569 E29.67444
G1 X90.259 Y82.152 E29.73894
G1 X91.142 Y81.832 E29.80172
G1 X92.078 Y81.595 E29.86622
G1 X93.007 Y81.456 E29.92899
G1 X93.972 Y81.408 E29.99349
G1 X94.910 Y81.455 E30.05625
G1 X95.865 Y81.598 E30.12077
G1 X96.776 Y81.829 E30.18352
G1 X97.684 Y82.157 E30.24804
G1 X98.531 Y82.563 E30.31081
G1 X99.357 Y83.064 E30.37531
G1 X100.108 Y83.629 E30.43807
G1 X100.818 Y84.283 E30.50258
G1 X101.443 Y84.984 E30.56535
G1 X101.830 Y85.500 E30.60844
G1 X102.340 Y86.309 E30.67229
G1 X102.759 Y87.149 E30.73506
G1 X103.103 Y88.052 E30.79955
G1 X103.348 Y88.959 E30.86233
G1 X103.507 Y89.911 E30.92683
G1 X103.569 Y90.848 E30.98960
G1 X103.538 Y91.813 E31.05410
G1 X103.414 Y92.745 E31.11687
G1 X103.192 Y93.685 E31.18138
G1 X102.887 Y94.573 E31.24414
G1 X102.485 Y95.451 E31.30865
G1 X102.010 Y96.262 E31.37141
G1 X101.443 Y97.043 E31.43592
G1 X100.818 Y97.745 E31.49868
G1 X100.108 Y98.399 E31.56319
G1 X99.357 Y98.964 E31.62596
G1 X98.531 Y99.465 E31.69046
G1 X97.684 Y99.870 E31.75323
G1 X96.776 Y100.199 E31.81773
G1 X95.865 Y100.430 E31.88050
G1 X95.239 Y100.535 E31.92294
G1 X94.276 Y100.614 E31.98744
G1 X93.337 Y100.599 E32.05021
G1 X92.378 Y100.487 E32.11471
G1 X91.460 Y100.287 E32.17748
G1 X90.542 Y99.988 E32.24199
G1 X89.681 Y99.611 E32.30474
G1 X88.840 Y99.137 E32.36926
G1 X88.071 Y98.598 E32.43202
G1 X87.339 Y97.968 E32.49653
G1 X86.691 Y97.287 E32.55929
G1 X86.098 Y96.525 E32.62380
G1 X85.598 Y95.730 E32.68655
G1 X85.166 Y94.866 E32.75107
G1 X84.832 Y93.989 E32.81381
G1 X84.579 Y93.056 E32.87835
G1 X84.425 Y92.130 E32.94111
G1 X84.361 Y91.166 E33.00562
G1 X84.392 Y90.227 E33.06839
G1 X84.519 Y89.270 E33.13289
G1 X84.735 Y88.355 E33.19566
G1 X85.048 Y87.442 E33.26016
G1 X85.440 Y86.588 E33.32293
G1 X85.927 Y85.755 E33.38743
G1 X86.480 Y84.994 E33.45020
G1 X87.039 Y84.360 E33.50669
G1 X87.510 Y84.643 F15000.000
G1 F3600
G1 X88.149 Y84.054 E33.56473
G1 X88.892 Y83.495 E33.62687
G1 X89.635 Y83.044 E33.68490
G1 X90.474 Y82.643 E33.74704
G1 X91.291 Y82.347 E33.80509
G1 X92.192 Y82.119 E33.86722
G1 X93.052 Y81.990 E33.92526
G1 X93.981 Y81.944 E33.98740
G1 X94.848 Y81.987 E34.04543
G1 X95.768 Y82.125 E34.10758
G1 X96.610 Y82.338 E34.16561
G1 X97.485 Y82.654 E34.22775
G1 X98.269 Y83.030 E34.28579
G1 X99.064 Y83.512 E34.34793
G1 X99.758 Y84.034 E34.40596
G1 X100.442 Y84.664 E34.46810
G1 X101.020 Y85.313 E34.52614
G1 X101.387 Y85.800 E34.56687
G1 X101.877 Y86.579 E34.62835
G1 X102.265 Y87.356 E34.68639
G1 X102.596 Y88.225 E34.74852
G1 X102.823 Y89.064 E34.80657
G1 X102.976 Y89.982 E34.86870
G1 X103.034 Y90.848 E34.92674
G1 X103.003 Y91.778 E34.98887
G1 X102.888 Y92.639 E35.04691
G1 X102.675 Y93.545 E35.10905
G1 X102.393 Y94.366 E35.16709
G1 X102.005 Y95.212 E35.22923
G1 X101.567 Y95.962 E35.28726
G1 X101.020 Y96.714 E35.34941
G1 X100.442 Y97.363 E35.40744
