; generated by Slic3r 1.3.1-dev on 2019-07-19 at 10:17:38

; external perimeters extrusion width = 0.44mm (2.61mm^3/s)
; perimeters extrusion width = 0.40mm (5.20mm^3/s)
; infill extrusion width = 0.50mm (8.93mm^3/s)
; solid infill extrusion width = 0.56mm (3.02mm^3/s)
; top infill extrusion width = 0.38mm (1.54mm^3/s)

M107
M104 S230 ; set temperature
G28 ; home all axes
G1 X150 Y150 Z50 F10000
; Filament gcode
; layer 1
M109 S230 ; set temperature and wait for it to be reached
G21 ; set units to millimeters
G90 ; use absolute coordinates
M82 ; use absolute distances for extrusion
G92 E0
G92 E0
G1 Z1.350 F15000.000
G1 X73.918 Y44.731 F15000.000
G1 F600
G1 Z1.600 F15000.000
G1 X75.085 Y45.360 F15000.000
G1 F600
G1 X75.019 Y45.460 E0.95462
G1 X74.919 Y45.522 E0.95934
G1 X74.817 Y45.537 E0.96350
G1 X74.718 Y45.517 E0.96753
G1 X74.620 Y45.449 E0.97234
G1 X74.582 Y45.398 E0.97489
G1 X74.548 Y45.238 E0.98143
G1 X74.558 Y45.182 E0.98373
G1 X74.644 Y45.051 E0.99002
G1 X74.730 Y44.999 E0.99406
G1 X74.840 Y44.983 E0.99852
G1 X74.940 Y45.009 E1.00268
G1 X75.059 Y45.110 E1.00894
G1 X75.085 Y45.161 E1.01124
G1 X75.095 Y45.301 E1.01686
G1 X75.029 Y45.372 F15000.000
G92 E0
; Filament-specific end gcode 
;END gcode for filament

G92 E0
G1 E-15 F9000
M104 S0 T0 ; turn off temperature
M140 S0 ; turn off bed
G1 X320 Y290 F10000 ; lower bed
M84 ; disable motors
; filament used = 1.0mm (0.0cm3)
; total filament cost = 0.0

; avoid_crossing_perimeters = 1
; bed_shape = 0x0,300x0,300x300,0x300
; bed_temperature = 55
; before_layer_gcode = 
; between_objects_gcode = 
; bridge_acceleration = 0
; bridge_fan_speed = 100
; brim_connections_width = 0
; brim_width = 1
; complete_objects = 0
; cooling = 1
; default_acceleration = 0
; disable_fan_first_layers = 3
; duplicate_distance = 6
; end_filament_gcode = "; Filament-specific end gcode \n;END gcode for filament\n"
; end_gcode = G92 E0\nG1 E-15 F9000\nM104 S0 T0 ; turn off temperature\nM140 S0 ; turn off bed\nG1 X320 Y290 F10000 ; lower bed\nM84 ; disable motors
; extruder_clearance_height = 20
; extruder_clearance_radius = 20
; extruder_offset = 0x0
; extrusion_axis = E
; extrusion_multiplier = 1
; fan_always_on = 1
; fan_below_layer_time = 60
; filament_colour = #FFFFFF
; filament_cost = 0
; filament_density = 0
; filament_diameter = 1.75
; filament_max_volumetric_speed = 0
; filament_notes = ""
; first_layer_acceleration = 0
; first_layer_bed_temperature = 80
; first_layer_extrusion_width = 200%
; first_layer_speed = 60
; first_layer_temperature = 230
; gcode_arcs = 0
; gcode_comments = 0
; gcode_flavor = reprap
; has_heatbed = 0
; infill_acceleration = 0
; infill_first = 1
; interior_brim_width = 0
; label_printed_objects = 0
; layer_gcode = 
; max_fan_speed = 100
; max_layer_height = 0.4
; max_print_speed = 200
; max_volumetric_speed = 0
; min_fan_speed = 100
; min_layer_height = 0.15
; min_print_speed = 10
; min_skirt_length = 0
; notes = 
; nozzle_diameter = 0.4
; only_retract_when_crossing_perimeters = 0
; ooze_prevention = 0
; output_filename_format = [input_filename_base].gcode
; perimeter_acceleration = 0
; post_process = 
; pressure_advance = 0
; printer_notes = 
; resolution = 0
; retract_before_travel = 2
; retract_layer_change = 0
; retract_length = 0
; retract_length_toolchange = 10
; retract_lift = 1
; retract_lift_above = 0
; retract_lift_below = 0
; retract_restart_extra = 0
; retract_restart_extra_toolchange = 0
; retract_speed = 40
; skirt_distance = 3
; skirt_height = 1
; skirts = 0
; slowdown_below_layer_time = 7
; spiral_vase = 0
; standby_temperature_delta = 0
; start_filament_gcode = "; Filament gcode\n"
; start_gcode = G28 ; home all axes\nG1 X150 Y150 Z50 F10000
; temperature = 205
; threads = 4
; toolchange_gcode = 
; travel_speed = 250
; use_firmware_retraction = 0
; use_relative_e_distances = 0
; use_set_and_wait_bed = 0
; use_set_and_wait_extruder = 0
; use_volumetric_e = 0
; vibration_limit = 0
; wipe = 0
; z_offset = 1
; z_steps_per_mm = 0
; adaptive_slicing = 0
; adaptive_slicing_quality = 75%
; dont_support_bridges = 1
; extrusion_width = 0
; first_layer_height = 0.35
; infill_only_where_needed = 0
; interface_shells = 0
; layer_height = 0.25
; match_horizontal_surfaces = 0
; raft_layers = 0
; regions_overlap = 0
; seam_position = aligned
; sequential_print_priority = 0
; support_material = 0
; support_material_angle = 0
; support_material_buildplate_only = 0
; support_material_contact_distance = 0.2
; support_material_enforce_layers = 0
; support_material_extruder = 1
; support_material_extrusion_width = 0
; support_material_interface_extruder = 1
; support_material_interface_extrusion_width = 0
; support_material_interface_layers = 3
; support_material_interface_spacing = 0
; support_material_interface_speed = 100%
; support_material_max_layers = 0
; support_material_pattern = pillars
; support_material_pillar_size = 2.5
; support_material_pillar_spacing = 10
; support_material_spacing = 2.5
; support_material_speed = 80
; support_material_threshold = 30
; xy_size_compensation = 0
; bottom_infill_pattern = concentric
; bottom_solid_layers = 3
; bridge_flow_ratio = 1
; bridge_speed = 60
; external_perimeter_extrusion_width = 0
; external_perimeter_speed = 45%
; external_perimeters_first = 0
; extra_perimeters = 1
; fill_angle = 0
; fill_density = 50%
; fill_gaps = 1
; fill_pattern = rectilinear
; gap_fill_speed = 20
; infill_every_layers = 1
; infill_extruder = 1
; infill_extrusion_width = 0
; infill_overlap = 15%
; infill_speed = 80
; min_shell_thickness = 0
; min_top_bottom_shell_thickness = 0
; overhangs = 1
; perimeter_extruder = 1
; perimeter_extrusion_width = 0.4
; perimeter_speed = 60
; perimeters = 3
; small_perimeter_speed = 30%
; solid_infill_below_area = 70
; solid_infill_every_layers = 0
; solid_infill_extruder = 1
; solid_infill_extrusion_width = 0
; solid_infill_speed = 30%
; thin_walls = 1
; top_infill_extrusion_width = 150%
; top_infill_pattern = concentric
; top_solid_infill_speed = 80%
; top_solid_layers = 3

