; generated by Slic3r 1.3.1-dev on 2019-07-19 at 10:08:20

; external perimeters extrusion width = 0.44mm (2.61mm^3/s)
; perimeters extrusion width = 0.40mm (5.20mm^3/s)
; infill extrusion width = 0.50mm (8.93mm^3/s)
; solid infill extrusion width = 0.56mm (3.02mm^3/s)
; top infill extrusion width = 0.38mm (1.54mm^3/s)

M107
M104 S230 ; set temperature
G28 ; home all axes
G1 X150 Y150 Z50 F10000
; Filament gcode
; layer 1
M109 S230 ; set temperature and wait for it to be reached
G21 ; set units to millimeters
G90 ; use absolute coordinates
M82 ; use absolute distances for extrusion
G92 E0
G92 E0
G1 Z1.350 F15000.000
G1 X83.571 Y51.379 F15000.000
G1 F600
G1 X83.761 Y51.119 E0.04688
G1 X84.026 Y50.885 E0.09831
G1 X84.236 Y50.762 E0.13379
G1 X84.535 Y50.652 E0.18003
G1 X84.853 Y50.606 E0.22692
G1 X85.062 Y50.612 E0.25724
G1 X85.378 Y50.676 E0.30412
G1 X85.700 Y50.820 E0.35555
G1 X85.983 Y51.033 E0.40697
G1 X86.123 Y51.186 E0.43729
G1 X86.298 Y51.457 E0.48417
G1 X86.379 Y51.649 E0.51450
G1 X86.455 Y51.994 E0.56592
G1 X86.455 Y52.316 E0.61280
G1 X86.379 Y52.662 E0.66423
G1 X86.298 Y52.853 E0.69455
G1 X86.123 Y53.124 E0.74143
G1 X85.956 Y53.301 E0.77691
G1 X85.700 Y53.491 E0.82316
G1 X85.407 Y53.625 E0.87004
G1 X85.206 Y53.678 E0.90036
G1 X84.854 Y53.704 E0.95178
G1 X84.535 Y53.659 E0.99867
G1 X84.204 Y53.534 E1.05009
G1 X83.910 Y53.337 E1.10152
G1 X83.761 Y53.192 E1.13184
G1 X83.556 Y52.904 E1.18326
G1 X83.431 Y52.607 E1.23015
G1 X83.383 Y52.404 E1.26047
G1 X83.367 Y52.051 E1.31189
G1 X83.422 Y51.734 E1.35877
G1 X83.543 Y51.432 E1.40605
G1 X84.899 Y52.147 F15000.000
G1 F600
G1 X84.932 Y52.157 E1.40924
G1 X85.559 Y52.219 F15000.000
G1 F3600
G1 X85.523 Y52.373 E1.42358
G1 X85.458 Y52.506 E1.43701
G1 X85.365 Y52.620 E1.45044
G1 X85.248 Y52.710 E1.46386
G1 X85.104 Y52.776 E1.47821
G1 X84.895 Y52.803 E1.49741
G1 X84.749 Y52.782 E1.51084
G1 X84.611 Y52.728 E1.52427
G1 X84.442 Y52.602 E1.54348
G1 X84.314 Y52.402 E1.56502
G1 X84.275 Y52.267 E1.57782
G1 X84.266 Y52.108 E1.59226
G1 X84.317 Y51.903 E1.61146
G1 X84.389 Y51.775 E1.62489
G1 X84.489 Y51.666 E1.63832
G1 X84.669 Y51.554 E1.65752
G1 X84.901 Y51.507 E1.67907
G1 X85.041 Y51.520 E1.69187
G1 X85.192 Y51.569 E1.70631
G1 X85.365 Y51.691 E1.72551
G1 X85.458 Y51.805 E1.73894
G1 X85.523 Y51.938 E1.75237
G1 X85.563 Y52.159 E1.77284
G1 X85.412 Y52.277 F15000.000
M104 S205 ; set temperature
G1 Z1.600 F15000.000
G1 X85.324 Y52.186 F15000.000
G1 F600
G1 X85.299 Y52.293 E1.77682
G1 X85.199 Y52.449 E1.78350
G1 X85.019 Y52.555 E1.79103
G1 X84.902 Y52.565 E1.79525
G1 X84.722 Y52.518 E1.80193
G1 X84.625 Y52.452 E1.80615
G1 X84.543 Y52.338 E1.81122
G1 X84.504 Y52.132 E1.81876
G1 X84.544 Y51.976 E1.82454
G1 X84.661 Y51.828 E1.83133
G1 X84.765 Y51.774 E1.83555
G1 X84.923 Y51.745 E1.84134
G1 X85.106 Y51.790 E1.84813
G1 X85.199 Y51.862 E1.85235
G1 X85.299 Y52.018 E1.85903
G1 X85.324 Y52.126 E1.86302
G1 X85.681 Y52.269 F15000.000
G1 F600
G1 X85.647 Y52.417 E1.86914
G1 X85.568 Y52.576 E1.87627
G1 X85.456 Y52.714 E1.88340
G1 X85.316 Y52.822 E1.89053
G1 X85.148 Y52.898 E1.89791
G1 X84.891 Y52.934 E1.90833
G1 X84.716 Y52.908 E1.91545
G1 X84.550 Y52.844 E1.92258
G1 X84.344 Y52.687 E1.93300
G1 X84.198 Y52.465 E1.94367
G1 X84.146 Y52.288 E1.95105
G1 X84.136 Y52.111 E1.95818
G1 X84.167 Y51.934 E1.96540
G1 X84.214 Y51.815 E1.97056
G1 X84.282 Y51.699 E1.97593
G1 X84.408 Y51.562 E1.98339
G1 X84.631 Y51.430 E1.99381
G1 X84.805 Y51.384 E2.00103
G1 X84.933 Y51.378 E2.00619
G1 X85.066 Y51.392 E2.01156
G1 X85.243 Y51.449 E2.01902
G1 X85.456 Y51.597 E2.02944
G1 X85.568 Y51.734 E2.03657
G1 X85.647 Y51.894 E2.04369
G1 X85.688 Y52.073 E2.05108
G1 X85.690 Y52.209 E2.05656
G1 X85.539 Y52.322 F15000.000
G1 Z1.850 F15000.000
G1 X85.326 Y52.179 F15000.000
G1 F600
G1 X85.299 Y52.293 E2.06078
G1 X85.199 Y52.449 E2.06747
G1 X85.019 Y52.555 E2.07500
G1 X84.902 Y52.565 E2.07922
G1 X84.722 Y52.518 E2.08590
G1 X84.625 Y52.452 E2.09012
G1 X84.543 Y52.338 E2.09519
G1 X84.510 Y52.225 E2.09941
G1 X84.521 Y52.037 E2.10619
G1 X84.575 Y51.922 E2.11079
G1 X84.645 Y51.846 E2.11450
G1 X84.742 Y51.780 E2.11872
G1 X84.858 Y51.749 E2.12304
G1 X84.986 Y51.751 E2.12764
G1 X85.106 Y51.790 E2.13221
G1 X85.199 Y51.862 E2.13642
G1 X85.299 Y52.013 E2.14295
G1 X85.319 Y52.119 E2.14685
G1 X85.691 Y52.200 F15000.000
G1 F600
G1 X85.647 Y52.417 E2.15575
G1 X85.568 Y52.576 E2.16288
G1 X85.456 Y52.714 E2.17000
G1 X85.316 Y52.822 E2.17713
G1 X85.148 Y52.898 E2.18451
G1 X84.891 Y52.934 E2.19493
G1 X84.716 Y52.908 E2.20206
G1 X84.550 Y52.844 E2.20919
G1 X84.344 Y52.687 E2.21961
G1 X84.198 Y52.465 E2.23028
G1 X84.146 Y52.288 E2.23766
G1 X84.136 Y52.111 E2.24479
G1 X84.167 Y51.935 E2.25196
G1 X84.226 Y51.792 E2.25819
G1 X84.281 Y51.700 E2.26247
G1 X84.404 Y51.567 E2.26975
G1 X84.625 Y51.431 E2.28016
G1 X84.804 Y51.385 E2.28759
G1 X84.959 Y51.379 E2.29382
G1 X85.065 Y51.391 E2.29810
G1 X85.243 Y51.449 E2.30563
G1 X85.456 Y51.597 E2.31605
G1 X85.569 Y51.735 E2.32322
G1 X85.639 Y51.874 E2.32945
G1 X85.671 Y51.975 E2.33373
G1 X85.690 Y52.140 E2.34038
G1 X85.658 Y52.219 F15000.000
M106 S255
G1 Z2.100 F15000.000
G1 X84.881 Y52.088 F15000.000
G1 F600
G1 X84.949 Y52.091 E2.34266
G1 X84.980 Y52.138 E2.34454
G1 X84.969 Y52.193 E2.34641
G1 X84.933 Y52.227 E2.34807
G1 X84.862 Y52.208 E2.35052
G1 X84.846 Y52.137 E2.35295
G1 X85.258 Y52.377 F15000.000
G1 F600
G1 X85.125 Y52.506 E2.35964
G1 X85.019 Y52.555 E2.36383
G1 X84.902 Y52.565 E2.36807
G1 X84.700 Y52.509 E2.37559
G1 X84.611 Y52.432 E2.37983
G1 X84.543 Y52.338 E2.38402
G1 X84.510 Y52.225 E2.38826
G1 X84.503 Y52.108 E2.39247
G1 X84.536 Y51.996 E2.39669
G1 X84.645 Y51.846 E2.40338
G1 X84.741 Y51.780 E2.40758
G1 X84.855 Y51.750 E2.41182
G1 X84.972 Y51.746 E2.41602
G1 X85.106 Y51.790 E2.42110
G1 X85.199 Y51.862 E2.42532
G1 X85.300 Y52.018 E2.43201
G1 X85.326 Y52.156 E2.43708
G1 X85.285 Y52.323 E2.44327
G1 X85.542 Y52.609 F15000.000
G1 F600
G1 X85.456 Y52.714 E2.44871
G1 X85.315 Y52.822 E2.45584
G1 X85.074 Y52.918 E2.46627
G1 X84.891 Y52.934 E2.47364
G1 X84.715 Y52.908 E2.48077
G1 X84.479 Y52.802 E2.49120
G1 X84.340 Y52.682 E2.49857
G1 X84.233 Y52.535 E2.50585
G1 X84.146 Y52.288 E2.51637
G1 X84.145 Y52.029 E2.52679
G1 X84.196 Y51.852 E2.53417
G1 X84.284 Y51.698 E2.54130
G1 X84.404 Y51.567 E2.54843
G1 X84.553 Y51.464 E2.55571
G1 X84.803 Y51.385 E2.56623
G1 X85.062 Y51.390 E2.57665
G1 X85.310 Y51.485 E2.58731
G1 X85.456 Y51.597 E2.59469
G1 X85.568 Y51.734 E2.60182
G1 X85.647 Y51.894 E2.60895
G1 X85.688 Y52.070 E2.61623
G1 X85.688 Y52.238 E2.62296
G1 X85.647 Y52.417 E2.63035
G1 X85.576 Y52.560 E2.63675
G1 X85.407 Y52.601 F15000.000
G92 E0
M107
; Filament-specific end gcode 
;END gcode for filament

G92 E0
G1 E-15 F9000
M104 S0 T0 ; turn off temperature
M140 S0 ; turn off bed
G1 X320 Y290 F10000 ; lower bed
M84 ; disable motors
; filament used = 2.6mm (0.0cm3)
; total filament cost = 0.0

; avoid_crossing_perimeters = 1
; bed_shape = 0x0,300x0,300x300,0x300
; bed_temperature = 55
; before_layer_gcode = 
; between_objects_gcode = 
; bridge_acceleration = 0
; bridge_fan_speed = 100
; brim_connections_width = 0
; brim_width = 1
; complete_objects = 0
; cooling = 1
; default_acceleration = 0
; disable_fan_first_layers = 3
; duplicate_distance = 6
; end_filament_gcode = "; Filament-specific end gcode \n;END gcode for filament\n"
; end_gcode = G92 E0\nG1 E-15 F9000\nM104 S0 T0 ; turn off temperature\nM140 S0 ; turn off bed\nG1 X320 Y290 F10000 ; lower bed\nM84 ; disable motors
; extruder_clearance_height = 20
; extruder_clearance_radius = 20
; extruder_offset = 0x0
; extrusion_axis = E
; extrusion_multiplier = 1
; fan_always_on = 1
; fan_below_layer_time = 60
; filament_colour = #FFFFFF
; filament_cost = 0
; filament_density = 0
; filament_diameter = 1.75
; filament_max_volumetric_speed = 0
; filament_notes = ""
; first_layer_acceleration = 0
; first_layer_bed_temperature = 80
; first_layer_extrusion_width = 200%
; first_layer_speed = 60
; first_layer_temperature = 230
; gcode_arcs = 0
; gcode_comments = 0
; gcode_flavor = reprap
; has_heatbed = 0
; infill_acceleration = 0
; infill_first = 1
; interior_brim_width = 0
; label_printed_objects = 0
; layer_gcode = 
; max_fan_speed = 100
; max_layer_height = 0.4
; max_print_speed = 200
; max_volumetric_speed = 0
; min_fan_speed = 100
; min_layer_height = 0.15
; min_print_speed = 10
; min_skirt_length = 0
; notes = 
; nozzle_diameter = 0.4
; only_retract_when_crossing_perimeters = 0
; ooze_prevention = 0
; output_filename_format = [input_filename_base].gcode
; perimeter_acceleration = 0
; post_process = 
; pressure_advance = 0
; printer_notes = 
; resolution = 0
; retract_before_travel = 2
; retract_layer_change = 0
; retract_length = 0
; retract_length_toolchange = 10
; retract_lift = 1
; retract_lift_above = 0
; retract_lift_below = 0
; retract_restart_extra = 0
; retract_restart_extra_toolchange = 0
; retract_speed = 40
; skirt_distance = 3
; skirt_height = 1
; skirts = 0
; slowdown_below_layer_time = 7
; spiral_vase = 0
; standby_temperature_delta = 0
; start_filament_gcode = "; Filament gcode\n"
; start_gcode = G28 ; home all axes\nG1 X150 Y150 Z50 F10000
; temperature = 205
; threads = 4
; toolchange_gcode = 
; travel_speed = 250
; use_firmware_retraction = 0
; use_relative_e_distances = 0
; use_set_and_wait_bed = 0
; use_set_and_wait_extruder = 0
; use_volumetric_e = 0
; vibration_limit = 0
; wipe = 0
; z_offset = 1
; z_steps_per_mm = 0
; adaptive_slicing = 0
; adaptive_slicing_quality = 75%
; dont_support_bridges = 1
; extrusion_width = 0
; first_layer_height = 0.35
; infill_only_where_needed = 0
; interface_shells = 0
; layer_height = 0.25
; match_horizontal_surfaces = 0
; raft_layers = 0
; regions_overlap = 0
; seam_position = aligned
; sequential_print_priority = 0
; support_material = 0
; support_material_angle = 0
; support_material_buildplate_only = 0
; support_material_contact_distance = 0.2
; support_material_enforce_layers = 0
; support_material_extruder = 1
; support_material_extrusion_width = 0
; support_material_interface_extruder = 1
; support_material_interface_extrusion_width = 0
; support_material_interface_layers = 3
; support_material_interface_spacing = 0
; support_material_interface_speed = 100%
; support_material_max_layers = 0
; support_material_pattern = pillars
; support_material_pillar_size = 2.5
; support_material_pillar_spacing = 10
; support_material_spacing = 2.5
; support_material_speed = 80
; support_material_threshold = 30
; xy_size_compensation = 0
; bottom_infill_pattern = concentric
; bottom_solid_layers = 3
; bridge_flow_ratio = 1
; bridge_speed = 60
; external_perimeter_extrusion_width = 0
; external_perimeter_speed = 45%
; external_perimeters_first = 0
; extra_perimeters = 1
; fill_angle = 0
; fill_density = 50%
; fill_gaps = 1
; fill_pattern = rectilinear
; gap_fill_speed = 20
; infill_every_layers = 1
; infill_extruder = 1
; infill_extrusion_width = 0
; infill_overlap = 15%
; infill_speed = 80
; min_shell_thickness = 0
; min_top_bottom_shell_thickness = 0
; overhangs = 1
; perimeter_extruder = 1
; perimeter_extrusion_width = 0.4
; perimeter_speed = 60
; perimeters = 3
; small_perimeter_speed = 30%
; solid_infill_below_area = 70
; solid_infill_every_layers = 0
; solid_infill_extruder = 1
; solid_infill_extrusion_width = 0
; solid_infill_speed = 30%
; thin_walls = 1
; top_infill_extrusion_width = 150%
; top_infill_pattern = concentric
; top_solid_infill_speed = 80%
; top_solid_layers = 3

