; generated by Slic3r 1.3.1-dev on 2019-07-19 at 10:00:28

; external perimeters extrusion width = 0.44mm (2.61mm^3/s)
; perimeters extrusion width = 0.40mm (5.20mm^3/s)
; infill extrusion width = 0.50mm (8.93mm^3/s)
; solid infill extrusion width = 0.56mm (3.02mm^3/s)
; top infill extrusion width = 0.38mm (1.54mm^3/s)

M107
M104 S230 ; set temperature
G28 ; home all axes
G1 X150 Y150 Z50 F10000
; Filament gcode
; layer 1
M109 S230 ; set temperature and wait for it to be reached
G21 ; set units to millimeters
G90 ; use absolute coordinates
M82 ; use absolute distances for extrusion
G92 E0
G92 E0
G1 Z1.350 F15000.000
G1 X75.866 Y44.196 F15000.000
G1 F600
G1 X76.006 Y43.977 E0.03780
G1 X76.189 Y43.751 E0.08017
G1 X76.449 Y43.504 E0.13227
G1 X76.652 Y43.350 E0.16945
G1 X76.902 Y43.201 E0.21182
G1 X77.168 Y43.082 E0.25418
G1 X77.415 Y43.001 E0.29199
G1 X77.700 Y42.942 E0.33436
G1 X77.990 Y42.915 E0.37672
G1 X78.312 Y42.924 E0.42366
G1 X78.600 Y42.967 E0.46603
G1 X78.882 Y43.043 E0.50840
G1 X79.124 Y43.137 E0.54620
G1 X79.382 Y43.272 E0.58857
G1 X79.648 Y43.454 E0.63550
G1 X79.867 Y43.646 E0.67787
G1 X80.043 Y43.837 E0.71567
G1 X80.215 Y44.072 E0.75805
G1 X80.360 Y44.324 E0.80041
G1 X80.486 Y44.622 E0.84735
G1 X80.559 Y44.871 E0.88515
G1 X80.640 Y45.279 E0.94572
G1 X80.614 Y45.739 E1.01273
G1 X80.566 Y46.026 E1.05510
G1 X80.486 Y46.306 E1.09747
G1 X80.360 Y46.603 E1.14440
G1 X80.232 Y46.829 E1.18220
G1 X80.063 Y47.066 E1.22457
G1 X79.867 Y47.281 E1.26694
G1 X79.648 Y47.473 E1.30931
G1 X79.382 Y47.656 E1.35624
G1 X79.124 Y47.790 E1.39862
G1 X78.852 Y47.894 E1.44098
G1 X78.600 Y47.960 E1.47879
G1 X78.312 Y48.003 E1.52116
G1 X77.990 Y48.012 E1.56809
G1 X77.731 Y47.990 E1.60589
G1 X77.445 Y47.934 E1.64826
G1 X77.168 Y47.846 E1.69063
G1 X76.902 Y47.726 E1.73300
G1 X76.652 Y47.578 E1.77537
G1 X76.420 Y47.401 E1.81774
G1 X76.189 Y47.176 E1.86467
G1 X76.025 Y46.975 E1.90247
G1 X75.866 Y46.731 E1.94484
G1 X75.736 Y46.471 E1.98721
G1 X75.636 Y46.197 E2.02958
G1 X75.563 Y45.883 E2.07652
G1 X75.532 Y45.594 E2.11889
G1 X75.533 Y45.302 E2.16125
G1 X75.563 Y45.044 E2.19906
G1 X75.627 Y44.760 E2.24143
G1 X75.723 Y44.485 E2.28380
G1 X75.838 Y44.249 E2.32201
G92 E0
G1 X79.559 Y46.190 F15000.000
G1 F3600
G1 X79.461 Y46.361 E0.01798
G1 X79.221 Y46.653 E0.05230
G1 X78.930 Y46.876 E0.08563
G1 X78.764 Y46.964 E0.10275
G1 X78.588 Y47.032 E0.11988
G1 X78.220 Y47.107 E0.15407
G1 X77.844 Y47.096 E0.18826
G1 X77.480 Y47.001 E0.22246
G1 X77.309 Y46.922 E0.23958
G1 X76.998 Y46.710 E0.27377
G1 X76.744 Y46.433 E0.30797
G1 X76.559 Y46.106 E0.34216
G1 X76.453 Y45.745 E0.37635
G1 X76.432 Y45.558 E0.39348
G1 X76.453 Y45.182 E0.42767
G1 X76.559 Y44.822 E0.46186
G1 X76.744 Y44.494 E0.49606
G1 X76.998 Y44.217 E0.53025
G1 X77.148 Y44.102 E0.54738
G1 X77.480 Y43.927 E0.58157
G1 X77.842 Y43.831 E0.61562
G1 X78.039 Y43.816 E0.63359
G1 X78.415 Y43.850 E0.66792
G1 X78.764 Y43.963 E0.70124
G1 X79.086 Y44.157 E0.73543
G1 X79.355 Y44.420 E0.76963
G1 X79.559 Y44.736 E0.80382
G1 X79.632 Y44.909 E0.82095
G1 X79.685 Y45.090 E0.83807
G1 X79.728 Y45.464 E0.87226
G1 X79.685 Y45.837 E0.90646
G1 X79.583 Y46.135 E0.93506
G1 X79.559 Y46.190 F15000.000
G1 X78.999 Y45.911 F15000.000
G1 F600
G1 X78.945 Y46.004 E0.94483
G1 X78.772 Y46.215 E0.96966
G1 X78.504 Y46.395 E0.99899
G1 X78.395 Y46.437 E1.00962
G1 X78.166 Y46.483 E1.03083
G1 X77.933 Y46.477 E1.05205
G1 X77.707 Y46.417 E1.07327
G1 X77.601 Y46.369 E1.08390
G1 X77.408 Y46.237 E1.10511
G1 X77.250 Y46.065 E1.12633
G1 X77.136 Y45.862 E1.14755
G1 X77.070 Y45.638 E1.16877
G1 X77.057 Y45.405 E1.18999
G1 X77.070 Y45.289 E1.20061
G1 X77.136 Y45.065 E1.22183
G1 X77.250 Y44.862 E1.24305
G1 X77.408 Y44.690 E1.26427
G1 X77.501 Y44.619 E1.27489
G1 X77.707 Y44.510 E1.29611
G1 X77.818 Y44.474 E1.30674
G1 X78.036 Y44.443 E1.32669
G1 X78.308 Y44.467 E1.35152
G1 X78.504 Y44.533 E1.37031
G1 X78.704 Y44.653 E1.39153
G1 X78.871 Y44.816 E1.41275
G1 X78.940 Y44.910 E1.42337
G1 X79.043 Y45.120 E1.44459
G1 X79.075 Y45.232 E1.45522
G1 X79.102 Y45.464 E1.47644
G1 X79.075 Y45.695 E1.49766
G1 X79.022 Y45.856 E1.51302
G1 X78.466 Y45.554 F15000.000
G1 F600
G1 X78.434 Y45.641 E1.52150
G1 X78.284 Y45.804 E1.54165
G1 X78.157 Y45.853 E1.55398
G1 X78.022 Y45.857 E1.56631
G1 X77.893 Y45.815 E1.57864
G1 X77.757 Y45.697 E1.59502
G1 X77.687 Y45.531 E1.61140
G1 X77.687 Y45.396 E1.62372
G1 X77.732 Y45.268 E1.63606
G1 X77.854 Y45.135 E1.65243
G1 X78.024 Y45.070 E1.66904
G1 X78.201 Y45.085 E1.68511
G1 X78.321 Y45.149 E1.69753
G1 X78.413 Y45.249 E1.70986
G1 X78.466 Y45.374 E1.72219
G1 X78.474 Y45.494 E1.73320
M104 S205 ; set temperature
G1 Z1.600 F15000.000
G1 X78.120 Y44.827 F15000.000
G1 F600
G1 X77.922 Y44.832 E1.74565
G1 X77.772 Y44.872 E1.75537
G1 X77.597 Y44.981 E1.76832
G1 X77.464 Y45.138 E1.78124
G1 X77.402 Y45.284 E1.79114
G1 X77.378 Y45.431 E1.80047
G1 X78.781 Y45.431 E1.88845
G1 X78.749 Y45.667 E1.90342
G1 X78.679 Y45.809 E1.91331
G1 X78.587 Y45.922 E1.92244
G1 X78.421 Y46.034 E1.93501
G1 X77.742 Y46.034 E1.97760
G1 X79.106 Y45.742 F15000.000
G1 F600
G1 X79.035 Y45.934 E1.98498
G1 X78.904 Y46.138 E1.99373
G1 X78.729 Y46.308 E2.00247
G1 X78.629 Y46.376 E2.00686
G1 X78.408 Y46.477 E2.01560
G1 X78.290 Y46.508 E2.01998
G1 X78.048 Y46.529 E2.02873
G1 X77.818 Y46.496 E2.03711
G1 X77.680 Y46.449 E2.04234
G1 X77.459 Y46.329 E2.05141
G1 X77.293 Y46.184 E2.05932
G1 X77.151 Y45.988 E2.06807
G1 X77.097 Y45.879 E2.07245
G1 X77.028 Y45.645 E2.08120
G1 X77.014 Y45.403 E2.08994
G1 X77.056 Y45.163 E2.09869
G1 X77.151 Y44.940 E2.10744
G1 X77.216 Y44.837 E2.11182
G1 X77.381 Y44.658 E2.12056
G1 X77.581 Y44.521 E2.12931
G1 X77.692 Y44.470 E2.13369
G1 X77.917 Y44.411 E2.14207
G1 X78.062 Y44.401 E2.14730
G1 X78.313 Y44.425 E2.15637
G1 X78.521 Y44.494 E2.16428
G1 X78.729 Y44.620 E2.17303
G1 X78.821 Y44.699 E2.17741
G1 X78.975 Y44.887 E2.18616
G1 X79.035 Y44.993 E2.19054
G1 X79.117 Y45.222 E2.19928
G1 X79.144 Y45.464 E2.20803
G1 X79.120 Y45.684 E2.21599
G1 X79.438 Y45.839 F15000.000
G1 F600
G1 X79.346 Y46.087 E2.22551
G1 X79.172 Y46.358 E2.23710
G1 X78.941 Y46.582 E2.24869
G1 X78.808 Y46.673 E2.25450
G1 X78.515 Y46.807 E2.26609
G1 X78.359 Y46.848 E2.27190
G1 X78.038 Y46.876 E2.28350
G1 X77.726 Y46.831 E2.29486
G1 X77.541 Y46.767 E2.30192
G1 X77.270 Y46.621 E2.31299
G1 X77.038 Y46.419 E2.32406
G1 X76.848 Y46.158 E2.33566
G1 X76.777 Y46.014 E2.34146
G1 X76.687 Y45.705 E2.35306
G1 X76.668 Y45.383 E2.36465
G1 X76.723 Y45.066 E2.37625
G1 X76.848 Y44.769 E2.38784
G1 X76.936 Y44.633 E2.39365
G1 X77.153 Y44.396 E2.40524
G1 X77.419 Y44.214 E2.41683
G1 X77.566 Y44.147 E2.42264
G1 X77.871 Y44.067 E2.43400
G1 X78.067 Y44.054 E2.44107
G1 X78.373 Y44.083 E2.45214
G1 X78.665 Y44.179 E2.46321
G1 X78.941 Y44.345 E2.47480
G1 X79.172 Y44.569 E2.48640
G1 X79.267 Y44.700 E2.49220
G1 X79.409 Y44.989 E2.50380
G1 X79.455 Y45.144 E2.50960
G1 X79.491 Y45.464 E2.52120
G1 X79.455 Y45.782 E2.53272
G1 X79.790 Y45.942 F15000.000
G1 F1080
G1 X79.676 Y46.249 E2.54585
G1 X79.456 Y46.590 E2.56214
G1 X79.319 Y46.740 E2.57030
G1 X78.998 Y46.988 E2.58659
G1 X78.628 Y47.156 E2.60289
G1 X78.432 Y47.208 E2.61105
G1 X78.028 Y47.243 E2.62734
G1 X77.628 Y47.185 E2.64353
G1 X77.392 Y47.103 E2.65357
G1 X77.070 Y46.929 E2.66829
G1 X76.767 Y46.667 E2.68436
G1 X76.529 Y46.339 E2.70066
G1 X76.439 Y46.156 E2.70881
G1 X76.325 Y45.767 E2.72511
G1 X76.302 Y45.362 E2.74140
G1 X76.371 Y44.962 E2.75769
G1 X76.529 Y44.589 E2.77398
G1 X76.639 Y44.418 E2.78214
G1 X76.913 Y44.119 E2.79844
G1 X77.248 Y43.890 E2.81473
G1 X77.433 Y43.805 E2.82289
G1 X77.823 Y43.703 E2.83908
G1 X78.072 Y43.687 E2.84912
G1 X78.437 Y43.721 E2.86384
G1 X78.628 Y43.771 E2.87178
G1 X78.818 Y43.845 E2.87994
G1 X79.165 Y44.054 E2.89623
G1 X79.456 Y44.337 E2.91252
G1 X79.676 Y44.678 E2.92882
G1 X79.755 Y44.866 E2.93698
G1 X79.847 Y45.261 E2.95327
G1 X79.847 Y45.667 E2.96956
G1 X79.807 Y45.885 E2.97848
G1 X79.670 Y45.975 F15000.000
G1 Z1.850 F15000.000
G1 X78.717 Y45.529 F15000.000
G1 F600
G1 X78.717 Y45.402 E2.98646
G1 X78.114 Y46.163 F15000.000
G1 F600
G1 X78.114 Y44.768 E3.07392
G1 X77.980 Y44.769 E3.08233
G1 X77.791 Y44.828 E3.09477
G1 X77.660 Y44.917 E3.10466
G1 X77.562 Y45.025 E3.11379
G1 X77.511 Y45.115 E3.12028
G1 X77.511 Y45.823 E3.16466
G1 X77.449 Y45.636 E3.17697
G1 X77.441 Y45.491 E3.18609
G1 X77.468 Y45.335 E3.19599
G1 X77.511 Y45.242 E3.20243
G1 X79.089 Y45.775 F15000.000
G1 F600
G1 X79.035 Y45.934 E3.20846
G1 X78.904 Y46.138 E3.21720
G1 X78.821 Y46.228 E3.22158
G1 X78.629 Y46.376 E3.23033
G1 X78.408 Y46.477 E3.23908
G1 X78.290 Y46.508 E3.24346
G1 X78.048 Y46.529 E3.25221
G1 X77.808 Y46.494 E3.26095
G1 X77.581 Y46.406 E3.26970
G1 X77.381 Y46.269 E3.27845
G1 X77.216 Y46.090 E3.28719
G1 X77.151 Y45.988 E3.29157
G1 X77.097 Y45.879 E3.29595
G1 X77.028 Y45.645 E3.30470
G1 X77.014 Y45.403 E3.31345
G1 X77.056 Y45.163 E3.32220
G1 X77.097 Y45.049 E3.32658
G1 X77.216 Y44.837 E3.33532
G1 X77.381 Y44.658 E3.34407
G1 X77.581 Y44.521 E3.35282
G1 X77.692 Y44.470 E3.35720
G1 X77.913 Y44.412 E3.36543
G1 X78.084 Y44.402 E3.37160
G1 X78.408 Y44.450 E3.38339
G1 X78.657 Y44.574 E3.39340
G1 X78.835 Y44.715 E3.40159
G1 X78.975 Y44.887 E3.40959
G1 X79.035 Y44.993 E3.41397
G1 X79.082 Y45.105 E3.41835
G1 X79.137 Y45.342 E3.42709
G1 X79.134 Y45.588 E3.43595
G1 X79.103 Y45.717 E3.44072
G1 X79.426 Y45.856 F15000.000
G1 F600
G1 X79.346 Y46.087 E3.44953
G1 X79.172 Y46.358 E3.46112
G1 X79.063 Y46.477 E3.46693
G1 X78.808 Y46.673 E3.47852
G1 X78.515 Y46.807 E3.49012
G1 X78.359 Y46.848 E3.49592
G1 X78.038 Y46.876 E3.50752
G1 X77.719 Y46.830 E3.51911
G1 X77.419 Y46.713 E3.53071
G1 X77.153 Y46.531 E3.54230
G1 X76.936 Y46.294 E3.55389
G1 X76.848 Y46.158 E3.55970
G1 X76.777 Y46.014 E3.56551
G1 X76.687 Y45.705 E3.57710
G1 X76.668 Y45.383 E3.58870
G1 X76.723 Y45.066 E3.60029
G1 X76.777 Y44.914 E3.60610
G1 X76.936 Y44.633 E3.61769
G1 X77.153 Y44.396 E3.62928
G1 X77.419 Y44.214 E3.64088
G1 X77.566 Y44.147 E3.64668
G1 X77.869 Y44.067 E3.65796
G1 X78.092 Y44.055 E3.66599
G1 X78.372 Y44.082 E3.67613
G1 X78.515 Y44.120 E3.68146
G1 X78.657 Y44.175 E3.68695
G1 X78.851 Y44.285 E3.69498
G1 X79.072 Y44.460 E3.70512
G1 X79.267 Y44.700 E3.71624
G1 X79.346 Y44.840 E3.72205
G1 X79.409 Y44.989 E3.72785
G1 X79.482 Y45.303 E3.73945
G1 X79.477 Y45.641 E3.75165
G1 X79.440 Y45.797 E3.75742
G1 X79.783 Y45.941 F15000.000
G1 F1080
G1 X79.752 Y46.067 E3.76263
G1 X79.676 Y46.249 E3.77056
G1 X79.456 Y46.590 E3.78685
G1 X79.319 Y46.740 E3.79501
G1 X78.998 Y46.988 E3.81130
G1 X78.628 Y47.156 E3.82760
G1 X78.432 Y47.208 E3.83576
G1 X78.028 Y47.243 E3.85205
G1 X77.626 Y47.185 E3.86834
G1 X77.248 Y47.038 E3.88463
G1 X76.913 Y46.809 E3.90093
G1 X76.639 Y46.510 E3.91722
G1 X76.529 Y46.339 E3.92538
G1 X76.439 Y46.156 E3.93354
G1 X76.325 Y45.767 E3.94983
G1 X76.302 Y45.362 E3.96612
G1 X76.371 Y44.962 E3.98242
G1 X76.439 Y44.771 E3.99057
G1 X76.639 Y44.418 E4.00687
G1 X76.913 Y44.119 E4.02316
G1 X77.248 Y43.890 E4.03945
G1 X77.433 Y43.805 E4.04761
G1 X77.822 Y43.703 E4.06377
G1 X78.099 Y43.687 E4.07493
G1 X78.437 Y43.721 E4.08854
G1 X78.628 Y43.771 E4.09650
G1 X78.815 Y43.844 E4.10453
G1 X79.056 Y43.981 E4.11568
G1 X79.322 Y44.191 E4.12929
G1 X79.576 Y44.502 E4.14539
G1 X79.676 Y44.678 E4.15355
G1 X79.755 Y44.866 E4.16171
G1 X79.847 Y45.261 E4.17800
G1 X79.858 Y45.462 E4.18608
G1 X79.840 Y45.698 E4.19559
G1 X79.796 Y45.882 E4.20321
G1 X79.659 Y45.981 F15000.000
M106 S255
G1 Z2.100 F15000.000
G1 X78.159 Y44.828 F15000.000
G1 F600
G1 X77.911 Y44.834 E4.21879
G1 X77.797 Y44.864 E4.22620
G1 X77.587 Y44.990 E4.24153
G1 X77.507 Y45.077 E4.24894
G1 X77.444 Y45.185 E4.25678
G1 X77.399 Y45.296 E4.26426
G1 X77.378 Y45.432 E4.27288
G1 X78.781 Y45.432 E4.36086
G1 X78.764 Y45.609 E4.37205
G1 X78.720 Y45.734 E4.38035
G1 X78.577 Y45.930 E4.39556
G1 X78.420 Y46.035 E4.40740
G1 X77.733 Y46.035 E4.45045
G1 X79.106 Y45.742 F15000.000
G1 F600
G1 X79.042 Y45.918 E4.45719
G1 X78.939 Y46.086 E4.46428
G1 X78.808 Y46.240 E4.47156
G1 X78.629 Y46.376 E4.47966
G1 X78.424 Y46.471 E4.48778
G1 X78.232 Y46.514 E4.49487
G1 X78.030 Y46.527 E4.50215
G1 X77.808 Y46.494 E4.51025
G1 X77.581 Y46.406 E4.51899
G1 X77.381 Y46.269 E4.52774
G1 X77.216 Y46.090 E4.53649
G1 X77.151 Y45.988 E4.54087
G1 X77.097 Y45.879 E4.54525
G1 X77.028 Y45.645 E4.55400
G1 X77.014 Y45.403 E4.56274
G1 X77.052 Y45.180 E4.57086
G1 X77.125 Y44.997 E4.57796
G1 X77.228 Y44.823 E4.58524
G1 X77.368 Y44.670 E4.59270
G1 X77.529 Y44.556 E4.59980
G1 X77.709 Y44.465 E4.60708
G1 X77.910 Y44.412 E4.61455
G1 X78.107 Y44.403 E4.62164
G1 X78.308 Y44.424 E4.62892
G1 X78.505 Y44.488 E4.63639
G1 X78.676 Y44.586 E4.64348
G1 X78.834 Y44.713 E4.65076
G1 X78.975 Y44.887 E4.65886
G1 X79.035 Y44.993 E4.66324
G1 X79.117 Y45.222 E4.67199
G1 X79.144 Y45.464 E4.68073
G1 X79.120 Y45.684 E4.68871
G1 X79.438 Y45.840 F15000.000
G1 F600
G1 X79.351 Y46.077 E4.69781
G1 X79.220 Y46.290 E4.70681
G1 X79.054 Y46.484 E4.71599
G1 X78.808 Y46.673 E4.72718
G1 X78.525 Y46.803 E4.73838
G1 X78.281 Y46.858 E4.74737
G1 X78.027 Y46.875 E4.75656
G1 X77.719 Y46.830 E4.76774
G1 X77.419 Y46.713 E4.77934
G1 X77.153 Y46.531 E4.79093
G1 X76.936 Y46.294 E4.80253
G1 X76.848 Y46.158 E4.80833
G1 X76.777 Y46.014 E4.81414
G1 X76.687 Y45.705 E4.82573
G1 X76.668 Y45.383 E4.83733
G1 X76.721 Y45.076 E4.84853
G1 X76.813 Y44.844 E4.85752
G1 X76.943 Y44.624 E4.86671
G1 X77.146 Y44.404 E4.87750
G1 X77.349 Y44.259 E4.88649
G1 X77.577 Y44.144 E4.89568
G1 X77.867 Y44.068 E4.90647
G1 X78.116 Y44.055 E4.91546
G1 X78.370 Y44.082 E4.92465
G1 X78.655 Y44.175 E4.93544
G1 X78.872 Y44.299 E4.94444
G1 X79.071 Y44.459 E4.95362
G1 X79.267 Y44.700 E4.96481
G1 X79.346 Y44.840 E4.97061
G1 X79.455 Y45.144 E4.98221
G1 X79.491 Y45.464 E4.99380
G1 X79.455 Y45.782 E5.00534
G1 X79.790 Y45.943 F15000.000
G1 F1080
G1 X79.677 Y46.245 E5.01829
G1 X79.517 Y46.505 E5.03056
G1 X79.316 Y46.743 E5.04306
G1 X78.998 Y46.988 E5.05918
G1 X78.632 Y47.155 E5.07531
G1 X78.334 Y47.221 E5.08758
G1 X78.023 Y47.242 E5.10008
G1 X77.626 Y47.185 E5.11620
G1 X77.248 Y47.038 E5.13249
G1 X76.913 Y46.809 E5.14879
G1 X76.639 Y46.510 E5.16508
G1 X76.529 Y46.339 E5.17324
G1 X76.439 Y46.156 E5.18140
G1 X76.325 Y45.767 E5.19769
G1 X76.302 Y45.362 E5.21398
G1 X76.370 Y44.966 E5.23011
G1 X76.483 Y44.682 E5.24239
G1 X76.641 Y44.414 E5.25488
G1 X76.910 Y44.122 E5.27084
G1 X77.159 Y43.944 E5.28311
G1 X77.437 Y43.804 E5.29561
G1 X77.821 Y43.703 E5.31157
G1 X78.127 Y43.688 E5.32384
G1 X78.436 Y43.721 E5.33634
G1 X78.628 Y43.771 E5.34433
G1 X78.814 Y43.843 E5.35232
G1 X79.079 Y43.996 E5.36460
G1 X79.322 Y44.191 E5.37710
G1 X79.576 Y44.502 E5.39322
G1 X79.676 Y44.678 E5.40138
G1 X79.755 Y44.866 E5.40954
G1 X79.847 Y45.261 E5.42583
G1 X79.847 Y45.667 E5.44212
G1 X79.806 Y45.885 E5.45105
G1 X79.670 Y45.975 F15000.000
G1 Z2.350 F15000.000
G1 X78.717 Y45.529 F15000.000
G1 F600
G1 X78.717 Y45.402 E5.45903
G1 X78.114 Y46.161 F15000.000
G1 F600
G1 X78.114 Y44.765 E5.54654
G1 X77.972 Y44.771 E5.55546
G1 X77.848 Y44.804 E5.56350
G1 X77.718 Y44.873 E5.57270
G1 X77.608 Y44.968 E5.58182
G1 X77.523 Y45.086 E5.59095
G1 X77.511 Y45.812 E5.63646
G1 X77.449 Y45.636 E5.64812
G1 X77.440 Y45.479 E5.65802
G1 X77.461 Y45.359 E5.66565
G1 X77.511 Y45.241 E5.67363
G1 X79.111 Y45.711 F15000.000
G1 F600
G1 X79.048 Y45.896 E5.68064
G1 X78.966 Y46.052 E5.68700
G1 X78.821 Y46.228 E5.69521
G1 X78.629 Y46.376 E5.70395
G1 X78.408 Y46.477 E5.71270
G1 X78.290 Y46.508 E5.71708
G1 X78.048 Y46.529 E5.72583
G1 X77.828 Y46.498 E5.73385
G1 X77.619 Y46.421 E5.74185
G1 X77.465 Y46.334 E5.74821
G1 X77.293 Y46.184 E5.75642
G1 X77.151 Y45.988 E5.76517
G1 X77.097 Y45.879 E5.76955
G1 X77.028 Y45.645 E5.77829
G1 X77.014 Y45.403 E5.78704
G1 X77.056 Y45.163 E5.79579
G1 X77.151 Y44.940 E5.80453
G1 X77.216 Y44.837 E5.80891
G1 X77.381 Y44.658 E5.81766
G1 X77.581 Y44.521 E5.82641
G1 X77.692 Y44.470 E5.83079
G1 X77.907 Y44.413 E5.83881
G1 X78.129 Y44.403 E5.84681
G1 X78.305 Y44.423 E5.85317
G1 X78.502 Y44.487 E5.86065
G1 X78.694 Y44.599 E5.86865
G1 X78.831 Y44.710 E5.87501
G1 X78.975 Y44.887 E5.88322
G1 X79.035 Y44.993 E5.88760
G1 X79.117 Y45.222 E5.89635
G1 X79.144 Y45.464 E5.90510
G1 X79.126 Y45.653 E5.91195
G1 X79.439 Y45.823 F15000.000
G1 F600
