; generated by Slic3r 1.3.1-dev on 2019-07-19 at 09:39:32

; external perimeters extrusion width = 0.44mm (2.61mm^3/s)
; perimeters extrusion width = 0.40mm (5.20mm^3/s)
; infill extrusion width = 0.50mm (8.93mm^3/s)
; solid infill extrusion width = 0.56mm (3.02mm^3/s)
; top infill extrusion width = 0.38mm (1.54mm^3/s)

M107
M104 S230 ; set temperature
G28 ; home all axes
G1 X150 Y150 Z50 F10000
; Filament gcode
; layer 1
M109 S230 ; set temperature and wait for it to be reached
G21 ; set units to millimeters
G90 ; use absolute coordinates
M82 ; use absolute distances for extrusion
G92 E0
G92 E0
G1 Z1.350 F15000.000
G1 X69.474 Y45.510 F15000.000
G1 F600
G1 X69.776 Y45.147 E0.06871
G1 X70.043 Y44.891 E0.12250
G1 X70.365 Y44.645 E0.18149
G1 X70.713 Y44.437 E0.24047
G1 X71.053 Y44.282 E0.29488
G1 X71.438 Y44.155 E0.35387
G1 X71.835 Y44.073 E0.41285
G1 X72.306 Y44.036 E0.48156
G1 X72.675 Y44.049 E0.53535
G1 X73.076 Y44.108 E0.59434
G1 X73.468 Y44.213 E0.65332
G1 X73.845 Y44.362 E0.71230
G1 X74.261 Y44.581 E0.78078
G1 X74.305 Y44.582 E0.78719
G1 X74.841 Y45.049 E0.89065
G1 X75.114 Y45.349 E0.94963
G1 X75.334 Y45.652 E1.00405
G1 X75.499 Y45.915 E1.04934
G1 X75.789 Y46.632 E1.16183
G1 X75.884 Y47.195 E1.24494
G1 X75.906 Y47.600 E1.30392
G1 X75.881 Y48.005 E1.36291
G1 X75.810 Y48.404 E1.42189
G1 X75.694 Y48.792 E1.48088
G1 X75.535 Y49.165 E1.53986
G1 X75.334 Y49.517 E1.59884
G1 X75.114 Y49.819 E1.65326
G1 X74.841 Y50.119 E1.71224
G1 X74.536 Y50.386 E1.77123
G1 X74.202 Y50.616 E1.83021
G1 X73.816 Y50.820 E1.89376
G1 X73.438 Y50.966 E1.95274
G1 X73.045 Y51.067 E2.01172
G1 X72.675 Y51.120 E2.06614
G1 X72.270 Y51.133 E2.12513
G1 X71.835 Y51.096 E2.18868
G1 X71.468 Y51.022 E2.24309
G1 X71.082 Y50.898 E2.30207
G1 X70.713 Y50.732 E2.36106
G1 X70.365 Y50.524 E2.42004
G1 X70.043 Y50.278 E2.47902
G1 X69.751 Y49.996 E2.53801
G1 X69.474 Y49.658 E2.60155
G1 X69.272 Y49.344 E2.65597
G1 X69.092 Y48.981 E2.71496
G1 X68.954 Y48.600 E2.77394
G1 X68.860 Y48.205 E2.83292
G1 X68.810 Y47.771 E2.89647
G1 X68.812 Y47.366 E2.95545
G1 X68.860 Y46.964 E3.01443
G1 X68.945 Y46.599 E3.06885
G1 X69.079 Y46.217 E3.12784
G1 X69.257 Y45.852 E3.18682
G1 X69.442 Y45.561 E3.23707
G92 E0
G1 X71.800 Y47.050 F15000.000
G1 F600
G1 X71.906 Y46.958 E0.01529
G1 X72.077 Y46.868 E0.03641
G1 X72.242 Y46.824 E0.05507
G1 X72.440 Y46.818 E0.07667
G1 X72.675 Y46.885 E0.10330
G1 X72.880 Y47.019 E0.13003
G1 X73.036 Y47.222 E0.15795
G1 X73.111 Y47.448 E0.18389
G1 X73.126 Y47.592 E0.19976
G1 X73.080 Y47.842 E0.22744
G1 X73.002 Y48.000 E0.24666
G1 X72.880 Y48.150 E0.26775
G1 X72.675 Y48.284 E0.29447
G1 X72.508 Y48.338 E0.31359
G1 X72.316 Y48.354 E0.33468
G1 X72.077 Y48.301 E0.36140
G1 X71.922 Y48.219 E0.38052
G1 X71.789 Y48.104 E0.39968
G1 X71.649 Y47.889 E0.42765
G1 X71.598 Y47.716 E0.44733
G1 X71.588 Y47.540 E0.46655
G1 X71.618 Y47.368 E0.48567
G1 X71.686 Y47.206 E0.50479
G1 X71.765 Y47.099 E0.51933
G92 E0
G1 X74.585 Y49.017 F15000.000
G1 F3600
G1 X74.407 Y49.261 E0.02751
G1 X74.202 Y49.484 E0.05501
G1 X73.974 Y49.682 E0.08252
G1 X73.724 Y49.853 E0.11003
G1 X73.456 Y49.994 E0.13753
G1 X73.174 Y50.104 E0.16504
G1 X72.882 Y50.181 E0.19255
G1 X72.582 Y50.224 E0.22005
G1 X72.280 Y50.233 E0.24756
G1 X71.979 Y50.207 E0.27507
G1 X71.682 Y50.147 E0.30257
G1 X71.394 Y50.053 E0.33008
G1 X71.119 Y49.928 E0.35759
G1 X70.860 Y49.771 E0.38509
G1 X70.621 Y49.587 E0.41260
G1 X70.404 Y49.376 E0.44011
G1 X70.212 Y49.142 E0.46761
G1 X70.049 Y48.888 E0.49502
G1 X69.909 Y48.598 E0.52433
G1 X69.814 Y48.331 E0.55012
G1 X69.745 Y48.036 E0.57763
G1 X69.711 Y47.736 E0.60514
G1 X69.711 Y47.433 E0.63264
G1 X69.745 Y47.133 E0.66015
G1 X69.814 Y46.838 E0.68766
G1 X69.915 Y46.553 E0.71516
G1 X70.049 Y46.282 E0.74267
G1 X70.212 Y46.027 E0.77018
G1 X70.404 Y45.793 E0.79768
G1 X70.621 Y45.582 E0.82519
G1 X70.860 Y45.397 E0.85270
G1 X71.119 Y45.241 E0.88020
G1 X71.394 Y45.115 E0.90771
G1 X71.682 Y45.022 E0.93522
G1 X71.978 Y44.962 E0.96262
G1 X72.299 Y44.937 E0.99194
G1 X72.582 Y44.945 E1.01773
G1 X72.882 Y44.988 E1.04523
G1 X73.174 Y45.065 E1.07274
G1 X73.456 Y45.174 E1.10025
G1 X73.724 Y45.316 E1.12775
G1 X73.974 Y45.486 E1.15526
G1 X74.202 Y45.684 E1.18277
G1 X74.407 Y45.907 E1.21027
G1 X74.585 Y46.152 E1.23778
G1 X74.733 Y46.415 E1.26529
G1 X74.850 Y46.691 E1.29251
G1 X74.946 Y47.042 E1.32563
G1 X74.988 Y47.282 E1.34777
G1 X75.005 Y47.583 E1.37518
G1 X74.985 Y47.905 E1.40449
G1 X74.936 Y48.184 E1.43028
G1 X74.851 Y48.475 E1.45779
G1 X74.733 Y48.753 E1.48530
G1 X74.614 Y48.964 E1.50735
G1 X74.585 Y49.017 F15000.000
G1 X74.058 Y48.678 F15000.000
G1 F600
G1 X73.922 Y48.865 E1.52836
G1 X73.766 Y49.035 E1.54936
G1 X73.591 Y49.187 E1.57037
G1 X73.401 Y49.317 E1.59138
G1 X73.196 Y49.425 E1.61239
G1 X72.981 Y49.509 E1.63340
G1 X72.758 Y49.568 E1.65441
G1 X72.529 Y49.600 E1.67542
G1 X72.298 Y49.607 E1.69642
G1 X72.068 Y49.587 E1.71743
G1 X71.841 Y49.541 E1.73844
G1 X71.622 Y49.470 E1.75945
G1 X71.411 Y49.374 E1.78046
G1 X71.214 Y49.255 E1.80147
G1 X71.031 Y49.114 E1.82247
G1 X70.865 Y48.953 E1.84348
G1 X70.719 Y48.774 E1.86449
G1 X70.595 Y48.582 E1.88522
G1 X70.414 Y48.154 E1.92744
G1 X70.362 Y47.929 E1.94845
G1 X70.335 Y47.700 E1.96946
G1 X70.335 Y47.469 E1.99047
G1 X70.362 Y47.239 E2.01148
G1 X70.414 Y47.014 E2.03249
G1 X70.492 Y46.797 E2.05349
G1 X70.594 Y46.589 E2.07450
G1 X70.719 Y46.395 E2.09551
G1 X70.865 Y46.216 E2.11652
G1 X71.031 Y46.055 E2.13753
G1 X71.214 Y45.914 E2.15854
G1 X71.411 Y45.795 E2.17954
G1 X71.622 Y45.699 E2.20055
G1 X71.841 Y45.627 E2.22156
G1 X72.065 Y45.582 E2.24229
G1 X72.529 Y45.568 E2.28451
G1 X72.758 Y45.601 E2.30552
G1 X72.981 Y45.660 E2.32653
G1 X73.196 Y45.744 E2.34754
G1 X73.401 Y45.852 E2.36855
G1 X73.591 Y45.982 E2.38956
G1 X73.766 Y46.133 E2.41056
G1 X73.922 Y46.303 E2.43157
G1 X74.058 Y46.490 E2.45258
G1 X74.172 Y46.692 E2.47359
G1 X74.258 Y46.896 E2.49382
G1 X74.336 Y47.179 E2.52043
G1 X74.379 Y47.581 E2.55725
G1 X74.363 Y47.832 E2.58007
G1 X74.327 Y48.043 E2.59954
G1 X74.262 Y48.264 E2.62055
G1 X74.087 Y48.626 E2.65705
G1 X73.531 Y48.340 F15000.000
G1 F600
G1 X73.330 Y48.587 E2.68602
G1 X73.209 Y48.691 E2.70053
G1 X72.936 Y48.856 E2.72950
G1 X72.633 Y48.954 E2.75848
G1 X72.475 Y48.977 E2.77299
G1 X72.157 Y48.968 E2.80196
G1 X72.000 Y48.936 E2.81647
G1 X71.703 Y48.820 E2.84544
G1 X71.567 Y48.738 E2.85995
G1 X71.326 Y48.529 E2.88893
G1 X71.141 Y48.276 E2.91744
G1 X71.015 Y47.978 E2.94687
G1 X70.979 Y47.823 E2.96138
G1 X70.960 Y47.505 E2.99035
G1 X71.015 Y47.191 E3.01932
G1 X71.139 Y46.897 E3.04830
G1 X71.326 Y46.639 E3.07727
G1 X71.567 Y46.431 E3.10624
G1 X71.703 Y46.348 E3.12075
G1 X72.000 Y46.233 E3.14973
G1 X72.152 Y46.202 E3.16378
G1 X72.475 Y46.192 E3.19320
G1 X72.788 Y46.255 E3.22218
G1 X73.077 Y46.387 E3.25115
G1 X73.330 Y46.582 E3.28012
G1 X73.531 Y46.829 E3.30909
G1 X73.667 Y47.102 E3.33679
G1 X73.725 Y47.315 E3.35691
G1 X73.753 Y47.579 E3.38107
G1 X73.742 Y47.758 E3.39738
G1 X73.672 Y48.054 E3.42500
G1 X73.561 Y48.288 E3.44853
M104 S205 ; set temperature
G1 Z1.600 F15000.000
G1 X72.244 Y49.224 F15000.000
G1 F600
G1 X72.560 Y49.219 E3.46643
G1 X72.745 Y49.192 E3.47705
G1 X73.101 Y49.077 E3.49826
G1 X73.421 Y48.884 E3.51946
G1 X73.638 Y48.679 E3.53637
G1 X71.071 Y48.679 E3.68189
G1 X70.863 Y48.391 E3.70201
G1 X70.749 Y48.133 E3.71800
G1 X73.965 Y48.133 E3.90034
G1 X74.017 Y47.956 E3.91082
G1 X74.060 Y47.588 E3.93182
G1 X70.654 Y47.588 E4.12488
G1 X70.654 Y47.491 E4.13040
G1 X70.675 Y47.305 E4.14102
G1 X70.746 Y47.043 E4.15641
G1 X73.967 Y47.043 E4.33901
G1 X73.800 Y46.697 E4.36076
G1 X73.645 Y46.497 E4.37511
G1 X71.065 Y46.497 E4.52134
G1 X71.218 Y46.344 E4.53357
G1 X71.366 Y46.230 E4.54419
G1 X71.697 Y46.056 E4.56539
G1 X72.040 Y45.964 E4.58552
G1 X72.573 Y45.952 E4.61575
G92 E0
G1 X74.071 Y48.732 F15000.000
G1 F600
G1 X73.795 Y49.066 E0.01558
G1 X73.617 Y49.220 E0.02407
G1 X73.422 Y49.353 E0.03257
G1 X73.214 Y49.463 E0.04106
G1 X72.994 Y49.549 E0.04955
G1 X72.766 Y49.609 E0.05804
G1 X72.532 Y49.643 E0.06653
G1 X72.297 Y49.649 E0.07502
G1 X72.062 Y49.629 E0.08351
G1 X71.831 Y49.582 E0.09200
G1 X71.606 Y49.509 E0.10049
G1 X71.392 Y49.411 E0.10898
G1 X71.190 Y49.290 E0.11747
G1 X71.003 Y49.146 E0.12597
G1 X70.834 Y48.981 E0.13446
G1 X70.684 Y48.799 E0.14295
G1 X70.557 Y48.600 E0.15144
G1 X70.453 Y48.388 E0.15993
G1 X70.374 Y48.166 E0.16842
G1 X70.320 Y47.937 E0.17691
G1 X70.293 Y47.702 E0.18540
G1 X70.293 Y47.466 E0.19389
G1 X70.320 Y47.232 E0.20238
G1 X70.374 Y47.002 E0.21087
G1 X70.453 Y46.780 E0.21936
G1 X70.557 Y46.569 E0.22786
G1 X70.684 Y46.370 E0.23635
G1 X70.834 Y46.188 E0.24484
G1 X71.003 Y46.023 E0.25333
G1 X71.190 Y45.879 E0.26182
G1 X71.392 Y45.757 E0.27031
G1 X71.606 Y45.659 E0.27880
G1 X71.831 Y45.586 E0.28729
G1 X72.055 Y45.541 E0.29552
G1 X72.532 Y45.526 E0.31273
G1 X72.766 Y45.560 E0.32122
G1 X72.994 Y45.620 E0.32972
G1 X73.214 Y45.705 E0.33821
G1 X73.422 Y45.815 E0.34670
G1 X73.617 Y45.948 E0.35519
G1 X73.795 Y46.103 E0.36368
G1 X73.955 Y46.277 E0.37217
G1 X74.094 Y46.468 E0.38066
G1 X74.210 Y46.673 E0.38915
G1 X74.301 Y46.890 E0.39764
G1 X74.368 Y47.116 E0.40613
G1 X74.408 Y47.349 E0.41462
G1 X74.421 Y47.584 E0.42311
G1 X74.408 Y47.820 E0.43161
G1 X74.368 Y48.052 E0.44010
G1 X74.301 Y48.279 E0.44859
G1 X74.210 Y48.496 E0.45708
G1 X74.104 Y48.682 E0.46478
G1 X74.351 Y48.936 F15000.000
G1 F600
G1 X74.223 Y49.112 E0.47261
G1 X74.037 Y49.315 E0.48253
G1 X73.829 Y49.495 E0.49245
G1 X73.602 Y49.650 E0.50236
G1 X73.358 Y49.779 E0.51228
G1 X73.101 Y49.879 E0.52220
G1 X72.835 Y49.949 E0.53211
G1 X72.562 Y49.988 E0.54203
G1 X72.287 Y49.996 E0.55195
G1 X72.012 Y49.972 E0.56186
G1 X71.742 Y49.918 E0.57178
G1 X71.480 Y49.833 E0.58170
G1 X71.230 Y49.718 E0.59162
G1 X70.994 Y49.576 E0.60153
G1 X70.776 Y49.408 E0.61145
G1 X70.578 Y49.216 E0.62137
G1 X70.404 Y49.002 E0.63128
G1 X70.255 Y48.771 E0.64120
G1 X70.133 Y48.524 E0.65112
G1 X70.041 Y48.264 E0.66103
G1 X69.978 Y47.996 E0.67095
G1 X69.947 Y47.722 E0.68087
G1 X69.947 Y47.447 E0.69078
G1 X69.978 Y47.173 E0.70070
G1 X70.041 Y46.905 E0.71062
G1 X70.133 Y46.645 E0.72053
G1 X70.255 Y46.398 E0.73045
G1 X70.404 Y46.166 E0.74037
G1 X70.578 Y45.953 E0.75028
G1 X70.776 Y45.761 E0.76020
G1 X70.994 Y45.593 E0.77012
G1 X71.230 Y45.450 E0.78003
G1 X71.480 Y45.336 E0.78995
G1 X71.742 Y45.251 E0.79987
G1 X72.008 Y45.197 E0.80962
G1 X72.336 Y45.174 E0.82148
G1 X72.562 Y45.181 E0.82961
G1 X72.835 Y45.220 E0.83952
G1 X73.101 Y45.290 E0.84944
G1 X73.358 Y45.390 E0.85936
G1 X73.602 Y45.518 E0.86927
G1 X73.829 Y45.674 E0.87919
G1 X74.037 Y45.854 E0.88911
G1 X74.223 Y46.057 E0.89902
G1 X74.385 Y46.280 E0.90894
G1 X74.521 Y46.520 E0.91886
G1 X74.628 Y46.774 E0.92878
G1 X74.706 Y47.038 E0.93869
G1 X74.753 Y47.309 E0.94861
G1 X74.768 Y47.584 E0.95853
G1 X74.753 Y47.859 E0.96844
G1 X74.706 Y48.131 E0.97836
G1 X74.628 Y48.395 E0.98828
G1 X74.521 Y48.649 E0.99819
G1 X74.386 Y48.887 E1.00804
G1 X74.648 Y49.151 F15000.000
G1 F1080
G1 X74.508 Y49.344 E1.01761
G1 X74.293 Y49.578 E1.03036
G1 X74.053 Y49.786 E1.04310
G1 X73.791 Y49.965 E1.05585
G1 X73.510 Y50.113 E1.06859
G1 X73.215 Y50.228 E1.08133
G1 X72.908 Y50.309 E1.09408
G1 X72.594 Y50.354 E1.10682
G1 X72.276 Y50.363 E1.11957
G1 X71.960 Y50.336 E1.13231
G1 X71.649 Y50.273 E1.14506
G1 X71.347 Y50.175 E1.15780
G1 X71.059 Y50.043 E1.17055
G1 X70.787 Y49.879 E1.18329
G1 X70.535 Y49.685 E1.19604
G1 X70.308 Y49.464 E1.20878
G1 X70.107 Y49.218 E1.22152
G1 X69.935 Y48.951 E1.23427
G1 X69.795 Y48.666 E1.24701
G1 X69.689 Y48.367 E1.25976
G1 X69.617 Y48.058 E1.27250
G1 X69.581 Y47.743 E1.28525
G1 X69.581 Y47.426 E1.29799
G1 X69.617 Y47.110 E1.31074
G1 X69.689 Y46.801 E1.32348
G1 X69.795 Y46.502 E1.33623
G1 X69.935 Y46.217 E1.34897
G1 X70.107 Y45.951 E1.36171
G1 X70.308 Y45.705 E1.37446
G1 X70.535 Y45.484 E1.38720
G1 X70.787 Y45.290 E1.39995
G1 X71.059 Y45.126 E1.41269
G1 X71.347 Y44.994 E1.42544
G1 X71.649 Y44.896 E1.43818
G1 X71.958 Y44.833 E1.45086
G1 X72.329 Y44.807 E1.46577
G1 X72.594 Y44.815 E1.47640
G1 X72.908 Y44.860 E1.48915
G1 X73.215 Y44.941 E1.50189
G1 X73.510 Y45.056 E1.51464
G1 X73.791 Y45.204 E1.52738
G1 X74.053 Y45.383 E1.54013
G1 X74.293 Y45.591 E1.55287
G1 X74.508 Y45.825 E1.56561
G1 X74.694 Y46.082 E1.57836
G1 X74.850 Y46.358 E1.59110
G1 X74.974 Y46.650 E1.60385
G1 X75.063 Y46.955 E1.61659
G1 X75.117 Y47.267 E1.62934
G1 X75.135 Y47.584 E1.64208
G1 X75.117 Y47.901 E1.65483
G1 X75.063 Y48.214 E1.66757
G1 X74.974 Y48.518 E1.68032
G1 X74.850 Y48.811 E1.69306
G1 X74.683 Y49.102 E1.70656
G1 X74.410 Y49.133 F15000.000
G1 Z1.850 F15000.000
G1 X73.996 Y47.660 F15000.000
G1 F600
G1 X73.961 Y47.202 E1.73263
G1 X73.895 Y46.955 E1.74712
G1 X73.736 Y46.634 E1.76750
G1 X73.626 Y46.482 E1.77814
G1 X73.449 Y46.301 E1.79250
G1 X73.449 Y48.868 E1.93823
G1 X73.203 Y49.053 E1.95574
G1 X72.903 Y49.193 E1.97452
G1 X72.903 Y45.976 E2.15716
G1 X72.681 Y45.913 E2.17024
G1 X72.509 Y45.888 E2.18014
G1 X72.357 Y45.893 E2.18878
G1 X72.357 Y49.287 E2.38148
G1 X72.309 Y49.288 E2.38420
G1 X72.122 Y49.272 E2.39484
G1 X71.810 Y49.193 E2.41310
G1 X71.810 Y45.976 E2.59579
G1 X71.476 Y46.140 E2.61695
G1 X71.264 Y46.297 E2.63194
G1 X71.264 Y48.871 E2.77808
G1 X71.028 Y48.612 E2.79796
G1 X70.844 Y48.287 E2.81920
G1 X70.739 Y47.928 E2.84043
G1 X70.718 Y47.743 E2.85102
G1 X70.718 Y47.426 E2.86899
G92 E0
G1 X74.071 Y48.732 F15000.000
G1 F600
G1 X73.795 Y49.066 E0.01558
G1 X73.617 Y49.220 E0.02407
G1 X73.422 Y49.353 E0.03257
G1 X73.214 Y49.463 E0.04106
G1 X72.994 Y49.549 E0.04955
G1 X72.766 Y49.609 E0.05804
G1 X72.532 Y49.643 E0.06653
G1 X72.297 Y49.649 E0.07502
G1 X72.062 Y49.629 E0.08351
G1 X71.831 Y49.582 E0.09200
G1 X71.606 Y49.509 E0.10049
G1 X71.392 Y49.411 E0.10898
G1 X71.190 Y49.290 E0.11747
G1 X71.003 Y49.146 E0.12596
G1 X70.834 Y48.981 E0.13446
G1 X70.684 Y48.799 E0.14295
G1 X70.557 Y48.600 E0.15144
G1 X70.453 Y48.388 E0.15993
G1 X70.374 Y48.166 E0.16842
G1 X70.320 Y47.937 E0.17691
G1 X70.293 Y47.702 E0.18540
G1 X70.293 Y47.466 E0.19389
G1 X70.320 Y47.232 E0.20238
G1 X70.374 Y47.002 E0.21087
G1 X70.453 Y46.780 E0.21936
G1 X70.557 Y46.569 E0.22786
G1 X70.684 Y46.370 E0.23635
G1 X70.834 Y46.188 E0.24484
G1 X70.995 Y46.030 E0.25295
G1 X71.252 Y45.842 E0.26441
G1 X71.606 Y45.659 E0.27876
G1 X71.831 Y45.586 E0.28725
G1 X72.051 Y45.542 E0.29537
G1 X72.532 Y45.526 E0.31269
G1 X72.766 Y45.560 E0.32118
G1 X72.994 Y45.620 E0.32967
G1 X73.214 Y45.705 E0.33817
G1 X73.422 Y45.815 E0.34666
G1 X73.617 Y45.948 E0.35515
G1 X73.795 Y46.103 E0.36364
G1 X73.955 Y46.277 E0.37213
G1 X74.094 Y46.468 E0.38062
G1 X74.210 Y46.673 E0.38911
G1 X74.297 Y46.881 E0.39723
G1 X74.380 Y47.188 E0.40868
G1 X74.421 Y47.584 E0.42303
G1 X74.408 Y47.820 E0.43153
G1 X74.370 Y48.042 E0.43964
G1 X74.273 Y48.345 E0.45110
G1 X74.104 Y48.682 E0.46466
G1 X74.351 Y48.936 F15000.000
G1 F600
G1 X74.223 Y49.112 E0.47249
G1 X74.037 Y49.315 E0.48241
G1 X73.829 Y49.495 E0.49233
G1 X73.602 Y49.650 E0.50225
G1 X73.358 Y49.779 E0.51216
G1 X73.101 Y49.879 E0.52208
G1 X72.835 Y49.949 E0.53200
G1 X72.562 Y49.988 E0.54191
G1 X72.287 Y49.996 E0.55183
G1 X72.012 Y49.972 E0.56175
G1 X71.742 Y49.918 E0.57166
G1 X71.480 Y49.833 E0.58158
G1 X71.230 Y49.718 E0.59150
G1 X70.994 Y49.576 E0.60141
G1 X70.776 Y49.408 E0.61133
G1 X70.578 Y49.216 E0.62125
G1 X70.404 Y49.002 E0.63116
G1 X70.255 Y48.771 E0.64108
G1 X70.133 Y48.524 E0.65100
G1 X70.041 Y48.264 E0.66091
G1 X69.978 Y47.996 E0.67083
G1 X69.947 Y47.722 E0.68075
G1 X69.947 Y47.447 E0.69066
G1 X69.978 Y47.173 E0.70058
G1 X70.041 Y46.905 E0.71050
G1 X70.133 Y46.645 E0.72041
G1 X70.255 Y46.398 E0.73033
G1 X70.404 Y46.166 E0.74025
G1 X70.578 Y45.953 E0.75017
G1 X70.771 Y45.766 E0.75985
G1 X71.059 Y45.553 E0.77273
G1 X71.230 Y45.450 E0.77990
G1 X71.480 Y45.336 E0.78982
G1 X71.742 Y45.251 E0.79973
G1 X72.006 Y45.198 E0.80941
G1 X72.562 Y45.181 E0.82945
G1 X72.835 Y45.220 E0.83936
G1 X73.101 Y45.290 E0.84928
G1 X73.358 Y45.390 E0.85920
G1 X73.602 Y45.518 E0.86911
G1 X73.829 Y45.674 E0.87903
G1 X74.037 Y45.854 E0.88895
G1 X74.223 Y46.057 E0.89887
G1 X74.385 Y46.280 E0.90878
G1 X74.521 Y46.520 E0.91870
G1 X74.626 Y46.768 E0.92838
G1 X74.719 Y47.113 E0.94126
G1 X74.753 Y47.309 E0.94843
G1 X74.768 Y47.584 E0.95835
