; generated by Slic3r 1.3.1-dev on 2019-06-21 at 15:07:20

; external perimeters extrusion width = 1.10mm (8.39mm^3/s)
; perimeters extrusion width = 0.40mm (6.04mm^3/s)
; infill extrusion width = 1.25mm (28.45mm^3/s)
; solid infill extrusion width = 1.40mm (9.62mm^3/s)
; top infill extrusion width = 0.45mm (2.22mm^3/s)

M107
M190 S80 ; set bed temperature and wait for it to be reached
M104 S230 ; set temperature
G28 ; home all axes
G1 X150 Y150 Z50 F10000
; Filament gcode
; layer 1
M109 S230 ; set temperature and wait for it to be reached
G21 ; set units to millimeters
G90 ; use absolute coordinates
M82 ; use absolute distances for extrusion
G92 E0
G92 E0
G1 Z0.300 F15000.000
G1 X62.599 Y58.941 F15000.000
G1 F3600
G1 X62.789 Y58.756 E0.03307
G1 X62.969 Y58.630 E0.06040
G1 X63.203 Y58.516 E0.09298
G1 X63.391 Y58.460 E0.11734
G1 X63.576 Y58.295 E0.14835
G1 X63.652 Y58.115 E0.17270
G1 X63.794 Y57.892 E0.20568
G1 X63.941 Y57.727 E0.23320
G1 X64.143 Y57.561 E0.26581
G1 X64.418 Y57.411 E0.30491
G1 X64.621 Y57.342 E0.33167
G1 X64.813 Y57.308 E0.35602
G1 X65.016 Y57.164 E0.38704
G1 X65.112 Y56.994 E0.41137
G1 X65.248 Y56.820 E0.43898
G1 X65.478 Y56.614 E0.47739
G1 X65.704 Y56.476 E0.51045
G1 X65.907 Y56.394 E0.53779
G1 X66.162 Y56.334 E0.57036
G1 X66.356 Y56.322 E0.59470
G1 X66.574 Y56.202 E0.62572
G1 X66.688 Y56.043 E0.65007
G1 X66.876 Y55.858 E0.68301
G1 X67.056 Y55.729 E0.71052
G1 X67.290 Y55.612 E0.74316
G1 X67.592 Y55.527 E0.78228
G1 X67.805 Y55.506 E0.80903
G1 X68.000 Y55.515 E0.83338
G1 X68.230 Y55.420 E0.86440
G1 X68.361 Y55.275 E0.88875
G1 X68.534 Y55.135 E0.91657
G1 X68.802 Y54.986 E0.95476
G1 X69.053 Y54.903 E0.98779
G1 X69.269 Y54.867 E1.01513
G1 X69.531 Y54.866 E1.04777
G1 X69.724 Y54.897 E1.07207
G1 X69.962 Y54.828 E1.10308
G1 X70.109 Y54.699 E1.12743
G1 X70.334 Y54.560 E1.16041
G1 X70.537 Y54.475 E1.18784
G1 X70.791 Y54.413 E1.22050
G1 X71.105 Y54.397 E1.25964
G1 X71.318 Y54.424 E1.28642
G1 X71.505 Y54.476 E1.31075
G1 X71.751 Y54.434 E1.34176
G1 X71.911 Y54.323 E1.36611
G1 X72.111 Y54.224 E1.39397
G1 X72.405 Y54.139 E1.43212
G1 X72.669 Y54.113 E1.46516
G1 X72.887 Y54.127 E1.49249
G1 X73.142 Y54.184 E1.52509
G1 X73.323 Y54.257 E1.54943
G1 X73.572 Y54.243 E1.58045
G1 X73.743 Y54.150 E1.60479
G1 X73.953 Y54.075 E1.63261
G1 X74.255 Y54.023 E1.67081
G1 X74.520 Y54.027 E1.70385
G1 X74.736 Y54.065 E1.73119
G1 X74.983 Y54.150 E1.76379
G1 X75.154 Y54.243 E1.78812
G1 X75.403 Y54.257 E1.81913
G1 X75.583 Y54.184 E1.84346
G1 X75.842 Y54.127 E1.87647
G1 X76.062 Y54.113 E1.90401
G1 X76.322 Y54.139 E1.93659
G1 X76.623 Y54.228 E1.97569
G1 X76.815 Y54.323 E2.00247
G1 X76.975 Y54.434 E2.02680
G1 X77.220 Y54.476 E2.05781
G1 X77.409 Y54.424 E2.08218
G1 X77.630 Y54.397 E2.11003
G1 X77.935 Y54.413 E2.14813
G1 X78.193 Y54.476 E2.18121
G1 X78.395 Y54.561 E2.20854
G1 X78.617 Y54.699 E2.24112
G1 X78.763 Y54.828 E2.26548
G1 X79.002 Y54.897 E2.29650
G1 X79.195 Y54.866 E2.32081
G1 X79.459 Y54.868 E2.35383
G1 X79.677 Y54.904 E2.38129
G1 X79.925 Y54.986 E2.41390
G1 X80.199 Y55.140 E2.45305
G1 X80.365 Y55.275 E2.47982
G1 X80.496 Y55.420 E2.50416
G1 X80.726 Y55.515 E2.53518
G1 X80.921 Y55.506 E2.55956
G1 X81.143 Y55.529 E2.58743
G1 X81.437 Y55.613 E2.62552
G1 X81.674 Y55.732 E2.65857
G1 X81.852 Y55.859 E2.68590
G1 X82.037 Y56.043 E2.71848
G1 X82.152 Y56.202 E2.74285
G1 X82.369 Y56.322 E2.77386
G1 X82.564 Y56.334 E2.79820
G1 X82.821 Y56.395 E2.83114
G1 X83.026 Y56.479 E2.85876
G1 X83.225 Y56.600 E2.88782
G1 X83.476 Y56.818 E2.92926
G1 X83.614 Y56.994 E2.95718
G1 X83.710 Y57.164 E2.98149
G1 X83.912 Y57.308 E3.01250
G1 X84.105 Y57.342 E3.03687
G1 X84.354 Y57.431 E3.06983
G1 X84.547 Y57.537 E3.09738
G1 X84.754 Y57.697 E3.12995
G1 X84.961 Y57.932 E3.16906
G1 X85.074 Y58.115 E3.19586
G1 X85.150 Y58.295 E3.22017
G1 X85.335 Y58.460 E3.25118
G1 X85.522 Y58.516 E3.27552
G1 X85.723 Y58.611 E3.30326
G1 X85.974 Y58.788 E3.34156
G1 X86.158 Y58.978 E3.37458
G1 X86.284 Y59.157 E3.40193
G1 X86.399 Y59.393 E3.43455
G1 X86.454 Y59.579 E3.45885
G1 X86.620 Y59.765 E3.48987
G1 X86.800 Y59.841 E3.51423
G1 X87.023 Y59.983 E3.54722
G1 X87.187 Y60.129 E3.57457
G1 X87.353 Y60.331 E3.60720
G1 X87.504 Y60.607 E3.64642
G1 X87.572 Y60.810 E3.67320
G1 X87.607 Y61.002 E3.69753
G1 X87.751 Y61.205 E3.72855
G1 X87.920 Y61.301 E3.75286
G1 X88.096 Y61.438 E3.78067
G1 X88.300 Y61.666 E3.81883
G1 X88.438 Y61.893 E3.85194
G1 X88.521 Y62.096 E3.87929
G1 X88.580 Y62.350 E3.91187
G1 X88.593 Y62.545 E3.93622
G1 X88.713 Y62.763 E3.96723
G1 X88.871 Y62.877 E3.99156
G1 X89.057 Y63.065 E4.02457
G1 X89.186 Y63.245 E4.05215
G1 X89.302 Y63.478 E4.08459
G1 X89.387 Y63.780 E4.12379
G1 X89.409 Y63.994 E4.15058
G1 X89.400 Y64.189 E4.17490
G1 X89.495 Y64.418 E4.20591
G1 X89.639 Y64.550 E4.23026
G1 X89.780 Y64.723 E4.25813
G1 X89.928 Y64.990 E4.29621
G1 X90.012 Y65.242 E4.32932
G1 X90.047 Y65.458 E4.35666
G1 X90.049 Y65.720 E4.38927
G1 X90.017 Y65.912 E4.41358
G1 X90.086 Y66.151 E4.44460
G1 X90.215 Y66.298 E4.46891
G1 X90.354 Y66.522 E4.50190
G1 X90.440 Y66.726 E4.52946
G1 X90.501 Y66.979 E4.56191
G1 X90.517 Y67.293 E4.60116
G1 X90.491 Y67.506 E4.62791
G1 X90.438 Y67.694 E4.65226
G1 X90.480 Y67.939 E4.68328
G1 X90.592 Y68.100 E4.70765
G1 X90.690 Y68.300 E4.73545
G1 X90.776 Y68.593 E4.77361
G1 X90.800 Y68.809 E4.80064
G1 X90.788 Y69.073 E4.83363
G1 X90.730 Y69.332 E4.86667
G1 X90.657 Y69.512 E4.89095
G1 X90.671 Y69.760 E4.92196
G1 X90.764 Y69.932 E4.94633
G1 X90.840 Y70.143 E4.97424
G1 X90.892 Y70.443 E5.01226
G1 X90.887 Y70.708 E5.04536
G1 X90.849 Y70.924 E5.07271
G1 X90.764 Y71.171 E5.10528
G1 X90.671 Y71.343 E5.12963
G1 X90.657 Y71.591 E5.16065
G1 X90.730 Y71.772 E5.18495
G1 X90.788 Y72.030 E5.21789
G1 X90.801 Y72.250 E5.24542
G1 X90.775 Y72.511 E5.27810
G1 X90.687 Y72.811 E5.31720
G1 X90.592 Y73.004 E5.34396
G1 X90.480 Y73.164 E5.36831
G1 X90.438 Y73.409 E5.39933
G1 X90.491 Y73.597 E5.42370
G1 X90.518 Y73.818 E5.45138
G1 X90.501 Y74.123 E5.48959
G1 X90.438 Y74.381 E5.52271
G1 X90.353 Y74.584 E5.55006
G1 X90.215 Y74.805 E5.58266
G1 X90.086 Y74.952 E5.60700
G1 X90.017 Y75.191 E5.63801
G1 X90.049 Y75.384 E5.66236
G1 X90.047 Y75.648 E5.69531
G1 X90.011 Y75.865 E5.72280
G1 X89.928 Y76.114 E5.75554
G1 X89.775 Y76.387 E5.79457
G1 X89.639 Y76.554 E5.82135
G1 X89.495 Y76.685 E5.84568
G1 X89.400 Y76.915 E5.87670
G1 X89.409 Y77.110 E5.90104
G1 X89.386 Y77.331 E5.92887
G1 X89.302 Y77.625 E5.96697
G1 X89.183 Y77.863 E6.00009
G1 X89.055 Y78.041 E6.02741
G1 X88.871 Y78.226 E6.06000
G1 X88.713 Y78.340 E6.08436
G1 X88.593 Y78.558 E6.11538
G1 X88.580 Y78.753 E6.13972
G1 X88.520 Y79.010 E6.17269
G1 X88.436 Y79.215 E6.20028
G1 X88.300 Y79.437 E6.23277
G1 X88.090 Y79.670 E6.27194
G1 X87.920 Y79.803 E6.29873
G1 X87.751 Y79.898 E6.32305
G1 X87.607 Y80.101 E6.35406
G1 X87.573 Y80.293 E6.37836
G1 X87.501 Y80.504 E6.40621
G1 X87.353 Y80.773 E6.44449
G1 X87.185 Y80.977 E6.47745
G1 X87.020 Y81.122 E6.50480
G1 X86.799 Y81.262 E6.53743
G1 X86.620 Y81.338 E6.56173
G1 X86.454 Y81.524 E6.59275
G1 X86.399 Y81.711 E6.61706
G1 X86.303 Y81.913 E6.64494
G1 X86.127 Y82.163 E6.68309
G1 X85.937 Y82.347 E6.71612
G1 X85.757 Y82.473 E6.74349
G1 X85.522 Y82.587 E6.77611
G1 X85.335 Y82.643 E6.80042
G1 X85.150 Y82.809 E6.83143
G1 X85.074 Y82.988 E6.85574
G1 X84.931 Y83.211 E6.88875
G1 X84.786 Y83.376 E6.91614
G1 X84.583 Y83.542 E6.94886
G1 X84.308 Y83.692 E6.98799
G1 X84.104 Y83.761 E7.01480
G1 X83.912 Y83.795 E7.03910
G1 X83.710 Y83.939 E7.07011
G1 X83.614 Y84.109 E7.09443
G1 X83.476 Y84.285 E7.12233
G1 X83.249 Y84.489 E7.16041
G1 X83.022 Y84.627 E7.19351
G1 X82.819 Y84.709 E7.22085
G1 X82.564 Y84.769 E7.25344
G1 X82.369 Y84.781 E7.27778
G1 X82.152 Y84.902 E7.30880
G1 X82.037 Y85.060 E7.33316
G1 X81.849 Y85.246 E7.36616
G1 X81.670 Y85.374 E7.39363
G1 X81.437 Y85.491 E7.42617
G1 X81.134 Y85.576 E7.46535
G1 X80.921 Y85.598 E7.49212
G1 X80.726 Y85.588 E7.51646
G1 X80.496 Y85.683 E7.54748
G1 X80.365 Y85.828 E7.57181
G1 X80.191 Y85.969 E7.59973
G1 X79.924 Y86.117 E7.63779
G1 X79.673 Y86.201 E7.67086
G1 X79.456 Y86.236 E7.69822
G1 X79.195 Y86.237 E7.73081
G1 X79.002 Y86.206 E7.75515
G1 X78.763 Y86.275 E7.78616
G1 X78.617 Y86.404 E7.81052
G1 X78.392 Y86.543 E7.84345
G1 X78.189 Y86.628 E7.87094
G1 X77.935 Y86.690 E7.90354
G1 X77.621 Y86.706 E7.94273
G1 X77.409 Y86.680 E7.96946
G1 X77.220 Y86.627 E7.99383
G1 X76.975 Y86.669 E8.02484
G1 X76.815 Y86.780 E8.04920
G1 X76.614 Y86.879 E8.07713
G1 X76.321 Y86.964 E8.11518
G1 X76.057 Y86.990 E8.14825
G1 X75.838 Y86.976 E8.17558
G1 X75.583 Y86.919 E8.20820
G1 X75.403 Y86.846 E8.23251
G1 X75.154 Y86.860 E8.26353
G1 X74.983 Y86.953 E8.28788
G1 X74.771 Y87.029 E8.31586
G1 X74.471 Y87.080 E8.35383
G1 X74.206 Y87.076 E8.38693
G1 X73.990 Y87.038 E8.41427
G1 X73.743 Y86.953 E8.44683
G1 X73.572 Y86.860 E8.47120
G1 X73.323 Y86.846 E8.50222
G1 X73.143 Y86.919 E8.52649
G1 X72.884 Y86.976 E8.55954
G1 X72.665 Y86.990 E8.58691
G1 X72.404 Y86.964 E8.61961
G1 X72.103 Y86.876 E8.65877
G1 X71.911 Y86.781 E8.68551
G1 X71.751 Y86.669 E8.70988
G1 X71.505 Y86.627 E8.74090
G1 X71.318 Y86.680 E8.76522
G1 X71.097 Y86.706 E8.79294
G1 X70.791 Y86.690 E8.83114
G1 X70.533 Y86.627 E8.86428
G1 X70.331 Y86.542 E8.89163
G1 X70.109 Y86.404 E8.92424
G1 X69.962 Y86.275 E8.94857
G1 X69.724 Y86.206 E8.97958
G1 X69.531 Y86.237 E9.00390
G1 X69.267 Y86.236 E9.03688
G1 X69.048 Y86.200 E9.06447
G1 X68.801 Y86.117 E9.09699
G1 X68.527 Y85.963 E9.13614
G1 X68.361 Y85.828 E9.16291
G1 X68.230 Y85.683 E9.18725
G1 X68.000 Y85.588 E9.21826
G1 X67.805 Y85.598 E9.24258
G1 X67.584 Y85.575 E9.27030
G1 X67.288 Y85.490 E9.30869
G1 X67.052 Y85.372 E9.34166
G1 X66.874 Y85.244 E9.36899
G1 X66.688 Y85.060 E9.40160
G1 X66.574 Y84.902 E9.42593
G1 X66.356 Y84.781 E9.45695
G1 X66.162 Y84.769 E9.48130
G1 X65.904 Y84.708 E9.51429
G1 X65.700 Y84.625 E9.54176
G1 X65.477 Y84.489 E9.57438
G1 X65.249 Y84.284 E9.61265
G1 X65.112 Y84.109 E9.64028
G1 X65.016 Y83.939 E9.66462
G1 X64.813 Y83.795 E9.69563
G1 X64.622 Y83.761 E9.71993
G1 X64.411 Y83.689 E9.74773
G1 X64.142 Y83.542 E9.78594
G1 X63.937 Y83.373 E9.81904
G1 X63.792 Y83.209 E9.84637
G1 X63.652 Y82.988 E9.87896
G1 X63.576 Y82.809 E9.90330
G1 X63.391 Y82.643 E9.93432
G1 X63.204 Y82.587 E9.95862
G1 X63.002 Y82.492 E9.98651
G1 X62.752 Y82.316 E10.02463
G1 X62.568 Y82.125 E10.05770
G1 X62.442 Y81.946 E10.08505
G1 X62.327 Y81.711 E10.11766
G1 X62.272 Y81.524 E10.14199
G1 X62.106 Y81.338 E10.17300
G1 X61.926 Y81.262 E10.19733
G1 X61.703 Y81.120 E10.23031
G1 X61.538 Y80.974 E10.25781
G1 X61.372 Y80.771 E10.29052
G1 X61.222 Y80.496 E10.32956
G1 X61.153 Y80.293 E10.35634
G1 X61.119 Y80.101 E10.38067
G1 X60.975 Y79.898 E10.41168
G1 X60.805 Y79.803 E10.43599
G1 X60.630 Y79.665 E10.46379
G1 X60.425 Y79.437 E10.50203
G1 X60.288 Y79.210 E10.53509
G1 X60.205 Y79.007 E10.56241
G1 X60.146 Y78.753 E10.59505
G1 X60.133 Y78.558 E10.61935
G1 X60.013 Y78.340 E10.65037
G1 X59.855 Y78.226 E10.67471
G1 X59.669 Y78.038 E10.70770
G1 X59.540 Y77.859 E10.73519
G1 X59.424 Y77.625 E10.76781
G1 X59.339 Y77.323 E10.80693
G1 X59.317 Y77.110 E10.83368
G1 X59.326 Y76.915 E10.85803
G1 X59.231 Y76.685 E10.88905
G1 X59.087 Y76.554 E10.91338
G1 X58.946 Y76.380 E10.94121
G1 X58.797 Y76.113 E10.97942
G1 X58.714 Y75.861 E11.01244
G1 X58.678 Y75.645 E11.03978
G1 X58.677 Y75.383 E11.07240
G1 X58.708 Y75.191 E11.09672
G1 X58.640 Y74.952 E11.12773
G1 X58.511 Y74.805 E11.15208
G1 X58.391 Y74.618 E11.17982
G1 X58.273 Y74.335 E11.21804
G1 X58.218 Y74.076 E11.25114
G1 X58.207 Y73.857 E11.27847
G1 X58.235 Y73.597 E11.31105
G1 X58.287 Y73.409 E11.33540
G1 X58.246 Y73.164 E11.36642
G1 X58.134 Y73.004 E11.39075
G1 X58.021 Y72.764 E11.42379
G1 X57.959 Y72.553 E11.45129
G1 X57.926 Y72.294 E11.48378
G1 X57.944 Y71.989 E11.52197
G1 X57.995 Y71.772 E11.54974
G1 X58.068 Y71.591 E11.57409
G1 X58.055 Y71.343 E11.60510
G1 X57.962 Y71.171 E11.62943
G1 X57.886 Y70.962 E11.65721
G1 X57.834 Y70.660 E11.69546
G1 X57.838 Y70.395 E11.72850
G1 X57.876 Y70.179 E11.75584
G1 X57.962 Y69.932 E11.78845
G1 X58.055 Y69.760 E11.81277
G1 X58.068 Y69.512 E11.84379
G1 X57.995 Y69.331 E11.86814
G1 X57.938 Y69.072 E11.90124
G1 X57.925 Y68.852 E11.92866
G1 X57.951 Y68.592 E11.96132
G1 X58.039 Y68.292 E12.00034
G1 X58.134 Y68.099 E12.02711
G1 X58.246 Y67.939 E12.05145
G1 X58.287 Y67.694 E12.08247
G1 X58.235 Y67.506 E12.10679
G1 X58.208 Y67.284 E12.13469
G1 X58.225 Y66.979 E12.17279
G1 X58.288 Y66.722 E12.20586
G1 X58.373 Y66.520 E12.23319
G1 X58.511 Y66.298 E12.26581
G1 X58.640 Y66.151 E12.29013
G1 X58.708 Y65.912 E12.32115
G1 X58.677 Y65.720 E12.34546
G1 X58.679 Y65.455 E12.37849
G1 X58.715 Y65.237 E12.40608
G1 X58.798 Y64.990 E12.43857
G1 X58.951 Y64.716 E12.47771
G1 X59.087 Y64.550 E12.50446
G1 X59.231 Y64.418 E12.52882
G1 X59.326 Y64.189 E12.55983
G1 X59.317 Y63.994 E12.58416
G1 X59.340 Y63.771 E12.61211
G1 X59.424 Y63.478 E12.65018
G1 X59.543 Y63.241 E12.68324
G1 X59.671 Y63.063 E12.71057
G1 X59.855 Y62.877 E12.74316
G1 X60.013 Y62.763 E12.76750
G1 X60.133 Y62.545 E12.79852
G1 X60.146 Y62.350 E12.82285
G1 X60.194 Y62.132 E12.85070
G1 X60.310 Y61.850 E12.88884
G1 X60.455 Y61.627 E12.92191
G1 X60.602 Y61.465 E12.94926
G1 X60.805 Y61.301 E12.98185
G1 X60.975 Y61.205 E13.00619
G1 X61.119 Y61.002 E13.03720
G1 X61.153 Y60.810 E13.06153
G1 X61.242 Y60.561 E13.09454
G1 X61.348 Y60.368 E13.12197
G1 X61.508 Y60.161 E13.15460
G1 X61.743 Y59.953 E13.19376
G1 X61.926 Y59.841 E13.22053
G1 X62.106 Y59.765 E13.24487
G1 X62.272 Y59.579 E13.27588
G1 X62.327 Y59.392 E13.30023
G1 X62.422 Y59.191 E13.32804
G1 X62.509 Y59.061 E13.34753
G92 E0
G1 X85.578 Y80.574 F15000.000
G1 F3600
G1 X85.661 Y81.169 E0.04018
G1 X85.651 Y81.280 E0.04763
G1 X85.568 Y81.505 E0.06361
G1 X85.417 Y81.685 E0.07931
G1 X85.208 Y81.808 E0.09555
G1 X84.980 Y81.849 E0.11100
G1 X84.385 Y81.766 E0.15114
G1 X84.401 Y82.367 E0.19132
G1 X84.334 Y82.588 E0.20674
G1 X84.271 Y82.691 E0.21476
G1 X84.098 Y82.856 E0.23076
G1 X83.879 Y82.951 E0.24671
G1 X83.760 Y82.969 E0.25472
G1 X83.648 Y82.967 E0.26221
G1 X83.066 Y82.818 E0.30236
G1 X83.015 Y83.417 E0.34252
G1 X82.980 Y83.523 E0.34999
G1 X82.851 Y83.723 E0.36590
G1 X82.659 Y83.868 E0.38197
G1 X82.429 Y83.939 E0.39805
G1 X82.200 Y83.929 E0.41333
G1 X81.638 Y83.715 E0.45350
G1 X81.520 Y84.305 E0.49367
G1 X81.406 Y84.505 E0.50909
G1 X81.225 Y84.661 E0.52503
G1 X81.000 Y84.746 E0.54107
G1 X80.762 Y84.749 E0.55701
G1 X80.653 Y84.722 E0.56449
G1 X80.119 Y84.447 E0.60465
G1 X79.935 Y85.019 E0.64479
G1 X79.799 Y85.206 E0.66024
G1 X79.707 Y85.282 E0.66823
G1 X79.488 Y85.380 E0.68426
G1 X79.250 Y85.398 E0.70021
G1 X79.132 Y85.376 E0.70823
G1 X79.027 Y85.337 E0.71569
G1 X78.527 Y85.004 E0.75586
G1 X78.280 Y85.552 E0.79600
G1 X78.212 Y85.641 E0.80350
G1 X78.024 Y85.787 E0.81944
G1 X77.795 Y85.861 E0.83547
G1 X77.557 Y85.852 E0.85142
G1 X77.342 Y85.767 E0.86684
G1 X76.882 Y85.379 E0.90701
G1 X76.576 Y85.897 E0.94718
G1 X76.402 Y86.048 E0.96260
G1 X76.180 Y86.135 E0.97854
G1 X75.940 Y86.141 E0.99458
G1 X75.713 Y86.066 E1.01052
G1 X75.620 Y86.004 E1.01801
G1 X75.206 Y85.568 E1.05816
G1 X74.844 Y86.048 E1.09833
G1 X74.654 Y86.179 E1.11372
G1 X74.423 Y86.241 E1.12972
G1 X74.184 Y86.220 E1.14578
G1 X73.968 Y86.120 E1.16167
G1 X73.882 Y86.048 E1.16916
G1 X73.520 Y85.568 E1.20930
G1 X73.106 Y86.004 E1.24948
G1 X72.902 Y86.114 E1.26490
G1 X72.666 Y86.149 E1.28084
G1 X72.431 Y86.101 E1.29688
G1 X72.227 Y85.977 E1.31282
G1 X72.150 Y85.896 E1.32031
G1 X71.844 Y85.379 E1.36046
G1 X71.384 Y85.766 E1.40061
G1 X71.169 Y85.852 E1.41605
G1 X71.051 Y85.867 E1.42399
G1 X70.813 Y85.834 E1.44008
G1 X70.600 Y85.721 E1.45615
G1 X70.513 Y85.641 E1.46404
G1 X70.446 Y85.552 E1.47149
G1 X70.199 Y85.004 E1.51167
G1 X69.699 Y85.337 E1.55184
G1 X69.594 Y85.376 E1.55929
G1 X69.356 Y85.400 E1.57527
G1 X69.124 Y85.340 E1.59128
G1 X68.927 Y85.206 E1.60722
G1 X68.791 Y85.019 E1.62267
G1 X68.607 Y84.447 E1.66282
G1 X68.073 Y84.722 E1.70297
G1 X67.964 Y84.749 E1.71045
G1 X67.726 Y84.746 E1.72639
G1 X67.501 Y84.661 E1.74243
G1 X67.320 Y84.505 E1.75838
G1 X67.206 Y84.305 E1.77379
G1 X67.088 Y83.715 E1.81397
G1 X66.526 Y83.929 E1.85411
G1 X66.295 Y83.939 E1.86956
G1 X66.178 Y83.913 E1.87755
G1 X65.965 Y83.804 E1.89358
