; generated by Slic3r 1.3.1-dev on 2019-07-19 at 14:27:42

; external perimeters extrusion width = 0.44mm (2.61mm^3/s)
; perimeters extrusion width = 0.40mm (5.20mm^3/s)
; infill extrusion width = 0.50mm (8.93mm^3/s)
; solid infill extrusion width = 0.56mm (3.02mm^3/s)
; top infill extrusion width = 0.38mm (1.54mm^3/s)

M107
M104 S230 ; set temperature
G28 ; home all axes
G1 X150 Y150 Z50 F10000
; Filament gcode
; layer 1
M109 S230 ; set temperature and wait for it to be reached
G21 ; set units to millimeters
G90 ; use absolute coordinates
M82 ; use absolute distances for extrusion
G92 E0
G92 E0
G1 Z1.350 F15000.000
G1 X51.092 Y31.932 F15000.000
G1 F3600
G1 X51.613 Y31.200 E0.13073
G1 X52.242 Y30.568 E0.26040
G1 X53.110 Y29.959 E0.41475
G1 X53.919 Y29.581 E0.54469
G1 X54.083 Y29.528 E0.56973
G1 X54.942 Y29.310 E0.69882
G1 X55.708 Y29.242 E0.81070
G1 X85.859 Y29.234 E5.19802
G1 X86.759 Y29.310 E5.32943
G1 X87.753 Y29.570 E5.47898
G1 X88.561 Y29.942 E5.60838
G1 X88.718 Y30.036 E5.63503
G1 X89.435 Y30.546 E5.76307
G1 X90.088 Y31.200 E5.89757
G1 X90.690 Y32.069 E6.05139
G1 X91.065 Y32.882 E6.18159
G1 X91.302 Y33.748 E6.31233
G1 X91.401 Y34.776 E6.46253
G1 X91.401 Y44.792 E7.92008
G1 X91.325 Y45.692 E8.05149
G1 X91.065 Y46.687 E8.20104
G1 X90.693 Y47.494 E8.33044
G1 X90.599 Y47.652 E8.35709
G1 X90.088 Y48.368 E8.48513
G1 X89.435 Y49.022 E8.61963
G1 X88.592 Y49.610 E8.76918
G1 X87.899 Y49.934 E8.88052
G1 X87.619 Y50.040 E8.92410
G1 X86.733 Y50.262 E9.05692
G1 X85.859 Y50.334 E9.18458
G1 X55.842 Y50.334 E13.55239
G1 X54.942 Y50.258 E13.68380
G1 X53.948 Y49.998 E13.83335
G1 X53.141 Y49.626 E13.96274
G1 X52.983 Y49.532 E13.98939
G1 X52.267 Y49.022 E14.11744
G1 X51.613 Y48.368 E14.25193
G1 X51.025 Y47.525 E14.40149
G1 X50.700 Y46.832 E14.51283
G1 X50.595 Y46.552 E14.55640
G1 X50.376 Y45.692 E14.68549
G1 X50.301 Y44.792 E14.81690
G1 X50.301 Y34.759 E16.27687
G1 X50.376 Y33.876 E16.40586
G1 X50.595 Y33.016 E16.53495
G1 X50.650 Y32.847 E16.56080
G1 X51.061 Y31.983 E16.70002
G92 E0
G1 X62.871 Y45.286 F15000.000
G1 F3600
G1 X63.339 Y46.290 E0.10229
G1 X62.292 Y46.290 E0.19905
G1 X62.841 Y45.338 E0.30055
G92 E0
G1 X62.845 Y40.987 F15000.000
G1 F3600
G1 X62.569 Y40.593 E0.04436
G1 X61.695 Y39.763 E0.15579
G1 X62.028 Y39.571 E0.19134
G1 X62.851 Y38.590 E0.30958
G1 X63.673 Y39.571 E0.42783
G1 X64.044 Y39.785 E0.46738
G1 X63.064 Y40.607 E0.58555
G1 X62.875 Y40.935 E0.62054
G1 X63.558 Y41.021 F15000.000
G1 F3600
G1 X62.896 Y42.167 E0.74278
G1 X62.086 Y41.010 E0.87329
G1 X61.409 Y40.367 E0.95954
G1 X60.384 Y39.787 E1.06836
G1 X61.613 Y39.077 E1.19952
G1 X62.473 Y38.053 E1.32299
G1 X62.851 Y37.242 E1.40561
G1 X63.229 Y38.053 E1.48823
G1 X64.088 Y39.077 E1.61170
G1 X65.349 Y39.805 E1.74618
G1 X64.582 Y40.162 E1.82432
G1 X63.604 Y40.983 E1.94225
G92 E0
G1 X62.851 Y34.246 F15000.000
G1 F3600
G1 X62.293 Y33.280 E0.10311
G1 X63.409 Y33.280 E0.20621
G1 X62.881 Y34.194 E0.30376
G92 E0
G1 X69.657 Y39.784 F15000.000
G1 F3600
G1 X70.637 Y38.961 E0.11818
G1 X70.851 Y38.591 E0.15772
G1 X71.853 Y39.784 E0.30165
G1 X70.851 Y40.978 E0.44565
G1 X70.028 Y39.998 E0.56390
G1 X69.709 Y39.814 E0.59790
G1 X69.119 Y39.406 F15000.000
G1 F3600
G1 X70.143 Y38.547 E0.72138
G1 X70.871 Y37.286 E0.85586
G1 X71.229 Y38.053 E0.93399
G1 X72.088 Y39.077 E1.05747
G1 X73.313 Y39.784 E1.18816
G1 X72.088 Y40.491 E1.31885
G1 X71.128 Y41.635 E1.45675
G1 X70.851 Y42.398 E1.53173
G1 X70.573 Y41.635 E1.60672
G1 X69.613 Y40.491 E1.74461
G1 X68.353 Y39.764 E1.87909
G1 X69.065 Y39.431 E1.95168
G92 E0
G1 X77.656 Y39.784 F15000.000
G1 F3600
G1 X78.851 Y38.782 E0.14400
G1 X80.045 Y39.784 E0.28800
G1 X79.064 Y40.607 E0.40625
G1 X78.845 Y40.987 E0.44677
G1 X78.496 Y40.488 E0.50300
G1 X77.702 Y39.823 E0.59865
G1 X77.119 Y39.406 F15000.000
G1 F3600
G1 X78.143 Y38.547 E0.72213
G1 X78.851 Y37.322 E0.85282
G1 X79.558 Y38.547 E0.98351
G1 X80.582 Y39.406 E1.10700
G1 X81.424 Y39.799 E1.19282
G1 X80.702 Y40.062 E1.26384
G1 X79.558 Y41.021 E1.40174
G1 X78.896 Y42.167 E1.52398
G1 X78.024 Y40.921 E1.66453
G1 X77.000 Y40.062 E1.78800
G1 X76.277 Y39.799 E1.85902
G1 X77.065 Y39.431 E1.93931
G92 E0
G1 X78.830 Y34.282 F15000.000
G1 F3600
G1 X78.364 Y33.283 E0.10181
G1 X79.407 Y33.283 E0.19809
G1 X78.860 Y34.230 E0.29906
G92 E0
G1 X85.656 Y39.784 F15000.000
G1 F3600
G1 X86.721 Y38.890 E0.12843
G1 X86.721 Y40.678 E0.29353
G1 X85.702 Y39.823 E0.41641
G1 X85.119 Y39.406 F15000.000
G1 F3600
G1 X86.143 Y38.547 E0.53989
G1 X86.893 Y37.248 E0.67844
G1 X87.356 Y37.372 E0.72273
G1 X87.356 Y42.277 E1.17586
G1 X86.840 Y42.368 E1.22430
G1 X86.626 Y41.782 E1.28198
G1 X86.024 Y40.921 E1.37905
G1 X85.000 Y40.062 E1.50252
G1 X84.277 Y39.799 E1.57354
G1 X85.065 Y39.431 E1.65383
G92 E0
G1 X56.045 Y39.784 F15000.000
G1 F3600
G1 X54.980 Y40.678 E0.12842
G1 X54.980 Y38.890 E0.29352
G1 X55.999 Y39.746 E0.41640
G1 X56.582 Y39.406 F15000.000
G1 F3600
G1 X57.424 Y39.799 E0.50223
G1 X56.702 Y40.062 E0.57325
G1 X55.678 Y40.921 E0.69672
G1 X55.100 Y41.746 E0.78973
G1 X54.854 Y42.374 E0.85206
G1 X54.345 Y42.278 E0.89989
G1 X54.345 Y37.372 E1.35303
G1 X54.808 Y37.248 E1.39732
G1 X55.558 Y38.547 E1.53587
G1 X56.536 Y39.368 E1.65381
G1 X56.926 Y38.866 F15000.000
G1 F3600
G1 X57.727 Y39.240 E1.73543
G1 X58.851 Y39.438 E1.84084
G1 X60.100 Y39.217 E1.95806
G1 X61.199 Y38.583 E2.07527
G1 X61.933 Y37.709 E2.18069
G1 X62.284 Y36.955 E2.25755
G1 X62.489 Y35.993 E2.34838
G1 X62.416 Y35.155 E2.42605
G1 X62.220 Y34.424 E2.49601
G1 X61.713 Y33.546 E2.58963
G1 X60.812 Y32.645 E2.70741
G1 X64.993 Y32.646 E3.09371
G1 X64.052 Y33.436 E3.20725
G1 X63.417 Y34.534 E3.32447
G1 X63.197 Y35.784 E3.44168
G1 X63.395 Y36.908 E3.54710
G1 X63.769 Y37.709 E3.62873
G1 X64.502 Y38.583 E3.73414
G1 X65.601 Y39.217 E3.85135
G1 X66.851 Y39.438 E3.96857
G1 X67.974 Y39.240 E4.07399
G1 X68.775 Y38.866 E4.15561
G1 X69.649 Y38.133 E4.26103
G1 X70.284 Y37.034 E4.37824
G1 X70.482 Y35.910 E4.48365
G1 X70.405 Y35.030 E4.56528
G1 X70.015 Y33.957 E4.67070
G1 X68.915 Y32.646 E4.82879
G1 X72.991 Y32.647 E5.20538
G1 X72.052 Y33.436 E5.31868
G1 X71.417 Y34.535 E5.43590
G1 X71.197 Y35.784 E5.55311
G1 X71.395 Y36.908 E5.65853
G1 X71.769 Y37.709 E5.74016
G1 X72.502 Y38.583 E5.84557
G1 X73.601 Y39.217 E5.96278
G1 X74.851 Y39.438 E6.08000
G1 X75.974 Y39.240 E6.18542
G1 X76.775 Y38.866 E6.26704
G1 X77.649 Y38.133 E6.37246
G1 X78.284 Y37.034 E6.48967
G1 X78.504 Y35.784 E6.60689
G1 X78.306 Y34.660 E6.71230
G1 X77.933 Y33.859 E6.79393
G1 X76.916 Y32.648 E6.94001
G1 X80.989 Y32.649 E7.31629
G1 X80.052 Y33.436 E7.42935
G1 X79.417 Y34.535 E7.54657
G1 X79.197 Y35.784 E7.66378
G1 X79.417 Y37.034 E7.78099
G1 X80.052 Y38.133 E7.89821
G1 X80.926 Y38.866 E8.00363
G1 X81.727 Y39.240 E8.08525
G1 X82.851 Y39.438 E8.19067
G1 X83.974 Y39.240 E8.29608
G1 X84.775 Y38.866 E8.37771
G1 X85.649 Y38.133 E8.48312
G1 X86.284 Y37.034 E8.60034
G1 X86.504 Y35.784 E8.71755
G1 X86.306 Y34.660 E8.82297
G1 X85.933 Y33.859 E8.90459
G1 X84.918 Y32.650 E9.05047
G1 X85.814 Y32.650 E9.13326
G1 X86.254 Y32.694 E9.17411
G1 X86.586 Y32.785 E9.20590
G1 X86.889 Y32.925 E9.23675
G1 X87.239 Y33.170 E9.27621
G1 X87.465 Y33.396 E9.30576
G1 X87.710 Y33.746 E9.34522
G1 X87.844 Y34.036 E9.37478
G1 X87.953 Y34.449 E9.41423
G1 X87.991 Y34.904 E9.45638
G1 X87.991 Y44.664 E10.35799
G1 X87.953 Y45.119 E10.40013
G1 X87.849 Y45.515 E10.43793
G1 X87.670 Y45.887 E10.47608
G1 X87.474 Y46.164 E10.50745
G1 X87.239 Y46.399 E10.53813
G1 X86.889 Y46.643 E10.57758
G1 X86.586 Y46.784 E10.60843
G1 X86.260 Y46.873 E10.63963
G1 X85.715 Y46.925 E10.69021
G1 X84.706 Y46.925 E10.78345
G1 X85.552 Y46.215 E10.88547
G1 X86.058 Y45.491 E10.96710
G1 X86.449 Y44.419 E11.07252
G1 X86.449 Y43.150 E11.18973
G1 X86.058 Y42.077 E11.29514
G1 X85.552 Y41.353 E11.37677
G1 X84.677 Y40.620 E11.48219
G1 X83.680 Y40.257 E11.58024
G1 X82.961 Y40.154 E11.64731
G1 X82.096 Y40.230 E11.72753
G1 X81.024 Y40.620 E11.83294
G1 X80.052 Y41.436 E11.95016
G1 X79.417 Y42.535 E12.06738
G1 X79.219 Y43.658 E12.17280
G1 X79.296 Y44.539 E12.25442
G1 X79.686 Y45.611 E12.35983
G1 X80.789 Y46.925 E12.51825
G1 X76.706 Y46.925 E12.89546
G1 X77.552 Y46.215 E12.99748
G1 X78.058 Y45.491 E13.07911
G1 X78.449 Y44.419 E13.18453
G1 X78.449 Y43.150 E13.30174
G1 X78.058 Y42.077 E13.40715
G1 X77.552 Y41.353 E13.48878
G1 X76.677 Y40.620 E13.59420
G1 X75.680 Y40.257 E13.69224
G1 X74.961 Y40.154 E13.75932
G1 X74.222 Y40.219 E13.82788
G1 X73.490 Y40.415 E13.89784
G1 X72.502 Y40.985 E14.00325
G1 X71.687 Y41.957 E14.12047
G1 X71.253 Y43.150 E14.23768
G1 X71.253 Y44.419 E14.35490
G1 X71.687 Y45.611 E14.47211
G1 X72.789 Y46.925 E14.63053
G1 X68.912 Y46.925 E14.98863
G1 X70.015 Y45.611 E15.14705
G1 X70.405 Y44.539 E15.25247
G1 X70.471 Y43.784 E15.32243
G1 X70.405 Y43.030 E15.39239
G1 X70.015 Y41.957 E15.49781
G1 X69.199 Y40.985 E15.61502
G1 X68.211 Y40.415 E15.72043
G1 X67.443 Y40.209 E15.79385
G1 X66.653 Y40.160 E15.86700
G1 X65.716 Y40.334 E15.95503
G1 X64.926 Y40.702 E16.03553
G1 X64.052 Y41.436 E16.14094
G1 X63.417 Y42.535 E16.25816
G1 X63.197 Y43.784 E16.37538
G1 X63.395 Y44.908 E16.48079
G1 X63.769 Y45.709 E16.56242
G1 X64.789 Y46.925 E16.70904
G1 X60.706 Y46.925 E17.08624
G1 X61.649 Y46.133 E17.20007
G1 X62.258 Y45.079 E17.31246
G1 X62.489 Y43.993 E17.41503
G1 X62.405 Y43.030 E17.50436
G1 X62.058 Y42.077 E17.59797
G1 X61.603 Y41.426 E17.67139
G1 X61.028 Y40.881 E17.74454
G1 X60.199 Y40.412 E17.83257
G1 X59.556 Y40.239 E17.89410
G1 X58.961 Y40.154 E17.94958
G1 X58.096 Y40.230 E18.02980
G1 X57.024 Y40.620 E18.13521
G1 X56.150 Y41.353 E18.24062
G1 X55.663 Y42.048 E18.31893
G1 X55.258 Y43.081 E18.42140
G1 X55.249 Y44.409 E18.54410
G1 X55.656 Y45.526 E18.65396
G1 X56.202 Y46.265 E18.73881
G1 X57.002 Y46.925 E18.83459
G1 X55.986 Y46.925 E18.92839
G1 X55.441 Y46.873 E18.97896
G1 X55.116 Y46.784 E19.01016
G1 X54.813 Y46.643 E19.04101
G1 X54.462 Y46.399 E19.08047
G1 X54.236 Y46.172 E19.11003
G1 X53.992 Y45.822 E19.14949
G1 X53.851 Y45.519 E19.18034
G1 X53.762 Y45.193 E19.21153
G1 X53.710 Y44.648 E19.26211
G1 X53.710 Y34.904 E20.16226
G1 X53.748 Y34.449 E20.20440
G1 X53.852 Y34.054 E20.24221
G1 X54.031 Y33.681 E20.28035
G1 X54.228 Y33.404 E20.31172
G1 X54.462 Y33.170 E20.34240
G1 X54.813 Y32.925 E20.38185
G1 X55.114 Y32.785 E20.41250
G1 X55.506 Y32.683 E20.45000
G1 X55.970 Y32.644 E20.49301
G1 X56.995 Y32.644 E20.58772
G1 X56.052 Y33.436 E20.70151
G1 X55.508 Y34.378 E20.80201
G1 X55.292 Y35.080 E20.86987
G1 X55.219 Y35.910 E20.94683
G1 X55.417 Y37.034 E21.05224
G1 X56.052 Y38.133 E21.16946
G1 X56.880 Y38.828 E21.26934
G1 X57.270 Y38.326 F15000.000
G1 F3600
G1 X56.546 Y37.718 E21.35669
G1 X56.023 Y36.813 E21.45323
G1 X55.859 Y35.882 E21.54058
G1 X55.918 Y35.202 E21.60360
G1 X56.094 Y34.633 E21.65862
G1 X56.546 Y33.850 E21.74215
G1 X57.270 Y33.242 E21.82951
G1 X57.911 Y32.943 E21.89481
G1 X58.695 Y32.798 E21.96853
G1 X59.408 Y32.844 E22.03450
G1 X60.002 Y33.027 E22.09187
G1 X60.699 Y33.429 E22.16622
G1 X61.205 Y33.936 E22.23241
G1 X61.628 Y34.669 E22.31058
G1 X61.788 Y35.266 E22.36769
G1 X61.849 Y35.954 E22.43144
G1 X61.678 Y36.752 E22.50683
G1 X61.393 Y37.365 E22.56931
G1 X60.785 Y38.089 E22.65666
G1 X59.880 Y38.612 E22.75319
G1 X58.851 Y38.793 E22.84973
G1 X57.919 Y38.629 E22.93708
G1 X57.324 Y38.351 E22.99772
G92 E0
G1 X58.235 Y40.855 F15000.000
G1 F3600
G1 X58.944 Y40.793 E0.06574
G1 X59.428 Y40.862 E0.11094
G1 X59.957 Y41.004 E0.16150
G1 X60.648 Y41.395 E0.23486
G1 X61.119 Y41.843 E0.29491
G1 X61.490 Y42.373 E0.35471
G1 X61.780 Y43.168 E0.43288
G1 X61.849 Y43.954 E0.50571
G1 X61.658 Y44.848 E0.59023
G1 X61.156 Y45.718 E0.68301
G1 X60.355 Y46.390 E0.77954
G1 X59.366 Y46.750 E0.87682
G1 X58.269 Y46.742 E0.97809
G1 X57.333 Y46.375 E1.07097
G1 X56.666 Y45.825 E1.15088
G1 X56.221 Y45.223 E1.22004
G1 X55.885 Y44.299 E1.31085
G1 X55.892 Y43.203 E1.41212
G1 X56.227 Y42.350 E1.49674
G1 X56.622 Y41.786 E1.56034
G1 X57.346 Y41.178 E1.64769
G1 X58.178 Y40.875 E1.72950
G92 E0
G1 X64.023 Y42.755 F15000.000
G1 F3600
G1 X64.546 Y41.850 E0.09654
G1 X65.270 Y41.242 E0.18389
G1 X65.911 Y40.943 E0.24920
G1 X66.692 Y40.799 E0.32256
G1 X67.341 Y40.839 E0.38261
G1 X67.966 Y41.006 E0.44241
G1 X68.785 Y41.479 E0.52976
G1 X69.456 Y42.280 E0.62629
G1 X69.780 Y43.168 E0.71365
G1 X69.834 Y43.784 E0.77076
G1 X69.780 Y44.400 E0.82787
G1 X69.456 Y45.289 E0.91523
G1 X68.785 Y46.089 E1.01176
G1 X67.880 Y46.612 E1.10829
G1 X66.851 Y46.793 E1.20483
G1 X65.822 Y46.612 E1.30136
G1 X64.916 Y46.089 E1.39790
G1 X64.309 Y45.365 E1.48525
G1 X64.006 Y44.715 E1.55144
G1 X63.842 Y43.784 E1.63879
G1 X64.013 Y42.814 E1.72978
G92 E0
G1 X65.821 Y38.612 F15000.000
G1 F3600
G1 X64.917 Y38.089 E0.09653
G1 X64.309 Y37.365 E0.18389
G1 X64.006 Y36.715 E0.25007
G1 X63.842 Y35.784 E0.33743
G1 X64.023 Y34.755 E0.43396
G1 X64.546 Y33.850 E0.53050
G1 X65.270 Y33.242 E0.61785
G1 X65.911 Y32.943 E0.68316
G1 X66.692 Y32.799 E0.75652
G1 X67.341 Y32.839 E0.81657
G1 X67.966 Y33.006 E0.87637
G1 X68.785 Y33.479 E0.96372
G1 X69.456 Y34.280 E1.06026
G1 X69.780 Y35.168 E1.14761
G1 X69.842 Y35.882 E1.21380
G1 X69.678 Y36.813 E1.30115
G1 X69.156 Y37.718 E1.39768
G1 X68.431 Y38.326 E1.48504
G1 X67.782 Y38.629 E1.55122
G1 X66.851 Y38.793 E1.63858
G1 X65.881 Y38.622 E1.72957
G92 E0
G1 X72.006 Y36.715 F15000.000
G1 F3600
G1 X71.842 Y35.784 E0.08735
G1 X72.023 Y34.755 E0.18389
G1 X72.546 Y33.850 E0.28042
G1 X73.270 Y33.242 E0.36777
G1 X73.911 Y32.943 E0.43308
G1 X74.692 Y32.799 E0.50645
G1 X75.341 Y32.839 E0.56650
G1 X75.966 Y33.006 E0.62630
G1 X76.785 Y33.479 E0.71365
G1 X77.393 Y34.203 E0.80100
G1 X77.695 Y34.853 E0.86719
G1 X77.860 Y35.784 E0.95454
G1 X77.678 Y36.813 E1.05108
G1 X77.156 Y37.718 E1.14761
G1 X76.431 Y38.326 E1.23497
G1 X75.782 Y38.629 E1.30115
G1 X74.851 Y38.793 E1.38850
G1 X73.821 Y38.612 E1.48504
G1 X72.916 Y38.089 E1.58157
G1 X72.309 Y37.365 E1.66892
G1 X72.031 Y36.770 E1.72957
G92 E0
G1 X73.735 Y41.006 F15000.000
G1 F3600
G1 X74.333 Y40.846 E0.05711
G1 X74.944 Y40.793 E0.11377
G1 X75.525 Y40.876 E0.16801
G1 X76.355 Y41.178 E0.24963
G1 X77.079 Y41.786 E0.33698
G1 X77.490 Y42.373 E0.40317
G1 X77.814 Y43.262 E0.49052
G1 X77.814 Y44.307 E0.58705
G1 X77.490 Y45.195 E0.67441
G1 X77.079 Y45.782 E0.74060
G1 X76.355 Y46.390 E0.82795
G1 X75.373 Y46.747 E0.92448
G1 X74.428 Y46.747 E1.01184
G1 X73.735 Y46.562 E1.07802
G1 X72.916 Y46.089 E1.16538
G1 X72.245 Y45.289 E1.26191
G1 X71.887 Y44.307 E1.35844
G1 X71.887 Y43.262 E1.45498
G1 X72.245 Y42.280 E1.55151
G1 X72.917 Y41.479 E1.64805
G1 X73.683 Y41.036 E1.72986
G92 E0
G1 X80.023 Y42.755 F15000.000
G1 F3600
G1 X80.546 Y41.850 E0.09654
G1 X81.346 Y41.178 E0.19307
G1 X82.235 Y40.855 E0.28042
G1 X82.944 Y40.793 E0.34616
G1 X83.525 Y40.876 E0.40039
G1 X84.355 Y41.178 E0.48202
G1 X85.079 Y41.786 E0.56937
G1 X85.490 Y42.373 E0.63556
G1 X85.814 Y43.262 E0.72291
G1 X85.814 Y44.307 E0.81944
G1 X85.490 Y45.195 E0.90680
G1 X85.079 Y45.782 E0.97299
G1 X84.355 Y46.390 E1.06034
G1 X83.373 Y46.747 E1.15687
G1 X82.428 Y46.747 E1.24422
G1 X81.735 Y46.562 E1.31041
G1 X80.916 Y46.089 E1.39777
G1 X80.245 Y45.289 E1.49430
G1 X79.921 Y44.400 E1.58165
G1 X79.859 Y43.686 E1.64783
G1 X80.013 Y42.814 E1.72965
G92 E0
G1 X81.919 Y38.629 F15000.000
G1 F3600
G1 X81.270 Y38.326 E0.06618
G1 X80.546 Y37.718 E0.15354
G1 X80.023 Y36.813 E0.25008
G1 X79.842 Y35.784 E0.34661
G1 X80.023 Y34.755 E0.44314
G1 X80.546 Y33.850 E0.53968
G1 X81.270 Y33.242 E0.62703
G1 X81.911 Y32.943 E0.69234
G1 X82.692 Y32.799 E0.76570
G1 X83.341 Y32.839 E0.82576
G1 X83.966 Y33.006 E0.88555
G1 X84.785 Y33.479 E0.97291
G1 X85.393 Y34.203 E1.06026
G1 X85.695 Y34.853 E1.12645
G1 X85.860 Y35.784 E1.21380
G1 X85.678 Y36.813 E1.31033
G1 X85.156 Y37.718 E1.40687
G1 X84.431 Y38.326 E1.49422
G1 X83.782 Y38.629 E1.56041
G1 X82.851 Y38.793 E1.64776
G1 X81.978 Y38.639 E1.72957
G92 E0
G1 X88.626 Y34.877 F15000.000
G1 F3600
G1 X88.626 Y44.691 E0.90653
G1 X88.581 Y45.227 E0.95623
G1 X88.447 Y45.735 E1.00471
G1 X88.219 Y46.210 E1.05346
G1 X87.960 Y46.575 E1.09478
G1 X87.648 Y46.887 E1.13555
G1 X87.206 Y47.195 E1.18532
G1 X86.805 Y47.382 E1.22624
G1 X86.375 Y47.500 E1.26742
G1 X85.745 Y47.559 E1.32584
G1 X55.956 Y47.559 E4.07763
G1 X55.327 Y47.500 E4.13604
G1 X54.897 Y47.382 E4.17723
