; generated by Slic3r 1.3.1-dev on 2019-06-21 at 16:50:02

; external perimeters extrusion width = 1.10mm (10.95mm^3/s)
; perimeters extrusion width = 0.40mm (7.54mm^3/s)
; infill extrusion width = 1.25mm (37.25mm^3/s)
; solid infill extrusion width = 1.40mm (12.62mm^3/s)
; top infill extrusion width = 0.60mm (3.95mm^3/s)

M107
M190 S80 ; set bed temperature and wait for it to be reached
M104 S230 ; set temperature
G28 ; home all axes
G1 X150 Y150 Z50 F10000
; Filament gcode
; layer 1
M109 S230 ; set temperature and wait for it to be reached
G21 ; set units to millimeters
G90 ; use absolute coordinates
M82 ; use absolute distances for extrusion
G92 E0
G92 E0
G1 Z0.500 F15000.000
G1 X50.744 Y42.388 F15000.000
G1 F3600
G1 X51.361 Y41.768 E0.18188
G1 X51.539 Y41.626 E0.22909
G1 X52.256 Y41.139 E0.40929
G1 X52.892 Y40.841 E0.55532
G1 X53.251 Y40.705 E0.63501
G1 X54.016 Y40.508 E0.79924
G1 X54.974 Y40.418 E0.99924
G1 X85.009 Y40.418 E7.24283
G1 X85.893 Y40.491 E7.42734
G1 X86.090 Y40.528 E7.46887
G1 X86.954 Y40.771 E7.65557
G1 X87.742 Y41.138 E7.83623
G1 X88.461 Y41.626 E8.01684
G1 X88.639 Y41.768 E8.06405
G1 X89.256 Y42.388 E8.24592
G1 X89.759 Y43.089 E8.42533
G1 X89.876 Y43.284 E8.47255
G1 X90.243 Y44.082 E8.65522
G1 X90.477 Y44.933 E8.83872
G1 X90.513 Y45.134 E8.88106
G1 X90.582 Y45.991 E9.05989
G1 X90.582 Y56.009 E11.14230
G1 X90.509 Y56.893 E11.32681
G1 X90.472 Y57.090 E11.36834
G1 X90.229 Y57.954 E11.55505
G1 X89.862 Y58.742 E11.73570
G1 X89.374 Y59.461 E11.91631
G1 X89.232 Y59.639 E11.96352
G1 X88.612 Y60.256 E12.14539
G1 X87.744 Y60.861 E12.36544
G1 X87.104 Y61.161 E12.51228
G1 X86.738 Y61.298 E12.59359
G1 X86.090 Y61.472 E12.73313
G1 X85.866 Y61.513 E12.78035
G1 X85.009 Y61.582 E12.95917
G1 X54.991 Y61.582 E19.19910
G1 X54.107 Y61.509 E19.38361
G1 X53.910 Y61.472 E19.42514
G1 X53.046 Y61.229 E19.61184
G1 X52.258 Y60.862 E19.79251
G1 X51.539 Y60.374 E19.97311
G1 X51.361 Y60.232 E20.02032
G1 X50.744 Y59.612 E20.20220
G1 X50.139 Y58.744 E20.42224
G1 X49.839 Y58.104 E20.56908
G1 X49.702 Y57.738 E20.65039
G1 X49.528 Y57.090 E20.78993
G1 X49.487 Y56.866 E20.83715
G1 X49.418 Y56.009 E21.01597
G1 X49.429 Y45.802 E23.13762
G1 X49.487 Y45.134 E23.27716
G1 X49.523 Y44.933 E23.31950
G1 X49.757 Y44.082 E23.50299
G1 X50.165 Y43.213 E23.70256
G1 X50.652 Y42.506 E23.88103
G92 E0
G1 X87.206 Y59.919 F15000.000
G1 F3600
G1 X86.553 Y60.222 E0.13353
G1 X85.839 Y60.419 E0.27108
G1 X84.979 Y60.500 E0.43122
G1 X55.021 Y60.500 E5.99070
G1 X54.264 Y60.438 E6.13159
G1 X53.447 Y60.222 E6.28840
G1 X52.794 Y59.919 E6.42193
G1 X52.083 Y59.423 E6.58280
G1 X51.577 Y58.917 E6.71568
G1 X51.081 Y58.206 E6.87655
G1 X50.778 Y57.553 E7.01007
G1 X50.562 Y56.736 E7.16689
G1 X50.500 Y55.979 E7.30778
G1 X50.500 Y46.021 E9.15585
G1 X50.561 Y45.282 E9.29328
G1 X50.779 Y44.448 E9.45333
G1 X51.155 Y43.671 E9.61351
G1 X51.574 Y43.085 E9.74724
G1 X52.083 Y42.577 E9.88069
G1 X52.794 Y42.081 E10.04156
G1 X53.449 Y41.778 E10.17542
G1 X53.797 Y41.679 E10.24267
G1 X54.278 Y41.561 E10.33461
G1 X55.020 Y41.500 E10.47277
G1 X85.124 Y41.509 E16.05916
G1 X85.857 Y41.586 E16.19587
G1 X86.553 Y41.778 E16.32987
G1 X87.206 Y42.081 E16.46340
G1 X87.917 Y42.577 E16.62426
G1 X88.423 Y43.083 E16.75714
G1 X88.919 Y43.794 E16.91801
G1 X89.220 Y44.444 E17.05089
G1 X89.439 Y45.282 E17.21175
G1 X89.500 Y46.021 E17.34918
G1 X89.500 Y55.979 E19.19725
G1 X89.439 Y56.718 E19.33468
G1 X89.220 Y57.556 E19.49554
G1 X88.858 Y58.310 E19.65067
G1 X88.426 Y58.915 E19.78872
G1 X87.917 Y59.423 E19.92217
G1 X87.329 Y59.833 E20.05521
G1 X87.206 Y59.919 F15000.000
G1 X86.760 Y59.142 F15000.000
G1 F3600
G1 X86.245 Y59.381 E20.16055
G1 X85.628 Y59.551 E20.27918
G1 X84.943 Y59.607 E20.40685
G1 X55.057 Y59.607 E25.95270
G1 X54.372 Y59.551 E26.08038
G1 X53.755 Y59.381 E26.19900
G1 X53.240 Y59.142 E26.30435
G1 X52.658 Y58.736 E26.43602
G1 X52.264 Y58.342 E26.53956
G1 X51.858 Y57.760 E26.67123
G1 X51.619 Y57.245 E26.77658
G1 X51.449 Y56.628 E26.89521
G1 X51.393 Y55.943 E27.02288
G1 X51.393 Y46.057 E28.85732
G1 X51.444 Y45.433 E28.97355
G1 X51.620 Y44.758 E29.10296
G1 X51.925 Y44.129 E29.23277
G1 X52.258 Y43.664 E29.33876
G1 X52.658 Y43.264 E29.44389
G1 X53.240 Y42.858 E29.57556
G1 X53.760 Y42.617 E29.68185
G1 X54.025 Y42.542 E29.73297
G1 X54.422 Y42.445 E29.80878
G1 X55.057 Y42.393 E29.92705
G1 X85.077 Y42.402 E35.49793
G1 X85.690 Y42.466 E35.61231
G1 X86.245 Y42.619 E35.71901
G1 X86.760 Y42.858 E35.82435
G1 X87.342 Y43.264 E35.95603
G1 X87.736 Y43.658 E36.05956
G1 X88.142 Y44.240 E36.19124
G1 X88.377 Y44.747 E36.29477
G1 X88.556 Y45.433 E36.42644
G1 X88.607 Y46.057 E36.54267
G1 X88.607 Y55.943 E38.37711
G1 X88.556 Y56.567 E38.49335
G1 X88.377 Y57.253 E38.62501
G1 X88.119 Y57.809 E38.73857
G1 X87.742 Y58.336 E38.85882
G1 X87.342 Y58.736 E38.96394
G1 X86.883 Y59.056 E39.06778
G1 X86.313 Y58.365 F15000.000
G1 F3600
G1 X85.936 Y58.540 E39.14495
G1 X85.472 Y58.668 E39.23438
G1 X84.906 Y58.715 E39.33969
G1 X55.094 Y58.715 E44.87191
G1 X54.528 Y58.668 E44.97722
G1 X54.064 Y58.540 E45.06665
G1 X53.687 Y58.365 E45.14382
G1 X53.234 Y58.049 E45.24630
G1 X52.951 Y57.766 E45.32049
G1 X52.635 Y57.313 E45.42297
G1 X52.460 Y56.936 E45.50014
G1 X52.332 Y56.472 E45.58957
G1 X52.285 Y55.906 E45.69488
G1 X52.285 Y46.094 E47.51569
G1 X52.327 Y45.584 E47.61073
G1 X52.462 Y45.069 E47.70948
G1 X52.696 Y44.586 E47.80894
G1 X52.941 Y44.243 E47.88718
G1 X53.234 Y43.951 E47.96398
G1 X53.687 Y43.635 E48.06646
G1 X54.071 Y43.457 E48.14517
G1 X54.253 Y43.405 E48.18017
G1 X54.565 Y43.329 E48.23985
G1 X55.094 Y43.285 E48.33823
G1 X85.030 Y43.294 E53.89360
G1 X85.524 Y43.346 E53.98566
G1 X85.936 Y43.460 E54.06505
G1 X86.313 Y43.635 E54.14221
G1 X86.766 Y43.951 E54.24469
G1 X87.049 Y44.234 E54.31889
G1 X87.365 Y44.687 E54.42136
G1 X87.533 Y45.049 E54.49556
G1 X87.673 Y45.584 E54.59803
G1 X87.715 Y46.094 E54.69306
G1 X87.715 Y55.906 E56.51387
G1 X87.673 Y56.416 E56.60891
G1 X87.533 Y56.951 E56.71138
G1 X87.345 Y57.357 E56.79458
G1 X87.059 Y57.757 E56.88563
G1 X86.766 Y58.049 E56.96243
G1 X86.436 Y58.279 E57.03707
G92 E0
G1 X86.990 Y59.460 F15000.000
G1 X85.767 Y57.111 F15000.000
G1 X84.844 Y57.820 F15000.000
G1 X82.562 Y58.358 F15000.000
G1 X81.438 Y58.358 F15000.000
G1 X80.147 Y58.130 F15000.000
G1 X78.000 Y57.147 F15000.000
G1 X75.853 Y58.130 F15000.000
G1 X74.562 Y58.358 F15000.000
G1 X73.438 Y58.358 F15000.000
G1 X72.147 Y58.130 F15000.000
G1 X70.000 Y57.147 F15000.000
G1 X67.853 Y58.130 F15000.000
G1 X66.562 Y58.358 F15000.000
G1 X65.438 Y58.358 F15000.000
G1 X64.147 Y58.130 F15000.000
G1 X62.054 Y57.181 F15000.000
G1 X61.960 Y55.304 F15000.000
G1 X59.812 Y54.728 F15000.000
G1 X59.231 Y54.761 F15000.000
G1 F3600
G1 X59.254 Y55.019 E0.04810
G1 X59.197 Y55.365 E0.11319
G1 X59.089 Y55.619 E0.16435
G1 X58.946 Y55.823 E0.21058
G1 X58.646 Y56.075 E0.28334
G1 X58.428 Y56.176 E0.32794
G1 X58.156 Y56.249 E0.38026
G1 X57.795 Y56.236 E0.44726
G1 X57.550 Y56.171 E0.49424
G1 X57.192 Y55.963 E0.57115
G1 X56.911 Y55.629 E0.65221
G1 X56.761 Y55.218 E0.73326
G1 X56.761 Y54.804 E0.81017
G1 X56.829 Y54.550 E0.85887
G1 X57.037 Y54.192 E0.93578
G1 X57.354 Y53.925 E1.01269
G1 X57.589 Y53.816 E1.06079
G1 X57.934 Y53.750 E1.12588
G1 X58.209 Y53.765 E1.17704
G1 X58.450 Y53.829 E1.22326
G1 X58.808 Y54.037 E1.30018
G1 X59.089 Y54.371 E1.38123
G1 X59.180 Y54.620 E1.43031
G1 X59.479 Y54.835 F15000.000
G1 X60.120 Y54.683 F15000.000
G1 F3600
G1 X60.153 Y55.052 E1.49917
G1 X60.061 Y55.615 E1.60494
G1 X59.874 Y56.054 E1.69344
G1 X59.610 Y56.431 E1.77888
G1 X59.130 Y56.834 E1.89527
G1 X58.735 Y57.018 E1.97616
G1 X58.257 Y57.146 E2.06787
G1 X57.661 Y57.125 E2.17851
G1 X57.206 Y57.003 E2.26603
G1 X56.609 Y56.658 E2.39396
G1 X56.126 Y56.082 E2.53344
G1 X55.869 Y55.376 E2.67292
G1 X55.869 Y54.686 E2.80085
G1 X55.997 Y54.206 E2.89316
G1 X56.342 Y53.609 E3.02109
G1 X56.870 Y53.166 E3.14902
G1 X57.313 Y52.959 E3.23969
G1 X57.873 Y52.853 E3.34547
G1 X58.349 Y52.878 E3.43397
G1 X58.794 Y52.997 E3.51940
G1 X59.391 Y53.342 E3.64733
G1 X59.874 Y53.918 E3.78681
G1 X60.099 Y54.535 E3.90871
G1 X61.010 Y54.605 F15000.000
G1 F3600
G1 X61.052 Y55.086 E3.99833
G1 X60.924 Y55.865 E4.14479
G1 X60.659 Y56.489 E4.27063
G1 X60.274 Y57.039 E4.39528
G1 X59.614 Y57.594 E4.55529
G1 X59.041 Y57.861 E4.67249
G1 X58.359 Y58.043 E4.80358
G1 X57.528 Y58.013 E4.95785
G1 X56.861 Y57.834 E5.08592
G1 X56.026 Y57.352 E5.26487
G1 X55.341 Y56.535 E5.46277
G1 X54.976 Y55.533 E5.66067
G1 X54.976 Y54.569 E5.83962
G1 X55.166 Y53.861 E5.97555
G1 X55.648 Y53.026 E6.15450
G1 X56.386 Y52.406 E6.33345
G1 X57.037 Y52.103 E6.46668
G1 X57.813 Y51.956 E6.61315
G1 X58.490 Y51.992 E6.73898
G1 X59.139 Y52.166 E6.86363
G1 X59.974 Y52.648 E7.04258
G1 X60.659 Y53.465 E7.24048
G1 X60.989 Y54.371 E7.41943
G1 X60.996 Y54.456 E7.43521
G92 E0
G1 X58.428 Y48.176 F15000.000
G1 F3600
G1 X58.156 Y48.249 E0.05232
G1 X57.795 Y48.236 E0.11933
G1 X57.550 Y48.171 E0.16630
G1 X57.192 Y47.963 E0.24321
G1 X56.911 Y47.629 E0.32427
G1 X56.761 Y47.218 E0.40533
G1 X56.761 Y46.804 E0.48224
G1 X56.829 Y46.550 E0.53093
G1 X57.037 Y46.192 E0.60784
G1 X57.354 Y45.925 E0.68475
G1 X57.589 Y45.816 E0.73285
G1 X57.934 Y45.750 E0.79794
G1 X58.209 Y45.765 E0.84910
G1 X58.450 Y45.829 E0.89533
G1 X58.808 Y46.037 E0.97224
G1 X59.089 Y46.371 E1.05330
G1 X59.231 Y46.761 E1.13021
G1 X59.254 Y47.022 E1.17890
G1 X59.182 Y47.430 E1.25581
G1 X58.963 Y47.808 E1.33687
G1 X58.646 Y48.075 E1.41378
G1 X58.564 Y48.113 E1.43054
G1 X58.387 Y48.455 F15000.000
G1 X58.805 Y48.985 F15000.000
G1 F3600
G1 X58.257 Y49.146 E1.53655
G1 X57.661 Y49.125 E1.64719
G1 X57.206 Y49.003 E1.73471
G1 X56.609 Y48.658 E1.86264
G1 X56.126 Y48.082 E2.00212
G1 X55.869 Y47.376 E2.14160
G1 X55.869 Y46.686 E2.26953
G1 X55.997 Y46.206 E2.36184
G1 X56.342 Y45.609 E2.48977
G1 X56.870 Y45.166 E2.61770
G1 X57.313 Y44.959 E2.70837
G1 X57.873 Y44.853 E2.81414
G1 X58.349 Y44.878 E2.90264
G1 X58.794 Y44.997 E2.98808
G1 X59.391 Y45.342 E3.11601
G1 X59.874 Y45.918 E3.25549
G1 X60.110 Y46.566 E3.38342
G1 X60.153 Y47.061 E3.47573
G1 X60.034 Y47.740 E3.60366
G1 X59.658 Y48.391 E3.74314
G1 X59.130 Y48.834 E3.87107
G1 X58.941 Y48.922 E3.90964
G1 X59.183 Y49.795 F15000.000
G1 F3600
G1 X59.041 Y49.861 E3.93862
G1 X58.359 Y50.043 E4.06971
G1 X57.528 Y50.013 E4.22399
G1 X56.861 Y49.834 E4.35206
G1 X56.026 Y49.352 E4.53101
G1 X55.341 Y48.535 E4.72891
G1 X54.976 Y47.533 E4.92681
G1 X54.976 Y46.569 E5.10576
G1 X55.166 Y45.861 E5.24169
G1 X55.648 Y45.026 E5.42063
G1 X56.386 Y44.406 E5.59959
G1 X57.037 Y44.103 E5.73282
G1 X57.813 Y43.956 E5.87928
G1 X58.490 Y43.992 E6.00512
G1 X59.139 Y44.166 E6.12977
G1 X59.974 Y44.648 E6.30872
G1 X60.659 Y45.465 E6.50661
G1 X60.989 Y46.371 E6.68557
G1 X61.053 Y47.101 E6.82149
G1 X60.885 Y48.050 E7.00045
G1 X60.352 Y48.974 E7.19834
G1 X59.614 Y49.594 E7.37730
G1 X59.319 Y49.731 E7.43768
G92 E0
G1 X64.769 Y47.239 F15000.000
G1 F3600
G1 X64.746 Y46.978 E0.04869
G1 X64.818 Y46.570 E0.12560
G1 X65.037 Y46.192 E0.20666
G1 X65.354 Y45.925 E0.28357
G1 X65.589 Y45.816 E0.33167
G1 X65.934 Y45.750 E0.39676
G1 X66.209 Y45.765 E0.44792
G1 X66.450 Y45.829 E0.49415
G1 X66.808 Y46.037 E0.57106
G1 X67.089 Y46.371 E0.65212
G1 X67.231 Y46.761 E0.72903
G1 X67.252 Y47.000 E0.77362
G1 X67.231 Y47.239 E0.81821
G1 X67.089 Y47.629 E0.89513
G1 X66.808 Y47.963 E0.97618
G1 X66.430 Y48.182 E1.05724
G1 X66.000 Y48.258 E1.13839
G1 X65.563 Y48.180 E1.22075
G1 X65.191 Y47.962 E1.30072
G1 X64.911 Y47.629 E1.38150
G1 X64.820 Y47.380 E1.43058
G1 X64.518 Y47.164 F15000.000
G1 X63.930 Y47.545 F15000.000
G1 F3600
G1 X63.890 Y47.434 E1.45239
G1 X63.847 Y46.939 E1.54470
G1 X63.966 Y46.260 E1.67263
G1 X64.342 Y45.609 E1.81211
G1 X64.870 Y45.166 E1.94004
G1 X65.313 Y44.959 E2.03071
G1 X65.873 Y44.853 E2.13648
G1 X66.349 Y44.878 E2.22498
G1 X66.794 Y44.997 E2.31042
G1 X67.391 Y45.342 E2.43835
G1 X67.874 Y45.918 E2.57783
G1 X68.110 Y46.566 E2.70576
G1 X68.148 Y47.000 E2.78665
G1 X68.110 Y47.434 E2.86755
G1 X67.874 Y48.082 E2.99548
G1 X67.391 Y48.658 E3.13496
G1 X66.740 Y49.034 E3.27444
G1 X65.999 Y49.164 E3.41416
G1 X65.249 Y49.031 E3.55543
G1 X64.606 Y48.655 E3.69366
G1 X64.126 Y48.082 E3.83238
G1 X63.981 Y47.686 E3.91067
G1 X63.091 Y47.850 F15000.000
G1 F3600
G1 X63.011 Y47.629 E3.95429
G1 X62.947 Y46.899 E4.09022
G1 X63.115 Y45.950 E4.26917
G1 X63.648 Y45.026 E4.46706
G1 X64.386 Y44.406 E4.64601
G1 X65.037 Y44.103 E4.77925
G1 X65.813 Y43.956 E4.92571
G1 X66.490 Y43.992 E5.05155
G1 X67.139 Y44.166 E5.17620
G1 X67.974 Y44.648 E5.35515
G1 X68.659 Y45.465 E5.55304
G1 X68.989 Y46.371 E5.73200
G1 X69.044 Y47.000 E5.84919
G1 X68.989 Y47.629 E5.96639
G1 X68.659 Y48.535 E6.14535
G1 X67.974 Y49.352 E6.34324
G1 X67.050 Y49.885 E6.54114
G1 X65.998 Y50.071 E6.73944
G1 X64.936 Y49.882 E6.93962
G1 X64.022 Y49.347 E7.13611
G1 X63.341 Y48.535 E7.33276
G1 X63.143 Y47.991 E7.44026
G92 E0
G1 X72.781 Y47.282 F15000.000
G1 F3600
G1 X72.745 Y46.987 E0.05528
G1 X72.818 Y46.570 E0.13384
G1 X73.037 Y46.192 E0.21489
G1 X73.354 Y45.925 E0.29181
G1 X73.589 Y45.816 E0.33991
G1 X73.934 Y45.750 E0.40499
G1 X74.209 Y45.765 E0.45616
G1 X74.450 Y45.829 E0.50238
G1 X74.808 Y46.037 E0.57929
G1 X75.089 Y46.371 E0.66035
G1 X75.231 Y46.761 E0.73726
G1 X75.254 Y47.022 E0.78595
G1 X75.186 Y47.408 E0.85872
G1 X75.075 Y47.646 E0.90741
G1 X74.808 Y47.963 E0.98432
G1 X74.430 Y48.182 E1.06538
G1 X74.000 Y48.258 E1.14653
G1 X73.563 Y48.180 E1.22889
G1 X73.191 Y47.962 E1.30886
G1 X72.913 Y47.631 E1.38905
G1 X72.834 Y47.423 E1.43043
G1 X72.493 Y47.205 F15000.000
G1 X71.946 Y47.598 F15000.000
G1 F3600
G1 X71.908 Y47.498 E1.45036
G1 X71.842 Y46.963 E1.55032
G1 X71.966 Y46.260 E1.68284
G1 X72.342 Y45.609 E1.82232
G1 X72.870 Y45.166 E1.95025
G1 X73.313 Y44.959 E2.04092
G1 X73.873 Y44.853 E2.14669
G1 X74.349 Y44.878 E2.23519
G1 X74.794 Y44.997 E2.32063
G1 X75.391 Y45.342 E2.44856
G1 X75.874 Y45.918 E2.58804
G1 X76.110 Y46.566 E2.71597
G1 X76.153 Y47.061 E2.80828
G1 X76.044 Y47.679 E2.92466
G1 X75.834 Y48.130 E3.01697
G1 X75.391 Y48.658 E3.14490
G1 X74.740 Y49.034 E3.28438
G1 X73.999 Y49.164 E3.42410
G1 X73.249 Y49.031 E3.56538
G1 X72.606 Y48.655 E3.70361
G1 X72.132 Y48.089 E3.84066
G1 X71.999 Y47.738 E3.91020
G1 X71.111 Y47.914 F15000.000
G1 F3600
G1 X71.035 Y47.713 E3.95006
G1 X70.940 Y46.939 E4.09470
G1 X71.115 Y45.950 E4.28118
G1 X71.648 Y45.026 E4.47907
G1 X72.386 Y44.406 E4.65803
G1 X73.037 Y44.103 E4.79126
G1 X73.813 Y43.956 E4.93772
G1 X74.490 Y43.992 E5.06356
G1 X75.139 Y44.166 E5.18821
G1 X75.974 Y44.648 E5.36716
G1 X76.659 Y45.465 E5.56506
G1 X76.989 Y46.371 E5.74400
G1 X77.053 Y47.101 E5.87993
G1 X76.903 Y47.950 E6.03994
G1 X76.594 Y48.614 E6.17586
G1 X75.974 Y49.352 E6.35482
G1 X75.050 Y49.885 E6.55272
G1 X73.998 Y50.071 E6.75102
G1 X72.936 Y49.882 E6.95119
G1 X72.022 Y49.347 E7.14769
G1 X71.350 Y48.547 E7.34161
G1 X71.164 Y48.054 E7.43929
G92 E0
G1 X80.818 Y47.430 F15000.000
G1 F3600
G1 X80.742 Y47.000 E0.08106
G1 X80.818 Y46.570 E0.16211
G1 X81.037 Y46.192 E0.24317
G1 X81.354 Y45.925 E0.32008
G1 X81.589 Y45.816 E0.36819
G1 X81.934 Y45.750 E0.43327
G1 X82.209 Y45.765 E0.48444
G1 X82.450 Y45.829 E0.53066
G1 X82.808 Y46.037 E0.60757
G1 X83.089 Y46.371 E0.68863
G1 X83.231 Y46.761 E0.76554
G1 X83.254 Y47.022 E0.81423
G1 X83.186 Y47.408 E0.88700
G1 X83.075 Y47.646 E0.93569
G1 X82.808 Y47.963 E1.01260
G1 X82.430 Y48.182 E1.09366
G1 X82.000 Y48.258 E1.17480
G1 X81.563 Y48.180 E1.25717
G1 X81.210 Y47.974 E1.33299
G1 X81.025 Y47.789 E1.38142
G1 X80.893 Y47.560 E1.43049
G1 X80.390 Y47.344 F15000.000
G1 X80.045 Y47.877 F15000.000
G1 F3600
G1 X79.966 Y47.740 E1.45970
G1 X79.836 Y47.000 E1.59918
G1 X79.966 Y46.260 E1.73866
G1 X80.342 Y45.609 E1.87814
G1 X80.870 Y45.166 E2.00607
G1 X81.313 Y44.959 E2.09674
G1 X81.873 Y44.853 E2.20251
G1 X82.349 Y44.878 E2.29101
G1 X82.794 Y44.997 E2.37645
G1 X83.391 Y45.342 E2.50438
G1 X83.874 Y45.918 E2.64386
G1 X84.110 Y46.566 E2.77178
G1 X84.153 Y47.061 E2.86410
G1 X84.044 Y47.679 E2.98048
G1 X83.834 Y48.130 E3.07279
G1 X83.391 Y48.658 E3.20072
G1 X82.740 Y49.034 E3.34020
G1 X81.999 Y49.164 E3.47992
G1 X81.249 Y49.031 E3.62120
G1 X80.660 Y48.686 E3.74789
G1 X80.311 Y48.337 E3.83945
G1 X80.120 Y48.006 E3.91033
