; generated by Slic3r 1.3.1-dev on 2019-06-21 at 16:06:15

; external perimeters extrusion width = 1.10mm (10.95mm^3/s)
; perimeters extrusion width = 0.40mm (7.54mm^3/s)
; infill extrusion width = 1.25mm (37.25mm^3/s)
; solid infill extrusion width = 1.40mm (12.62mm^3/s)
; top infill extrusion width = 0.60mm (3.95mm^3/s)

M107
M190 S80 ; set bed temperature and wait for it to be reached
M104 S230 ; set temperature
G28 ; home all axes
G1 X150 Y150 Z50 F10000
; Filament gcode
; layer 1
M109 S230 ; set temperature and wait for it to be reached
G21 ; set units to millimeters
G90 ; use absolute coordinates
M82 ; use absolute distances for extrusion
G92 E0
G92 E0
G1 Z0.500 F15000.000
G1 X52.351 Y43.502 F15000.000
G1 F3600
G1 X53.216 Y42.496 E0.27583
G1 X54.179 Y41.583 E0.55165
G1 X55.229 Y40.772 E0.82748
G1 X56.356 Y40.071 E1.10331
G1 X57.548 Y39.488 E1.37913
G1 X58.793 Y39.029 E1.65496
G1 X60.078 Y38.698 E1.93078
G1 X61.389 Y38.498 E2.20661
G1 X62.693 Y38.433 E2.47783
G1 X100.807 Y38.428 E10.40098
G1 X102.111 Y38.494 E10.67230
G1 X103.423 Y38.694 E10.94822
G1 X104.709 Y39.025 E11.22414
G1 X105.954 Y39.484 E11.50006
G1 X107.146 Y40.068 E11.77597
G1 X108.273 Y40.768 E12.05189
G1 X109.324 Y41.580 E12.32781
G1 X110.287 Y42.493 E12.60373
G1 X111.153 Y43.499 E12.87965
G1 X111.912 Y44.588 E13.15557
G1 X112.558 Y45.748 E13.43149
G1 X112.862 Y46.454 E13.59137
G1 X113.093 Y46.995 E13.71353
G1 X113.489 Y48.261 E13.98945
G1 X113.754 Y49.562 E14.26537
G1 X113.887 Y50.883 E14.54129
G1 X113.886 Y52.210 E14.81721
G1 X113.750 Y53.530 E15.09313
G1 X113.481 Y54.830 E15.36905
G1 X113.093 Y56.068 E15.63884
G1 X112.558 Y57.315 E15.92088
G1 X111.928 Y58.450 E16.19067
G1 X111.171 Y59.540 E16.46659
G1 X110.287 Y60.570 E16.74864
G1 X109.346 Y61.464 E17.01843
G1 X108.297 Y62.278 E17.29435
G1 X107.146 Y62.995 E17.57640
G1 X105.981 Y63.567 E17.84619
G1 X104.737 Y64.029 E18.12211
G1 X103.423 Y64.369 E18.40415
G1 X102.111 Y64.569 E18.68007
G1 X100.807 Y64.635 E18.95139
G1 X84.706 Y64.635 E22.29850
G1 X62.693 Y64.630 E26.87455
G1 X61.390 Y64.564 E27.14576
G1 X60.078 Y64.365 E27.42159
G1 X58.793 Y64.034 E27.69741
G1 X57.521 Y63.563 E27.97936
G1 X56.356 Y62.991 E28.24906
G1 X55.229 Y62.291 E28.52489
G1 X54.179 Y61.480 E28.80072
G1 X53.216 Y60.567 E29.07654
G1 X52.333 Y59.538 E29.35849
G1 X51.592 Y58.473 E29.62819
G1 X51.272 Y57.900 E29.76460
G1 X50.933 Y57.287 E29.91015
G1 X50.422 Y56.095 E30.17985
G1 X50.023 Y54.829 E30.45567
G1 X49.750 Y53.500 E30.73763
G1 X49.619 Y52.210 E31.00732
G1 X49.617 Y50.883 E31.28315
G1 X49.750 Y49.563 E31.55898
G1 X50.016 Y48.263 E31.83480
G1 X50.422 Y46.968 E32.11675
G1 X50.946 Y45.750 E32.39258
G1 X51.576 Y44.615 E32.66228
G1 X52.264 Y43.624 E32.91306
G92 E0
G1 X101.413 Y63.521 F15000.000
G1 F3600
G1 X100.787 Y63.552 E0.11627
G1 X62.713 Y63.548 E7.18181
G1 X61.484 Y63.486 E7.41004
G1 X60.281 Y63.301 E7.63591
G1 X59.103 Y62.996 E7.86179
G1 X57.962 Y62.573 E8.08766
G1 X56.869 Y62.037 E8.31353
G1 X55.836 Y61.394 E8.53940
G1 X54.873 Y60.649 E8.76527
G1 X53.991 Y59.810 E8.99115
G1 X53.198 Y58.886 E9.21702
G1 X52.503 Y57.887 E9.44289
G1 X52.218 Y57.374 E9.55175
G1 X51.912 Y56.823 E9.66876
G1 X51.432 Y55.705 E9.89464
G1 X51.068 Y54.543 E10.12051
G1 X50.823 Y53.351 E10.34638
G1 X50.700 Y52.140 E10.57225
G1 X50.700 Y50.923 E10.79813
G1 X50.823 Y49.712 E11.02400
G1 X51.068 Y48.520 E11.24987
G1 X51.432 Y47.358 E11.47574
G1 X51.912 Y46.240 E11.70162
G1 X52.503 Y45.176 E11.92749
G1 X53.198 Y44.177 E12.15336
G1 X53.991 Y43.253 E12.37923
G1 X54.873 Y42.414 E12.60511
G1 X55.836 Y41.669 E12.83098
G1 X56.869 Y41.025 E13.05685
G1 X57.962 Y40.489 E13.28272
G1 X59.103 Y40.067 E13.50860
G1 X60.281 Y39.762 E13.73447
G1 X61.484 Y39.577 E13.96034
G1 X62.713 Y39.515 E14.18857
G1 X100.787 Y39.511 E21.25411
G1 X102.016 Y39.573 E21.48241
G1 X103.220 Y39.757 E21.70837
G1 X104.398 Y40.063 E21.93432
G1 X105.540 Y40.485 E22.16028
G1 X106.633 Y41.022 E22.38623
G1 X107.667 Y41.666 E22.61219
G1 X108.630 Y42.411 E22.83814
G1 X109.512 Y43.250 E23.06410
G1 X110.305 Y44.174 E23.29005
G1 X111.001 Y45.173 E23.51601
G1 X111.592 Y46.238 E23.74196
G1 X112.072 Y47.357 E23.96792
G1 X112.436 Y48.519 E24.19387
G1 X112.682 Y49.711 E24.41983
G1 X112.805 Y50.923 E24.64578
G1 X112.805 Y52.140 E24.87174
G1 X112.682 Y53.352 E25.09769
G1 X112.436 Y54.544 E25.32365
G1 X112.072 Y55.706 E25.54960
G1 X111.592 Y56.825 E25.77556
G1 X111.001 Y57.890 E26.00151
G1 X110.305 Y58.889 E26.22747
G1 X109.512 Y59.813 E26.45342
G1 X108.630 Y60.652 E26.67938
G1 X107.667 Y61.397 E26.90533
G1 X106.633 Y62.041 E27.13129
G1 X105.540 Y62.577 E27.35724
G1 X104.398 Y63.000 E27.58320
G1 X103.220 Y63.306 E27.80915
G1 X102.016 Y63.490 E28.03511
G1 X101.563 Y63.513 E28.11931
G1 X101.065 Y63.000 F15000.000
G1 X101.368 Y62.629 F15000.000
G1 F3600
G1 X100.765 Y62.660 E28.23137
G1 X62.735 Y62.655 E35.28851
G1 X61.575 Y62.596 E35.50415
G1 X60.461 Y62.426 E35.71322
G1 X59.371 Y62.143 E35.92229
G1 X58.314 Y61.752 E36.13137
G1 X57.303 Y61.256 E36.34043
G1 X56.346 Y60.660 E36.54950
G1 X55.455 Y59.970 E36.75857
G1 X54.639 Y59.194 E36.96764
G1 X53.905 Y58.339 E37.17671
G1 X53.261 Y57.415 E37.38578
G1 X52.999 Y56.941 E37.48624
G1 X52.715 Y56.429 E37.59485
G1 X52.270 Y55.394 E37.80392
G1 X51.933 Y54.319 E38.01299
G1 X51.706 Y53.216 E38.22206
G1 X51.592 Y52.095 E38.43113
G1 X51.592 Y50.968 E38.64020
G1 X51.706 Y49.847 E38.84927
G1 X51.933 Y48.744 E39.05834
G1 X52.270 Y47.669 E39.26741
G1 X52.715 Y46.633 E39.47648
G1 X53.261 Y45.648 E39.68555
G1 X53.905 Y44.724 E39.89462
G1 X54.639 Y43.869 E40.10369
G1 X55.455 Y43.093 E40.31276
G1 X56.346 Y42.403 E40.52183
G1 X57.303 Y41.807 E40.73090
G1 X58.314 Y41.311 E40.93997
G1 X59.371 Y40.920 E41.14904
G1 X60.461 Y40.637 E41.35811
G1 X61.575 Y40.467 E41.56718
G1 X62.735 Y40.408 E41.78282
G1 X100.765 Y40.403 E48.83996
G1 X101.926 Y40.462 E49.05566
G1 X103.040 Y40.633 E49.26481
G1 X104.131 Y40.915 E49.47396
G1 X105.188 Y41.307 E49.68312
G1 X106.200 Y41.803 E49.89227
G1 X107.156 Y42.399 E50.10142
G1 X108.047 Y43.089 E50.31057
G1 X108.864 Y43.866 E50.51973
G1 X109.598 Y44.721 E50.72888
G1 X110.242 Y45.646 E50.93803
G1 X110.789 Y46.631 E51.14718
G1 X111.234 Y47.667 E51.35634
G1 X111.571 Y48.743 E51.56549
G1 X111.798 Y49.847 E51.77464
G1 X111.912 Y50.968 E51.98379
G1 X111.912 Y52.095 E52.19295
G1 X111.798 Y53.216 E52.40210
G1 X111.571 Y54.320 E52.61125
G1 X111.234 Y55.396 E52.82040
G1 X110.789 Y56.431 E53.02956
G1 X110.242 Y57.417 E53.23871
G1 X109.598 Y58.342 E53.44786
G1 X108.864 Y59.197 E53.65701
G1 X108.047 Y59.974 E53.86617
G1 X107.156 Y60.664 E54.07532
G1 X106.200 Y61.260 E54.28447
G1 X105.188 Y61.756 E54.49363
G1 X104.131 Y62.148 E54.70278
G1 X103.040 Y62.430 E54.91193
G1 X101.926 Y62.601 E55.12108
G1 X101.518 Y62.621 E55.19688
G1 X101.323 Y61.737 F15000.000
G1 F3600
G1 X100.742 Y61.767 E55.30474
G1 X62.758 Y61.762 E62.35348
G1 X61.665 Y61.707 E62.55653
G1 X60.641 Y61.550 E62.74880
G1 X59.638 Y61.290 E62.94107
G1 X58.666 Y60.931 E63.13334
G1 X57.736 Y60.474 E63.32560
G1 X56.857 Y59.926 E63.51787
G1 X56.038 Y59.292 E63.71014
G1 X55.287 Y58.578 E63.90240
G1 X54.612 Y57.792 E64.09467
G1 X54.020 Y56.942 E64.28694
G1 X53.779 Y56.508 E64.37900
G1 X53.517 Y56.036 E64.47921
G1 X53.109 Y55.084 E64.67147
G1 X52.798 Y54.095 E64.86374
G1 X52.590 Y53.080 E65.05601
G1 X52.485 Y52.049 E65.24828
G1 X52.485 Y51.013 E65.44054
G1 X52.590 Y49.983 E65.63281
G1 X52.798 Y48.968 E65.82508
G1 X53.109 Y47.979 E66.01734
G1 X53.517 Y47.027 E66.20961
G1 X54.020 Y46.121 E66.40188
G1 X54.612 Y45.271 E66.59415
G1 X55.287 Y44.485 E66.78641
G1 X56.038 Y43.771 E66.97868
G1 X56.857 Y43.137 E67.17095
G1 X57.736 Y42.589 E67.36322
G1 X58.666 Y42.132 E67.55548
G1 X59.638 Y41.772 E67.74775
G1 X60.641 Y41.513 E67.94002
G1 X61.665 Y41.356 E68.13229
G1 X62.758 Y41.300 E68.33534
G1 X100.742 Y41.296 E75.38408
G1 X101.835 Y41.351 E75.58717
G1 X102.860 Y41.508 E75.77952
G1 X103.863 Y41.768 E75.97187
G1 X104.835 Y42.128 E76.16422
G1 X105.766 Y42.585 E76.35657
G1 X106.645 Y43.133 E76.54892
G1 X107.465 Y43.767 E76.74127
G1 X108.216 Y44.482 E76.93362
G1 X108.892 Y45.268 E77.12597
G1 X109.484 Y46.119 E77.31832
G1 X109.987 Y47.025 E77.51067
G1 X110.396 Y47.978 E77.70302
G1 X110.706 Y48.967 E77.89537
G1 X110.914 Y49.982 E78.08772
G1 X111.019 Y51.013 E78.28007
G1 X111.019 Y52.050 E78.47242
G1 X110.914 Y53.081 E78.66477
G1 X110.706 Y54.096 E78.85712
G1 X110.396 Y55.085 E79.04947
G1 X109.987 Y56.038 E79.24182
G1 X109.484 Y56.944 E79.43417
G1 X108.892 Y57.795 E79.62652
G1 X108.216 Y58.581 E79.81887
G1 X107.465 Y59.295 E80.01122
G1 X106.645 Y59.930 E80.20357
G1 X105.766 Y60.478 E80.39592
G1 X104.835 Y60.935 E80.58827
G1 X103.863 Y61.295 E80.78062
G1 X102.860 Y61.554 E80.97297
G1 X101.835 Y61.711 E81.16532
G1 X101.472 Y61.730 E81.23272
G92 E0
G1 X107.471 Y58.063 F15000.000
G1 F3600
G1 X107.664 Y57.870 E0.05076
G1 X108.279 Y57.153 E0.22637
G1 X108.820 Y56.377 E0.40223
G1 X109.279 Y55.549 E0.57808
G1 X109.681 Y54.588 E0.77172
G1 X103.869 Y60.400 E2.29960
G1 X103.501 Y60.537 E2.37257
G1 X102.585 Y60.774 E2.54843
G1 X102.167 Y60.838 E2.62710
G1 X110.118 Y52.886 E4.71753
G1 X110.221 Y51.910 E4.90005
G1 X110.221 Y51.519 E4.97278
G1 X100.779 Y60.961 E7.45519
G1 X99.506 Y60.969 E7.69172
G1 X110.156 Y50.319 E10.49140
G1 X110.126 Y50.023 E10.54684
G1 X109.966 Y49.245 E10.69448
G1 X98.242 Y60.969 E13.77664
G1 X96.977 Y60.968 E14.01171
G1 X109.676 Y48.270 E17.35013
G1 X109.302 Y47.379 E17.52975
G1 X95.713 Y60.968 E21.10240
G1 X94.448 Y60.968 E21.33747
G1 X108.855 Y46.561 E25.12505
G1 X108.342 Y45.810 E25.29419
G1 X93.184 Y60.968 E29.27917
G1 X91.919 Y60.968 E29.51424
G1 X107.765 Y45.122 E33.68014
G1 X107.663 Y45.003 E33.70928
G1 X107.128 Y44.494 E33.84650
G1 X90.655 Y60.968 E38.17734
G1 X89.390 Y60.968 E38.41241
G1 X106.430 Y43.927 E42.89222
G1 X106.230 Y43.772 E42.93942
G1 X105.670 Y43.423 E43.06201
G1 X88.126 Y60.967 E47.67434
G1 X86.861 Y60.967 E47.90941
G1 X104.843 Y42.985 E52.63682
G1 X104.577 Y42.855 E52.69183
G1 X103.944 Y42.620 E52.81749
G1 X85.597 Y60.967 E57.64084
G1 X84.332 Y60.967 E57.87591
G1 X102.961 Y42.338 E62.77350
G1 X102.775 Y42.289 E62.80938
G1 X101.882 Y42.153 E62.97726
G1 X83.068 Y60.967 E67.92348
G1 X81.803 Y60.967 E68.15855
G1 X100.676 Y42.094 E73.12010
G1 X99.411 Y42.094 E73.35523
G1 X80.538 Y60.967 E78.31670
G1 X79.274 Y60.966 E78.55177
G1 X98.146 Y42.094 E83.51317
G1 X96.881 Y42.094 E83.74830
G1 X78.009 Y60.966 E88.70962
G1 X76.745 Y60.966 E88.94469
G1 X95.616 Y42.095 E93.90593
G1 X94.351 Y42.095 E94.14106
G1 X75.480 Y60.966 E99.10223
G1 X74.216 Y60.966 E99.33730
G1 X93.087 Y42.095 E104.29839
G1 X91.822 Y42.095 E104.53351
G1 X72.951 Y60.966 E109.49453
G1 X71.687 Y60.966 E109.72960
G1 X90.557 Y42.095 E114.69053
G1 X89.292 Y42.095 E114.92566
G1 X70.422 Y60.965 E119.88652
G1 X69.158 Y60.965 E120.12159
G1 X88.027 Y42.096 E125.08237
G1 X86.763 Y42.096 E125.31750
G1 X67.893 Y60.965 E130.27821
G1 X66.629 Y60.965 E130.51328
G1 X85.498 Y42.096 E135.47391
G1 X84.233 Y42.096 E135.70903
G1 X65.364 Y60.965 E140.66959
G1 X64.099 Y60.965 E140.90466
G1 X82.968 Y42.096 E145.86513
G1 X81.703 Y42.096 E146.10026
G1 X62.835 Y60.964 E151.06066
G1 X61.627 Y60.907 E151.28539
G1 X80.438 Y42.096 E156.23072
G1 X79.174 Y42.097 E156.46585
G1 X60.547 Y60.723 E161.36266
G1 X59.811 Y60.532 E161.50403
G1 X59.564 Y60.441 E161.55291
G1 X77.909 Y42.097 E166.37557
G1 X76.644 Y42.097 E166.61069
G1 X58.664 Y60.076 E171.33746
G1 X58.075 Y59.787 E171.45941
G1 X57.837 Y59.639 E171.51161
G1 X75.379 Y42.097 E176.12334
G1 X74.114 Y42.097 E176.35846
G1 X57.076 Y59.135 E180.83769
G1 X56.525 Y58.709 E180.96723
G1 X56.378 Y58.569 E181.00498
G1 X72.849 Y42.097 E185.33525
G1 X71.585 Y42.097 E185.57038
G1 X55.741 Y57.941 E189.73572
G1 X55.164 Y57.253 E189.90260
G1 X70.320 Y42.098 E193.88702
G1 X69.055 Y42.098 E194.12214
G1 X54.650 Y56.503 E197.90915
G1 X54.203 Y55.685 E198.08237
G1 X67.790 Y42.098 E201.65444
G1 X66.525 Y42.098 E201.88956
G1 X53.829 Y54.794 E205.22738
G1 X53.569 Y53.966 E205.38880
G1 X53.539 Y53.820 E205.41654
G1 X65.260 Y42.098 E208.49808
G1 X63.996 Y42.098 E208.73320
G1 X53.349 Y52.745 E211.53223
G1 X53.283 Y52.099 E211.65299
G1 X53.283 Y51.546 E211.75574
G1 X62.723 Y42.106 E214.23750
G1 X61.850 Y42.150 E214.39995
G1 X61.335 Y42.229 E214.49682
G1 X53.386 Y50.179 E216.58675
G1 X53.569 Y49.286 E216.75613
G1 X53.823 Y48.477 E216.91387
G1 X59.633 Y42.666 E218.44139
G1 X59.114 Y42.859 E218.54443
G1 X58.265 Y43.275 E218.72020
G1 X57.462 Y43.776 E218.89597
G1 X56.715 Y44.354 E219.07174
G1 X55.843 Y45.192 E219.29644
M104 S205 ; set temperature
M140 S55 ; set bed temperature
G1 Z0.900 F15000.000
G92 E0
G1 X101.342 Y62.112 F15000.000
G1 F3600
G1 X100.761 Y62.141 E0.03036
G1 X62.739 Y62.139 E2.01684
G1 X61.627 Y62.083 E2.07500
G1 X60.565 Y61.920 E2.13113
G1 X59.525 Y61.651 E2.18726
G1 X58.517 Y61.278 E2.24339
G1 X57.553 Y60.805 E2.29953
G1 X56.641 Y60.236 E2.35566
G1 X55.792 Y59.579 E2.41179
G1 X55.013 Y58.839 E2.46792
G1 X54.313 Y58.023 E2.52405
G1 X53.699 Y57.142 E2.58018
G1 X53.178 Y56.202 E2.63631
G1 X52.754 Y55.215 E2.69244
G1 X52.433 Y54.190 E2.74857
G1 X52.216 Y53.137 E2.80470
G1 X52.108 Y52.069 E2.86083
G1 X52.108 Y50.994 E2.91696
G1 X52.216 Y49.925 E2.97309
G1 X52.433 Y48.873 E3.02922
G1 X52.754 Y47.848 E3.08535
G1 X53.178 Y46.861 E3.14148
G1 X53.699 Y45.921 E3.19761
G1 X54.313 Y45.039 E3.25375
G1 X55.013 Y44.224 E3.30988
G1 X55.792 Y43.484 E3.36601
G1 X56.641 Y42.826 E3.42214
G1 X57.553 Y42.258 E3.47827
G1 X58.517 Y41.785 E3.53440
G1 X59.525 Y41.412 E3.59053
G1 X60.565 Y41.143 E3.64666
G1 X61.627 Y40.980 E3.70279
G1 X62.739 Y40.923 E3.76095
G1 X100.761 Y40.921 E5.74743
G1 X101.873 Y40.978 E5.80560
G1 X102.935 Y41.141 E5.86174
G1 X103.976 Y41.410 E5.91788
G1 X104.983 Y41.783 E5.97402
G1 X105.948 Y42.256 E6.03016
G1 X106.860 Y42.825 E6.08630
G1 X107.710 Y43.483 E6.14244
G1 X108.489 Y44.223 E6.19859
G1 X109.189 Y45.038 E6.25473
G1 X109.802 Y45.920 E6.31087
G1 X110.324 Y46.860 E6.36701
G1 X110.748 Y47.847 E6.42315
G1 X111.069 Y48.873 E6.47929
G1 X111.286 Y49.925 E6.53543
G1 X111.394 Y50.994 E6.59157
G1 X111.394 Y52.069 E6.64772
G1 X111.286 Y53.138 E6.70386
G1 X111.069 Y54.190 E6.76000
G1 X110.748 Y55.216 E6.81614
G1 X110.324 Y56.203 E6.87228
G1 X109.802 Y57.143 E6.92842
G1 X109.189 Y58.025 E6.98456
G1 X108.937 Y58.318 E7.00473
G1 X108.489 Y58.840 E7.04070
G1 X107.710 Y59.580 E7.09684
G1 X106.860 Y60.238 E7.15299
G1 X105.948 Y60.807 E7.20913
G1 X104.983 Y61.280 E7.26527
G1 X103.976 Y61.653 E7.32141
G1 X102.935 Y61.922 E7.37755
G1 X101.873 Y62.085 E7.43369
G1 X101.491 Y62.104 E7.45366
G1 X101.358 Y62.426 F15000.000
G1 F3600
G1 X100.769 Y62.456 E7.48444
G1 X62.731 Y62.454 E9.47175
G1 X61.595 Y62.396 E9.53116
G1 X60.502 Y62.229 E9.58895
G1 X59.431 Y61.951 E9.64675
G1 X58.393 Y61.567 E9.70454
G1 X57.400 Y61.080 E9.76234
G1 X56.461 Y60.495 E9.82014
G1 X55.587 Y59.818 E9.87793
G1 X54.785 Y59.055 E9.93573
G1 X54.064 Y58.216 E9.99352
G1 X53.432 Y57.308 E10.05132
G1 X52.895 Y56.341 E10.10911
G1 X52.459 Y55.324 E10.16691
G1 X52.128 Y54.269 E10.22470
G1 X51.905 Y53.185 E10.28250
G1 X51.793 Y52.085 E10.34029
G1 X51.793 Y50.978 E10.39809
G1 X51.905 Y49.878 E10.45588
G1 X52.128 Y48.794 E10.51368
G1 X52.459 Y47.739 E10.57147
G1 X52.895 Y46.722 E10.62927
G1 X53.432 Y45.755 E10.68707
G1 X54.064 Y44.847 E10.74486
G1 X54.785 Y44.008 E10.80266
G1 X55.587 Y43.245 E10.86045
G1 X56.461 Y42.568 E10.91825
G1 X57.400 Y41.983 E10.97604
G1 X58.393 Y41.496 E11.03384
G1 X59.431 Y41.112 E11.09163
G1 X60.502 Y40.834 E11.14943
G1 X61.595 Y40.667 E11.20722
G1 X62.731 Y40.609 E11.26663
G1 X100.769 Y40.607 E13.25395
G1 X101.905 Y40.665 E13.31336
G1 X102.999 Y40.832 E13.37117
G1 X104.070 Y41.110 E13.42897
G1 X105.107 Y41.494 E13.48678
G1 X106.101 Y41.981 E13.54458
G1 X107.040 Y42.567 E13.60239
G1 X107.915 Y43.244 E13.66020
G1 X108.717 Y44.006 E13.71800
G1 X109.437 Y44.846 E13.77581
G1 X110.069 Y45.754 E13.83361
G1 X110.606 Y46.721 E13.89142
G1 X111.043 Y47.738 E13.94922
G1 X111.374 Y48.794 E14.00703
G1 X111.597 Y49.877 E14.06484
G1 X111.709 Y50.978 E14.12264
G1 X111.709 Y52.085 E14.18045
G1 X111.597 Y53.185 E14.23825
G1 X111.374 Y54.269 E14.29606
