; generated by Slic3r 1.3.1-dev on 2019-03-08 at 14:58:57

; external perimeters extrusion width = 1.10mm (10.95mm^3/s)
; perimeters extrusion width = 0.40mm (7.54mm^3/s)
; infill extrusion width = 1.25mm (37.25mm^3/s)
; solid infill extrusion width = 1.40mm (12.62mm^3/s)
; top infill extrusion width = 0.60mm (3.95mm^3/s)

M190 S80 ; set bed temperature and wait for it to be reached
M104 S230 ; set temperature
G28 ; home all axes
G1 X150 Y150 Z50 F10000
; Filament gcode

M109 S230 ; set temperature and wait for it to be reached
G21 ; set units to millimeters
G90 ; use absolute coordinates
M82 ; use absolute distances for extrusion
G92 E0
G92 E0
G1 E-6.00000 F2400.00000
G92 E0
G1 Z1.000 F15000.000
G1 X61.447 Y224.227 F15000.000
G1 Z0.300 F15000.000
G1 E6.00000 F2400.00000
; layer 1
G1 F3600
G1 X61.448 Y217.234 E6.87225
G1 X61.480 Y216.618 E6.94919
G1 X61.570 Y216.018 E7.02488
G1 X61.669 Y215.603 E7.07807
G1 X61.823 Y215.109 E7.14254
G1 X62.055 Y214.549 E7.21824
G1 X62.201 Y214.260 E7.25856
G1 X62.513 Y213.739 E7.33424
G1 X62.699 Y213.475 E7.37457
G1 X63.083 Y213.006 E7.45026
G1 X63.511 Y212.576 E7.52594
G1 X63.967 Y212.196 E7.59989
G1 X64.457 Y211.862 E7.67385
G1 X64.975 Y211.574 E7.74781
G1 X65.530 Y211.332 E7.82333
G1 X66.084 Y211.149 E7.89611
G1 X69.851 Y210.101 E8.38373
G1 X70.392 Y209.986 E8.45279
G1 X70.686 Y209.949 E8.48976
G1 X71.249 Y209.924 E8.55997
G1 X71.810 Y209.961 E8.63017
G1 X72.358 Y210.058 E8.69951
G1 X72.892 Y210.212 E8.76884
G1 X73.406 Y210.423 E8.83816
G1 X73.895 Y210.688 E8.90749
G1 X74.352 Y211.003 E8.97683
G1 X74.763 Y211.356 E9.04435
G1 X74.958 Y211.554 E9.07903
G1 X75.317 Y211.979 E9.14836
G1 X75.486 Y212.217 E9.18484
G1 X75.764 Y212.682 E9.25237
G1 X75.996 Y213.187 E9.32168
G1 X76.173 Y213.714 E9.39101
G1 X76.243 Y213.998 E9.42748
G1 X76.330 Y214.532 E9.49499
G1 X76.354 Y214.824 E9.53148
G1 X76.361 Y238.317 E12.46165
G1 X76.339 Y238.479 E12.48215
G1 X76.291 Y238.631 E12.50199
G1 X76.212 Y238.776 E12.52263
G1 X76.087 Y238.925 E12.54684
G1 X75.973 Y239.016 E12.56497
G1 X75.833 Y239.093 E12.58497
G1 X70.529 Y241.345 E13.30363
G1 X70.281 Y241.409 E13.33563
G1 X70.061 Y241.403 E13.36304
G1 X69.940 Y241.377 E13.37842
G1 X69.716 Y241.277 E13.40916
G1 X69.526 Y241.113 E13.44038
G1 X69.411 Y240.948 E13.46548
G1 X69.355 Y240.819 E13.48296
G1 X69.305 Y240.553 E13.51673
G1 X69.305 Y238.194 E13.81104
G1 X68.833 Y237.883 E13.88145
G1 X62.867 Y240.430 E14.69056
G1 X62.694 Y240.694 E14.72991
G1 X62.691 Y244.177 E15.16440
G1 X62.623 Y244.460 E15.20061
G1 X62.477 Y244.693 E15.23491
G1 X62.305 Y244.844 E15.26350
G1 X62.165 Y244.922 E15.28350
G1 X56.861 Y247.173 E16.00217
G1 X56.612 Y247.238 E16.03423
G1 X56.356 Y247.226 E16.06615
G1 X56.227 Y247.191 E16.08287
G1 X56.047 Y247.105 E16.10769
G1 X55.858 Y246.941 E16.13891
G1 X55.743 Y246.776 E16.16401
G1 X55.687 Y246.648 E16.18148
G1 X55.637 Y246.381 E16.21528
G1 X55.638 Y227.458 E18.57554
G1 X55.654 Y227.300 E18.59535
G1 X55.736 Y227.064 E18.62647
G1 X55.814 Y226.939 E18.64487
G1 X55.945 Y226.798 E18.66888
G1 X56.146 Y226.669 E18.69859
G1 X61.273 Y224.491 E19.39340
G1 X61.364 Y224.352 E19.41412
G1 E13.41412 F2400.00000
G92 E0
G1 Z1.300 F15000.000
G1 X61.854 Y239.951 F15000.000
G1 Z0.300 F15000.000
G1 E6.00000 F2400.00000
G1 F3600
G1 X61.853 Y244.142 E6.28002
G1 X56.477 Y246.424 E6.67024
G1 X56.477 Y227.439 E7.93854
G1 X62.287 Y224.972 E8.36019
G1 X62.288 Y217.250 E8.87607
G1 X62.302 Y216.886 E8.90042
G1 X62.348 Y216.442 E8.93028
G1 X62.455 Y215.910 E8.96651
G1 X62.525 Y215.658 E8.98399
G1 X62.709 Y215.145 E9.02041
G1 X62.936 Y214.665 E9.05586
G1 X63.216 Y214.197 E9.09229
G1 X63.367 Y213.983 E9.10977
G1 X63.711 Y213.564 E9.14596
G1 X64.084 Y213.189 E9.18135
G1 X64.687 Y212.713 E9.23263
G1 X65.126 Y212.442 E9.26711
G1 X65.823 Y212.118 E9.31847
G1 X66.319 Y211.955 E9.35335
G1 X70.064 Y210.912 E9.61303
G1 X70.292 Y210.858 E9.62870
G1 X70.760 Y210.785 E9.66036
G1 X71.316 Y210.767 E9.69751
G1 X71.703 Y210.794 E9.72342
G1 X72.164 Y210.875 E9.75470
G1 X72.462 Y210.956 E9.77531
G1 X72.831 Y211.086 E9.80144
G1 X73.450 Y211.400 E9.84785
G1 X73.837 Y211.666 E9.87922
G1 X74.242 Y212.023 E9.91524
G1 X74.648 Y212.486 E9.95641
G1 X74.912 Y212.880 E9.98806
G1 X75.218 Y213.502 E10.03441
G1 X75.365 Y213.944 E10.06551
G1 X75.465 Y214.401 E10.09674
G1 X75.502 Y214.707 E10.11735
G1 X75.521 Y215.101 E10.14374
G1 X75.522 Y238.314 E11.69444
G1 X70.145 Y240.596 E12.08465
G1 X70.143 Y236.410 E12.36427
G1 X61.992 Y239.892 E12.95641
G1 X60.854 Y239.925 F15000.000
G1 X61.319 Y239.597 F15000.000
G1 F3600
G1 X61.318 Y243.788 E13.23637
G1 X57.012 Y245.615 E13.54885
G1 X57.013 Y227.794 E14.73940
G1 X62.822 Y225.327 E15.16105
G1 X62.823 Y217.261 E15.69991
G1 X62.879 Y216.522 E15.74939
G1 X63.036 Y215.820 E15.79746
G1 X63.301 Y215.131 E15.84677
G1 X63.666 Y214.490 E15.89609
G1 X64.108 Y213.924 E15.94406
G1 X64.450 Y213.581 E15.97644
G1 X64.989 Y213.156 E16.02226
G1 X65.388 Y212.910 E16.05359
G1 X66.013 Y212.620 E16.09964
G1 X66.475 Y212.468 E16.13210
G1 X70.198 Y211.431 E16.39029
G1 X70.810 Y211.320 E16.43185
G1 X71.306 Y211.303 E16.46500
G1 X71.638 Y211.327 E16.48723
G1 X72.047 Y211.398 E16.51499
G1 X72.633 Y211.585 E16.55607
G1 X73.170 Y211.858 E16.59633
G1 X73.516 Y212.095 E16.62433
G1 X73.862 Y212.401 E16.65519
G1 X74.215 Y212.803 E16.69093
G1 X74.455 Y213.160 E16.71969
G1 X74.719 Y213.700 E16.75979
G1 X74.848 Y214.086 E16.78704
G1 X74.936 Y214.490 E16.81465
G1 X74.968 Y214.752 E16.83228
G1 X74.986 Y215.114 E16.85651
G1 X74.986 Y237.959 E18.38266
G1 X70.680 Y239.787 E18.69515
G1 X70.679 Y235.599 E18.97489
G1 X61.456 Y239.538 E19.64482
G1 X60.783 Y239.243 F15000.000
G1 F3600
G1 X60.782 Y243.433 E19.92473
G1 X57.548 Y244.806 E20.15946
G1 X57.548 Y228.148 E21.27228
G1 X63.358 Y225.681 E21.69393
G1 X63.371 Y216.963 E22.27637
G1 X63.409 Y216.603 E22.30054
G1 X63.498 Y216.159 E22.33082
G1 X63.704 Y215.543 E22.37419
G1 X63.875 Y215.182 E22.40088
G1 X64.115 Y214.782 E22.43206
G1 X64.506 Y214.284 E22.47437
G1 X64.816 Y213.972 E22.50374
G1 X65.291 Y213.599 E22.54410
G1 X65.651 Y213.377 E22.57229
G1 X66.204 Y213.121 E22.61302
G1 X66.631 Y212.980 E22.64305
G1 X70.332 Y211.950 E22.89976
G1 X70.860 Y211.854 E22.93558
G1 X71.296 Y211.840 E22.96473
G1 X71.573 Y211.859 E22.98328
G1 X71.930 Y211.921 E23.00751
G1 X72.436 Y212.083 E23.04297
G1 X72.890 Y212.315 E23.07707
G1 X73.194 Y212.524 E23.10170
G1 X73.482 Y212.780 E23.12741
G1 X73.783 Y213.120 E23.15773
G1 X73.999 Y213.441 E23.18359
G1 X74.220 Y213.897 E23.21745
G1 X74.331 Y214.229 E23.24084
G1 X74.408 Y214.580 E23.26484
G1 X74.434 Y214.797 E23.27948
G1 X74.450 Y215.127 E23.30155
G1 X74.450 Y237.605 E24.80315
G1 X71.216 Y238.978 E25.03791
G1 X71.214 Y234.788 E25.31779
G1 X60.921 Y239.184 E26.06551
G1 E20.06551 F2400.00000
G92 E0
G1 Z1.300 F15000.000
G1 X58.027 Y241.570 F15000.000
G1 Z0.300 F15000.000
G1 E6.00000 F2400.00000
G1 F3600
G1 X58.027 Y242.341 E6.05245
G1 X60.304 Y240.064 E6.27149
G1 X60.304 Y240.835 E6.32395
G1 X58.027 Y243.113 E6.54298
G1 X58.027 Y243.884 E6.59543
G1 X60.304 Y241.607 E6.81445
G1 X60.304 Y242.378 E6.86691
G1 X59.072 Y243.610 E6.98541
G1 E0.98541 F2400.00000
G92 E0
G1 Z1.300 F15000.000
G1 X59.194 Y228.064 F15000.000
G1 Z0.300 F15000.000
G1 E6.00000 F2400.00000
G1 F3600
G1 X58.027 Y228.560 E6.08621
G1 X58.027 Y229.231 E6.13186
G1 X59.307 Y227.951 E6.25500
G1 X60.648 Y227.381 E6.35405
G1 X58.027 Y230.002 E6.60612
G1 X58.027 Y230.773 E6.65857
G1 X61.988 Y226.812 E7.03957
G1 X63.329 Y226.243 E7.13861
G1 X58.027 Y231.545 E7.64853
G1 X58.027 Y232.316 E7.70098
G1 X73.971 Y216.371 E9.23460
G1 X73.971 Y217.143 E9.28705
G1 X58.027 Y233.087 E10.82067
G1 X58.027 Y233.858 E10.87312
G1 X73.971 Y217.914 E12.40674
G1 X73.971 Y218.685 E12.45919
G1 X58.027 Y234.629 E13.99282
G1 X58.027 Y235.401 E14.04527
G1 X73.971 Y219.456 E15.57889
G1 X73.971 Y220.227 E15.63135
G1 X58.027 Y236.172 E17.16497
G1 X58.027 Y236.943 E17.21743
G1 X73.971 Y220.999 E18.75106
G1 X73.971 Y221.770 E18.80351
G1 X58.027 Y237.714 E20.33714
G1 X58.027 Y238.485 E20.38959
G1 X73.971 Y222.541 E21.92323
G1 X73.971 Y223.312 E21.97568
G1 X58.027 Y239.257 E23.50932
G1 X58.027 Y240.028 E23.56177
G1 X73.971 Y224.083 E25.09542
G1 X73.971 Y224.854 E25.14787
G1 X58.027 Y240.799 E26.68151
G1 X58.027 Y241.570 E26.73396
G1 X60.191 Y239.406 E26.94209
G1 X60.191 Y238.946 E26.97338
G1 X60.994 Y238.603 E27.03277
G1 X73.971 Y225.626 E28.28105
G1 X73.971 Y226.397 E28.33350
G1 X62.340 Y238.028 E29.45231
G1 X63.686 Y237.454 E29.55186
G1 X73.971 Y227.168 E30.54120
G1 X73.971 Y227.939 E30.59365
G1 X65.032 Y236.879 E31.45352
G1 X66.378 Y236.304 E31.55307
G1 X73.971 Y228.710 E32.28347
G1 X73.971 Y229.481 E32.33592
G1 X67.724 Y235.729 E32.93686
G1 X69.070 Y235.154 E33.03641
G1 X73.971 Y230.253 E33.50788
G1 X73.971 Y231.024 E33.56033
G1 X70.416 Y234.579 E33.90233
G1 X71.693 Y234.034 E33.99675
G1 X71.693 Y234.074 E33.99945
G1 X73.971 Y231.795 E34.21864
G1 X73.971 Y232.566 E34.27109
G1 X71.693 Y234.845 E34.49026
G1 X71.693 Y235.616 E34.54269
G1 X73.971 Y233.337 E34.76183
G1 X73.971 Y234.109 E34.81428
G1 X71.693 Y236.387 E35.03340
G1 X71.694 Y237.157 E35.08583
G1 X73.971 Y234.880 E35.30492
G1 X73.971 Y235.651 E35.35738
G1 X71.694 Y237.928 E35.57644
G1 X71.694 Y238.225 E35.59665
G1 X72.518 Y237.876 E35.65750
G1 X73.971 Y236.422 E35.79734
G1 X73.971 Y237.193 E35.84979
G1 X73.858 Y237.307 E35.86074
G1 E29.86074 F2400.00000
G92 E0
G1 Z1.300 F15000.000
G1 X63.837 Y225.735 F15000.000
G1 Z0.300 F15000.000
G1 E6.00000 F2400.00000
G1 F3600
G1 X73.971 Y215.600 E6.97481
G1 X73.960 Y214.841 E7.02647
G1 X63.838 Y224.963 E8.00004
G1 X63.839 Y224.190 E8.05257
G1 X73.832 Y214.198 E9.01373
G1 X73.778 Y214.037 E9.02523
G1 X73.591 Y213.667 E9.05343
G1 X63.840 Y223.418 E9.99132
G1 X63.841 Y222.646 E10.04385
G1 X73.265 Y213.222 E10.95030
G1 X73.159 Y213.102 E10.96117
G1 X72.864 Y212.852 E10.98749
G1 X63.842 Y221.873 E11.85527
G1 X63.844 Y221.101 E11.90779
G1 X72.380 Y212.564 E12.72892
G1 X72.033 Y212.432 E12.75422
G1 X71.798 Y212.375 E12.77063
G1 X63.845 Y220.329 E13.53564
G1 X63.846 Y219.556 E13.58817
G1 X71.074 Y212.328 E14.28346
G1 X70.669 Y212.377 E14.31127
G1 X70.095 Y212.536 E14.35176
G1 X63.847 Y218.784 E14.95271
G1 X63.848 Y218.012 E15.00524
G1 X69.029 Y212.831 E15.50353
G1 X67.962 Y213.126 E15.57877
G1 X63.849 Y217.239 E15.97439
G1 X63.882 Y216.741 E16.00838
G1 X63.958 Y216.359 E16.03483
G1 X66.896 Y213.421 E16.31741
G1 X66.458 Y213.563 E16.34875
G1 X65.961 Y213.793 E16.38595
G1 X65.655 Y213.982 E16.41042
G1 X65.230 Y214.316 E16.44716
G1 X65.076 Y214.470 E16.46200
G1 X65.117 Y214.429 E16.46591
M104 S205 ; set temperature
M140 S55 ; set bed temperature
G1 E10.46591 F2400.00000
G92 E0
G1 Z1.300 F15000.000
G1 X60.756 Y239.226 F15000.000
G1 Z0.700 F15000.000
G1 E6.00000 F2400.00000
G1 F3600
G1 X60.756 Y243.416 E6.21893
G1 X57.574 Y244.767 E6.39955
G1 X57.574 Y228.165 E7.26691
G1 X63.384 Y225.699 E7.59670
G1 X63.384 Y217.265 E8.03735
G1 X63.437 Y216.585 E8.07296
G1 X63.581 Y215.956 E8.10667
G1 X63.817 Y215.355 E8.14039
G1 X64.137 Y214.795 E8.17412
G1 X64.525 Y214.301 E8.20691
G1 X64.963 Y213.878 E8.23873
G1 X65.306 Y213.620 E8.26113
G1 X65.657 Y213.404 E8.28268
G1 X66.199 Y213.150 E8.31396
G1 X66.641 Y213.004 E8.33828
G1 X70.318 Y211.980 E8.53768
G1 X70.716 Y211.896 E8.55897
G1 X71.378 Y211.867 E8.59358
G1 X71.896 Y211.939 E8.62092
G1 X72.394 Y212.093 E8.64813
G1 X72.726 Y212.251 E8.66735
G1 X73.025 Y212.433 E8.68562
G1 X73.297 Y212.642 E8.70355
G1 X73.657 Y213.006 E8.73027
G1 X73.882 Y213.304 E8.74981
G1 X74.043 Y213.572 E8.76616
G1 X74.196 Y213.907 E8.78537
G1 X74.306 Y214.236 E8.80349
G1 X74.380 Y214.575 E8.82166
G1 X74.420 Y214.940 E8.84084
G1 X74.425 Y237.588 E10.02406
G1 X71.246 Y238.937 E10.20449
G1 X71.238 Y234.748 E10.42335
G1 X60.894 Y239.167 E11.01099
G1 X61.071 Y239.433 F15000.000
G1 F3600
G1 X61.071 Y243.624 E11.22995
G1 X57.260 Y245.242 E11.44623
G1 X57.260 Y227.957 E12.34925
G1 X63.070 Y225.491 E12.67904
G1 X63.070 Y217.260 E13.10904
G1 X63.125 Y216.542 E13.14667
G1 X63.279 Y215.868 E13.18280
G1 X63.531 Y215.224 E13.21893
G1 X63.874 Y214.623 E13.25506
G1 X64.292 Y214.090 E13.29045
G1 X64.621 Y213.760 E13.31482
G1 X65.128 Y213.361 E13.34855
G1 X65.504 Y213.129 E13.37164
G1 X66.090 Y212.855 E13.40542
G1 X66.549 Y212.703 E13.43069
G1 X70.243 Y211.675 E13.63100
G1 X70.823 Y211.566 E13.66182
G1 X71.403 Y211.553 E13.69212
G1 X71.971 Y211.634 E13.72212
G1 X72.517 Y211.804 E13.75198
G1 X72.876 Y211.974 E13.77274
G1 X73.203 Y212.174 E13.79275
G1 X73.498 Y212.400 E13.81219
G1 X73.897 Y212.802 E13.84179
G1 X74.141 Y213.125 E13.86290
G1 X74.323 Y213.430 E13.88148
G1 X74.489 Y213.791 E13.90225
G1 X74.609 Y214.152 E13.92212
G1 X74.691 Y214.525 E13.94207
G1 X74.734 Y214.919 E13.96279
G1 X74.739 Y237.796 E15.15797
G1 X70.932 Y239.412 E15.37402
G1 X70.925 Y235.224 E15.59282
G1 X61.208 Y239.374 E16.14481
G1 X61.735 Y239.872 F15000.000
G1 F1620
G1 X61.735 Y244.064 E16.85183
G1 X56.596 Y246.245 E17.79341
G1 X56.596 Y227.518 E20.95188
G1 X62.406 Y225.051 E22.01648
G1 X62.406 Y217.252 E23.33196
G1 X62.413 Y216.988 E23.37643
G1 X62.467 Y216.452 E23.46731
G1 X62.510 Y216.205 E23.50958
G1 X62.641 Y215.683 E23.60045
G1 X62.720 Y215.445 E23.64272
G1 X62.927 Y214.947 E23.73359
G1 X63.039 Y214.723 E23.77586
G1 X63.317 Y214.261 E23.86674
G1 X63.461 Y214.056 E23.90902
G1 X63.798 Y213.644 E23.99881
G1 X64.167 Y213.274 E24.08688
G1 X64.753 Y212.811 E24.21287
G1 X65.183 Y212.547 E24.29791
G1 X65.639 Y212.322 E24.38374
G1 X66.356 Y212.068 E24.51211
G1 X70.085 Y211.029 E25.16492
G1 X70.553 Y210.931 E25.24563
G1 X70.766 Y210.904 E25.28178
G1 X71.454 Y210.890 E25.39787
G1 X71.921 Y210.946 E25.47710
G1 X72.578 Y211.117 E25.59169
G1 X73.192 Y211.389 E25.70488
G1 X73.579 Y211.625 E25.78136
G1 X73.922 Y211.888 E25.85434
G1 X74.404 Y212.373 E25.96958
G1 X74.687 Y212.745 E26.04845
G1 X74.916 Y213.129 E26.12370
G1 X75.107 Y213.547 E26.20129
G1 X75.251 Y213.975 E26.27751
G1 X75.347 Y214.418 E26.35395
G1 X75.397 Y214.875 E26.43140
G1 X75.403 Y238.235 E30.37132
G1 X70.270 Y240.414 E31.31180
G1 X70.262 Y236.229 E32.01768
G1 X61.873 Y239.813 E33.55634
G1 X60.735 Y239.851 F15000.000
G1 E27.55634 F2400.00000
G92 E0
G1 Z1.700 F15000.000
G1 X58.474 Y243.623 F15000.000
G1 Z0.700 F15000.000
G1 E6.00000 F2400.00000
G1 F1440
G1 X58.302 Y243.451 E6.05345
G1 X58.302 Y241.590 E6.46066
G1 X59.781 Y243.069 E6.91843
G1 X60.029 Y242.964 E6.97731
G1 X60.029 Y241.456 E7.30732
G1 X58.302 Y239.729 E7.84174
G1 X58.302 Y237.868 E8.24895
G1 X60.029 Y239.595 E8.78337
G1 X60.029 Y238.775 E8.96283
G1 X60.758 Y238.463 E9.13636
G1 X58.302 Y236.007 E9.89646
G1 X58.302 Y234.146 E10.30367
G1 X62.062 Y237.906 E11.46728
G1 X63.366 Y237.349 E11.77755
G1 X58.302 Y232.285 E13.34468
G1 X58.302 Y230.424 E13.75189
G1 X64.670 Y236.792 E15.72253
G1 X65.973 Y236.235 E16.03280
G1 X58.340 Y228.602 E18.39511
G1 X59.646 Y228.047 E18.70567
G1 X67.277 Y235.678 E21.06721
G1 X68.581 Y235.121 E21.37748
G1 X60.953 Y227.493 E23.73825
G1 X62.259 Y226.938 E24.04881
G1 X69.885 Y234.564 E26.40881
G1 X71.189 Y234.007 E26.71908
G1 X63.565 Y226.384 E29.07831
G1 X64.112 Y226.152 E29.20828
G1 X64.112 Y225.069 E29.44508
G1 X73.697 Y234.654 E32.41121
G1 X73.697 Y232.793 E32.81842
G1 X64.112 Y223.209 E35.78455
G1 X64.112 Y221.348 E36.19177
G1 X73.697 Y230.932 E39.15790
G1 X73.697 Y229.071 E39.56511
G1 X64.112 Y219.487 E42.53124
G1 X64.112 Y217.626 E42.93846
G1 X73.697 Y227.210 E45.90459
G1 X73.697 Y225.350 E46.31180
G1 X64.326 Y215.979 E49.21164
G1 X64.466 Y215.621 E49.29575
G1 X64.728 Y215.165 E49.41088
G1 X65.012 Y214.803 E49.51139
G1 X73.697 Y223.489 E52.19920
G1 X73.697 Y221.628 E52.60641
G1 X66.057 Y213.988 E54.97057
G1 X66.414 Y213.821 E55.05671
G1 X67.445 Y213.515 E55.29206
G1 X73.697 Y219.767 E57.22687
G1 X73.697 Y217.906 E57.63409
G1 X68.900 Y213.110 E59.11842
G1 X70.356 Y212.704 E59.44907
G1 X73.697 Y216.045 E60.48293
G1 E54.48293 F2400.00000
G92 E0
G1 Z1.700 F15000.000
G1 X72.936 Y213.423 F15000.000
G1 Z0.700 F15000.000
G1 E6.00000 F2400.00000
G1 F1440
G1 X72.763 Y213.251 E6.05345
G1 E0.05345 F2400.00000
G92 E0
G1 Z1.700 F15000.000
G1 X73.697 Y236.515 F15000.000
G1 Z0.700 F15000.000
