; generated by Slic3r 1.3.1-dev on 2019-07-12 at 14:45:50

; external perimeters extrusion width = 0.44mm (3.04mm^3/s)
; perimeters extrusion width = 0.40mm (6.04mm^3/s)
; infill extrusion width = 0.48mm (10.05mm^3/s)
; solid infill extrusion width = 0.48mm (3.02mm^3/s)
; top infill extrusion width = 0.45mm (2.22mm^3/s)

M104 S230 ; set temperature
G28 ; home all axes
G1 X150 Y150 Z50 F10000
; Filament gcode
; layer 1
M109 S230 ; set temperature and wait for it to be reached
G21 ; set units to millimeters
G90 ; use absolute coordinates
M82 ; use absolute distances for extrusion
G92 E0
G92 E0
G1 Z0.350 F15000.000
G1 X65.266 Y52.916 F15000.000
G1 F3600
G1 X65.725 Y52.389 E0.10168
G1 X66.011 Y52.120 E0.15880
G1 X66.590 Y51.677 E0.26488
G1 X66.924 Y51.471 E0.32200
G1 X67.581 Y51.154 E0.42807
G1 X67.950 Y51.020 E0.48520
G1 X68.656 Y50.841 E0.59128
G1 X69.045 Y50.784 E0.64839
G1 X69.773 Y50.751 E0.75448
G1 X70.165 Y50.773 E0.81160
G1 X70.885 Y50.887 E0.91767
G1 X71.247 Y50.982 E0.97209
G1 X71.618 Y51.108 E1.02921
G1 X72.282 Y51.411 E1.13530
G1 X72.620 Y51.609 E1.19241
G1 X73.209 Y52.039 E1.29849
G1 X73.501 Y52.301 E1.35561
G1 X73.992 Y52.841 E1.46169
G1 X74.225 Y53.157 E1.51882
G1 X74.596 Y53.784 E1.62489
G1 X74.761 Y54.140 E1.68202
G1 X74.914 Y54.552 E1.74602
G1 X75.085 Y55.193 E1.84249
G1 X75.149 Y55.580 E1.89963
G1 X75.194 Y56.308 E2.00570
G1 X75.179 Y56.700 E2.06282
G1 X75.076 Y57.422 E2.16890
G1 X74.982 Y57.803 E2.22602
G1 X74.737 Y58.489 E2.33210
G1 X74.576 Y58.827 E2.38652
G1 X74.384 Y59.170 E2.44364
G1 X73.964 Y59.765 E2.54972
G1 X73.719 Y60.048 E2.60413
G1 X73.443 Y60.327 E2.66126
G1 X72.879 Y60.789 E2.76733
G1 X72.552 Y61.006 E2.82446
G1 X71.907 Y61.345 E2.93053
G1 X71.542 Y61.492 E2.98766
G1 X70.842 Y61.694 E3.09374
G1 X70.456 Y61.765 E3.15086
G1 X69.729 Y61.822 E3.25694
G1 X69.337 Y61.813 E3.31406
G1 X68.613 Y61.723 E3.42014
G1 X68.231 Y61.636 E3.47725
G1 X67.540 Y61.402 E3.58333
G1 X67.200 Y61.247 E3.63776
G1 X66.854 Y61.060 E3.69488
G1 X66.251 Y60.651 E3.80095
G1 X65.951 Y60.398 E3.85808
G1 X65.443 Y59.876 E3.96416
G1 X65.199 Y59.568 E4.02128
G1 X64.954 Y59.203 E4.08528
G1 X64.637 Y58.620 E4.18176
G1 X64.484 Y58.259 E4.23888
G1 X64.270 Y57.562 E4.34496
G1 X64.193 Y57.177 E4.40208
G1 X64.124 Y56.451 E4.50816
G1 X64.125 Y56.077 E4.56258
G1 X64.154 Y55.686 E4.61970
G1 X64.280 Y54.968 E4.72578
G1 X64.387 Y54.590 E4.78290
G1 X64.656 Y53.912 E4.88898
G1 X64.837 Y53.564 E4.94611
G1 X65.230 Y52.963 E5.05056
G92 E0
G1 X69.207 Y55.773 F15000.000
G1 F3600
G1 X69.317 Y55.688 E0.01394
G1 X69.473 Y55.625 E0.03080
G1 X69.629 Y55.598 E0.04669
G1 X69.786 Y55.612 E0.06251
G1 X69.963 Y55.672 E0.08128
G1 X70.141 Y55.802 E0.10341
G1 X70.243 Y55.932 E0.11992
G1 X70.298 Y56.041 E0.13218
G1 X70.334 Y56.175 E0.14609
G1 X70.344 Y56.336 E0.16234
G1 X70.268 Y56.603 E0.19014
G1 X70.159 Y56.758 E0.20923
G1 X70.040 Y56.855 E0.22462
G1 X69.922 Y56.917 E0.23795
G1 X69.739 Y56.967 E0.25704
G1 X69.596 Y56.969 E0.27136
G1 X69.483 Y56.947 E0.28295
G1 X69.351 Y56.902 E0.29688
G1 X69.194 Y56.795 E0.31596
G1 X69.095 Y56.678 E0.33135
G1 X69.015 Y56.532 E0.34802
G1 X68.973 Y56.292 E0.37249
G1 X68.992 Y56.129 E0.38899
G1 X69.029 Y56.012 E0.40126
G1 X69.109 Y55.871 E0.41751
G1 X69.164 Y55.815 E0.42541
G1 X68.751 Y55.253 F15000.000
G1 F3600
G1 X69.034 Y55.059 E0.45991
G1 X69.281 Y54.959 E0.48665
G1 X69.661 Y54.908 E0.52510
G1 X70.029 Y54.961 E0.56240
G1 X70.272 Y55.052 E0.58840
G1 X70.468 Y55.176 E0.61170
G1 X70.623 Y55.306 E0.63201
G1 X70.838 Y55.580 E0.66696
G1 X70.945 Y55.793 E0.69082
G1 X71.018 Y56.062 E0.71881
G1 X71.034 Y56.321 E0.74482
G1 X70.980 Y56.660 E0.77932
G1 X70.908 Y56.861 E0.80066
G1 X70.686 Y57.207 E0.84192
G1 X70.422 Y57.433 E0.87686
G1 X70.199 Y57.551 E0.90215
G1 X70.034 Y57.609 E0.91970
G1 X69.815 Y57.656 E0.94212
G1 X69.534 Y57.659 E0.97040
G1 X69.306 Y57.615 E0.99370
G1 X68.986 Y57.488 E1.02820
G1 X68.754 Y57.330 E1.05630
G1 X68.523 Y57.070 E1.09125
G1 X68.397 Y56.840 E1.11757
G1 X68.301 Y56.509 E1.15207
G1 X68.282 Y56.308 E1.17238
G1 X68.322 Y55.962 E1.20732
G1 X68.394 Y55.735 E1.23119
G1 X68.521 Y55.509 E1.25721
G1 X68.708 Y55.296 E1.28569
G1 X68.295 Y54.734 F15000.000
G1 F3600
G1 X68.538 Y54.548 E1.31639
G1 X68.733 Y54.437 E1.33899
G1 X69.050 Y54.309 E1.37322
G1 X69.470 Y54.225 E1.41618
G1 X69.693 Y54.218 E1.43859
G1 X70.005 Y54.248 E1.47001
G1 X70.228 Y54.299 E1.49305
G1 X70.561 Y54.424 E1.52870
G1 X70.875 Y54.618 E1.56575
G1 X71.105 Y54.810 E1.59578
G1 X71.284 Y55.011 E1.62280
G1 X71.433 Y55.229 E1.64928
G1 X71.583 Y55.526 E1.68267
G1 X71.696 Y55.929 E1.72469
G1 X71.725 Y56.325 E1.76446
G1 X71.708 Y56.549 E1.78705
G1 X71.645 Y56.849 E1.81776
G1 X71.542 Y57.137 E1.84846
G1 X71.438 Y57.337 E1.87105
G1 X71.234 Y57.627 E1.90671
G1 X71.082 Y57.785 E1.92866
G1 X70.784 Y58.022 E1.96687
G1 X70.475 Y58.184 E2.00186
G1 X70.221 Y58.274 E2.02887
G1 X69.915 Y58.339 E2.06030
G1 X69.492 Y58.349 E2.10277
G1 X69.129 Y58.283 E2.13983
G1 X68.839 Y58.185 E2.17053
G1 X68.637 Y58.084 E2.19313
G1 X68.343 Y57.885 E2.22877
G1 X68.183 Y57.736 E2.25074
G1 X67.941 Y57.442 E2.28895
G1 X67.770 Y57.130 E2.32460
G1 X67.690 Y56.920 E2.34720
G1 X67.620 Y56.622 E2.37790
G1 X67.591 Y56.324 E2.40793
G1 X67.604 Y56.055 E2.43494
G1 X67.651 Y55.795 E2.46142
G1 X67.752 Y55.478 E2.49483
G1 X67.943 Y55.131 E2.53459
G1 X68.079 Y54.951 E2.55719
G1 X68.252 Y54.777 E2.58186
G1 X67.839 Y54.215 F15000.000
G1 F3600
G1 X68.156 Y53.972 E2.62193
G1 X68.432 Y53.814 E2.65389
G1 X68.828 Y53.655 E2.69665
G1 X69.382 Y53.540 E2.75339
G1 X69.724 Y53.529 E2.78782
G1 X70.114 Y53.565 E2.82708
G1 X70.428 Y53.637 E2.85938
G1 X70.837 Y53.791 E2.90322
G1 X71.283 Y54.060 E2.95546
G1 X71.586 Y54.314 E2.99520
G1 X71.828 Y54.586 E3.03169
G1 X72.028 Y54.878 E3.06718
G1 X72.214 Y55.247 E3.10866
G1 X72.371 Y55.783 E3.16468
G1 X72.416 Y56.329 E3.21963
G1 X72.393 Y56.646 E3.25158
G1 X72.310 Y57.037 E3.29165
G1 X72.176 Y57.413 E3.33172
G1 X72.029 Y57.696 E3.36367
G1 X71.777 Y58.053 E3.40752
G1 X71.543 Y58.299 E3.44159
G1 X71.136 Y58.616 E3.49337
G1 X70.752 Y58.818 E3.53690
G1 X70.409 Y58.939 E3.57339
G1 X70.026 Y59.021 E3.61266
G1 X69.465 Y59.039 E3.66903
G1 X68.952 Y58.951 E3.72126
G1 X68.573 Y58.823 E3.76133
G1 X68.288 Y58.681 E3.79329
G1 X67.927 Y58.435 E3.83712
G1 X67.677 Y58.205 E3.87121
G1 X67.353 Y57.804 E3.92299
G1 X67.143 Y57.420 E3.96683
G1 X67.029 Y57.123 E3.99879
G1 X66.938 Y56.734 E4.03885
G1 X66.900 Y56.340 E4.07860
G1 X66.918 Y55.977 E4.11508
G1 X66.980 Y55.628 E4.15057
G1 X67.106 Y55.235 E4.19205
G1 X67.365 Y54.752 E4.24700
G1 X67.557 Y54.498 E4.27896
G1 X67.796 Y54.257 E4.31300
G92 E0
G1 X73.255 Y59.210 F15000.000
G1 F3600
G1 X73.055 Y59.441 E0.02778
G1 X72.796 Y59.696 E0.06081
G1 X72.344 Y60.064 E0.11381
G1 X72.093 Y60.231 E0.14126
G1 X71.528 Y60.528 E0.19925
G1 X71.245 Y60.642 E0.22703
G1 X70.898 Y60.751 E0.26006
G1 X70.329 Y60.873 E0.31306
G1 X70.029 Y60.907 E0.34051
G1 X69.391 Y60.914 E0.39850
G1 X69.091 Y60.887 E0.42590
G1 X68.470 Y60.767 E0.48335
G1 X67.872 Y60.564 E0.54080
G1 X67.592 Y60.437 E0.56874
G1 X67.322 Y60.291 E0.59668
G1 X66.795 Y59.932 E0.65467
G1 X66.561 Y59.736 E0.68245
G1 X66.301 Y59.482 E0.71548
G1 X65.925 Y59.036 E0.76848
G1 X65.754 Y58.787 E0.79593
G1 X65.448 Y58.228 E0.85392
G1 X65.328 Y57.945 E0.88186
G1 X65.228 Y57.655 E0.90979
G1 X65.084 Y57.040 E0.96725
G1 X65.023 Y56.411 E1.02470
G1 X65.025 Y56.105 E1.05248
G1 X65.055 Y55.743 E1.08551
G1 X65.157 Y55.175 E1.13797
G1 X65.350 Y54.573 E1.19547
G1 X65.470 Y54.297 E1.22287
G1 X65.783 Y53.741 E1.28086
G1 X65.960 Y53.490 E1.30880
G1 X66.153 Y53.251 E1.33674
G1 X66.599 Y52.803 E1.39419
G1 X67.101 Y52.419 E1.45164
G1 X67.362 Y52.258 E1.47958
G1 X67.634 Y52.115 E1.50752
G1 X68.224 Y51.877 E1.56535
G1 X68.568 Y51.781 E1.59784
G1 X69.142 Y51.679 E1.65084
G1 X69.447 Y51.655 E1.67867
G1 X69.810 Y51.654 E1.71170
G1 X70.391 Y51.708 E1.76470
G1 X70.990 Y51.846 E1.82059
G1 X71.587 Y52.070 E1.87858
G1 X71.856 Y52.205 E1.90598
G1 X72.391 Y52.542 E1.96343
G1 X72.875 Y52.948 E2.02089
G1 X73.088 Y53.167 E2.04867
G1 X73.320 Y53.446 E2.08170
G1 X73.646 Y53.923 E2.13416
G1 X73.930 Y54.487 E2.19166
G1 X74.038 Y54.769 E2.21906
G1 X74.205 Y55.384 E2.27705
G1 X74.254 Y55.682 E2.30445
G1 X74.293 Y56.318 E2.36244
G1 X74.281 Y56.625 E2.39038
G1 X74.249 Y56.931 E2.41831
G1 X74.118 Y57.549 E2.47577
G1 X73.905 Y58.144 E2.53322
G1 X73.773 Y58.421 E2.56116
G1 X73.622 Y58.689 E2.58909
G1 X73.290 Y59.161 E2.64163
G1 X73.255 Y59.210 F15000.000
G1 X72.762 Y58.824 F15000.000
G1 F3600
G1 X72.378 Y59.230 E2.69243
G1 X71.973 Y59.560 E2.73995
G1 X71.774 Y59.693 E2.76172
G1 X71.265 Y59.960 E2.81395
G1 X71.034 Y60.053 E2.83665
G1 X70.739 Y60.146 E2.86479
G1 X70.228 Y60.256 E2.91230
G1 X69.990 Y60.283 E2.93408
G1 X69.415 Y60.289 E2.98630
G1 X69.179 Y60.268 E3.00794
G1 X68.631 Y60.162 E3.05867
G1 X68.102 Y59.983 E3.10939
G1 X67.871 Y59.877 E3.13253
G1 X67.647 Y59.756 E3.15566
G1 X67.172 Y59.433 E3.20789
G1 X66.760 Y59.056 E3.25870
G1 X66.423 Y58.657 E3.30621
G1 X66.287 Y58.459 E3.32798
G1 X66.011 Y57.956 E3.38021
G1 X65.912 Y57.721 E3.40335
G1 X65.829 Y57.481 E3.42648
G1 X65.702 Y56.938 E3.47721
G1 X65.648 Y56.382 E3.52793
G1 X65.650 Y56.133 E3.55064
G1 X65.675 Y55.824 E3.57878
G1 X65.765 Y55.326 E3.62479
G1 X65.935 Y54.794 E3.67565
G1 X66.030 Y54.575 E3.69728
G1 X66.312 Y54.075 E3.74951
G1 X66.458 Y53.867 E3.77265
G1 X66.619 Y53.669 E3.79579
G1 X67.012 Y53.274 E3.84651
G1 X67.455 Y52.935 E3.89723
G1 X67.672 Y52.801 E3.92037
G1 X67.897 Y52.683 E3.94351
G1 X68.425 Y52.470 E3.99530
G1 X68.708 Y52.391 E4.02194
G1 X69.222 Y52.299 E4.06945
G1 X69.782 Y52.279 E4.12040
G1 X70.302 Y52.328 E4.16791
G1 X70.799 Y52.442 E4.21429
G1 X71.337 Y52.644 E4.26652
G1 X71.550 Y52.750 E4.28816
G1 X72.022 Y53.048 E4.33888
G1 X72.449 Y53.406 E4.38961
G1 X72.623 Y53.585 E4.41231
G1 X72.821 Y53.823 E4.44045
G1 X73.106 Y54.241 E4.48646
G1 X73.358 Y54.740 E4.53732
G1 X73.443 Y54.963 E4.55896
G1 X73.594 Y55.517 E4.61119
G1 X73.632 Y55.752 E4.63282
G1 X73.668 Y56.325 E4.68505
G1 X73.658 Y56.579 E4.70819
G1 X73.631 Y56.832 E4.73132
G1 X73.515 Y57.378 E4.78205
G1 X73.327 Y57.903 E4.83277
G1 X73.218 Y58.133 E4.85591
G1 X73.093 Y58.355 E4.87904
G1 X72.797 Y58.775 E4.92582
G1 X72.270 Y58.439 F15000.000
G1 F3600
G1 X71.961 Y58.765 E4.96666
G1 X71.602 Y59.057 E5.00869
G1 X71.455 Y59.154 E5.02479
G1 X71.003 Y59.392 E5.07125
G1 X70.823 Y59.465 E5.08888
G1 X70.579 Y59.542 E5.11213
G1 X70.127 Y59.638 E5.15415
G1 X69.951 Y59.658 E5.17025
G1 X69.440 Y59.664 E5.21672
G1 X69.266 Y59.648 E5.23259
G1 X68.791 Y59.556 E5.27659
G1 X68.333 Y59.401 E5.32058
G1 X68.149 Y59.317 E5.33892
G1 X67.972 Y59.221 E5.35726
G1 X67.549 Y58.934 E5.40371
G1 X67.218 Y58.631 E5.44457
G1 X66.920 Y58.277 E5.48659
G1 X66.820 Y58.131 E5.50269
G1 X66.575 Y57.683 E5.54915
G1 X66.496 Y57.498 E5.56749
G1 X66.430 Y57.307 E5.58582
G1 X66.320 Y56.836 E5.62982
G1 X66.273 Y56.354 E5.67382
G1 X66.274 Y56.160 E5.69144
G1 X66.296 Y55.906 E5.71469
G1 X66.373 Y55.477 E5.75425
G1 X66.521 Y55.014 E5.79848
G1 X66.590 Y54.854 E5.81435
G1 X66.841 Y54.409 E5.86082
G1 X66.957 Y54.244 E5.87915
G1 X67.084 Y54.087 E5.89749
G1 X67.425 Y53.744 E5.94148
G1 X67.810 Y53.450 E5.98548
G1 X67.981 Y53.344 E6.00382
G1 X68.160 Y53.251 E6.02215
G1 X68.627 Y53.063 E6.06791
G1 X68.847 Y53.001 E6.08870
G1 X69.302 Y52.920 E6.13072
G1 X69.753 Y52.904 E6.17179
G1 X70.213 Y52.947 E6.21382
G1 X70.609 Y53.037 E6.25069
G1 X71.087 Y53.218 E6.29716
G1 X71.243 Y53.295 E6.31303
G1 X71.652 Y53.554 E6.35703
G1 X72.023 Y53.865 E6.40103
G1 X72.158 Y54.004 E6.41865
G1 X72.322 Y54.200 E6.44190
G1 X72.567 Y54.559 E6.48146
G1 X72.786 Y54.994 E6.52569
G1 X72.849 Y55.157 E6.54156
G1 X72.982 Y55.650 E6.58802
G1 X73.011 Y55.822 E6.60390
G1 X73.042 Y56.332 E6.65036
G1 X73.034 Y56.534 E6.66869
G1 X73.013 Y56.734 E6.68703
G1 X72.913 Y57.208 E6.73103
G1 X72.750 Y57.663 E6.77503
G1 X72.663 Y57.845 E6.79336
G1 X72.564 Y58.021 E6.81170
G1 X72.304 Y58.390 E6.85271
M104 S205 ; set temperature
G1 Z0.650 F15000.000
G92 E0
G1 X69.362 Y60.241 F15000.000
G1 F1440
G1 X69.903 Y60.241 E0.02968
G1 X70.306 Y60.204 E0.05187
G1 X70.534 Y60.163 E0.06459
G1 X71.069 Y60.008 E0.09511
G1 X71.535 Y59.802 E0.12307
G1 X67.784 Y59.802 E0.32872
G1 X67.356 Y59.551 E0.35593
G1 X67.105 Y59.362 E0.37317
G1 X72.195 Y59.362 E0.65229
G1 X72.427 Y59.172 E0.66871
G1 X72.659 Y58.923 E0.68740
G1 X66.653 Y58.923 E1.01675
G1 X66.311 Y58.483 E1.04728
G1 X73.001 Y58.483 E1.41411
G1 X73.112 Y58.325 E1.42467
G1 X73.261 Y58.043 E1.44218
G1 X66.051 Y58.043 E1.83751
G1 X65.868 Y57.604 E1.86363
G1 X73.444 Y57.604 E2.27906
G1 X73.524 Y57.373 E2.29245
G1 X73.568 Y57.164 E2.30414
G1 X65.737 Y57.164 E2.73351
G1 X65.664 Y56.724 E2.75795
G1 X73.651 Y56.724 E3.19590
G1 X73.665 Y56.591 E3.20326
G1 X73.670 Y56.285 E3.22004
G1 X65.648 Y56.285 E3.65993
G1 X65.666 Y55.845 E3.68406
G1 X73.648 Y55.845 E4.12175
G1 X73.570 Y55.406 E4.14623
G1 X65.743 Y55.406 E4.57538
G1 X65.820 Y55.099 E4.59269
G1 X65.873 Y54.966 E4.60056
G1 X73.448 Y54.966 E5.01589
G1 X73.258 Y54.526 E5.04215
G1 X66.055 Y54.526 E5.43711
G1 X66.314 Y54.087 E5.46509
G1 X72.998 Y54.087 E5.83159
G1 X72.806 Y53.808 E5.85011
G1 X72.670 Y53.647 E5.86172
G1 X66.659 Y53.647 E6.19130
G1 X66.807 Y53.477 E6.20367
G1 X67.116 Y53.207 E6.22618
G1 X72.198 Y53.207 E6.50483
G1 X72.051 Y53.087 E6.51527
G1 X71.523 Y52.768 E6.54911
G1 X67.792 Y52.768 E6.75368
G1 X67.989 Y52.669 E6.76577
G1 X68.387 Y52.514 E6.78917
G1 X68.608 Y52.450 E6.80182
G1 X69.177 Y52.346 E6.83354
G1 X69.532 Y52.328 E6.85299
G92 E0
G1 X72.966 Y59.086 F15000.000
G1 F1080
G1 X72.629 Y59.448 E0.02070
G1 X72.164 Y59.829 E0.04587
G1 X71.691 Y60.120 E0.06911
G1 X71.142 Y60.363 E0.09428
G1 X70.564 Y60.530 E0.11945
G1 X70.300 Y60.578 E0.13067
G1 X69.864 Y60.618 E0.14902
G1 X69.403 Y60.619 E0.16832
G1 X69.137 Y60.595 E0.17950
G1 X68.531 Y60.477 E0.20532
G1 X68.280 Y60.402 E0.21630
G1 X67.725 Y60.171 E0.24147
G1 X67.206 Y59.867 E0.26664
G1 X66.981 Y59.703 E0.27827
G1 X66.769 Y59.525 E0.28990
G1 X66.350 Y59.094 E0.31507
G1 X65.992 Y58.610 E0.34024
G1 X65.851 Y58.371 E0.35186
G1 X65.723 Y58.118 E0.36373
G1 X65.561 Y57.711 E0.38208
G1 X65.430 Y57.269 E0.40138
G1 X65.375 Y56.992 E0.41321
G1 X65.339 Y56.716 E0.42483
G1 X65.322 Y56.100 E0.45065
G1 X65.341 Y55.838 E0.46163
G1 X65.448 Y55.231 E0.48745
G1 X65.519 Y54.978 E0.49843
G1 X65.743 Y54.414 E0.52384
G1 X65.946 Y54.043 E0.54155
G1 X66.194 Y53.672 E0.56020
G1 X66.591 Y53.215 E0.58557
G1 X66.786 Y53.031 E0.59678
G1 X67.131 Y52.761 E0.61514
G1 X67.510 Y52.515 E0.63403
G1 X67.893 Y52.324 E0.65193
G1 X68.322 Y52.156 E0.67123
G1 X68.579 Y52.082 E0.68241
G1 X69.185 Y51.972 E0.70823
G1 X69.452 Y51.951 E0.71944
G1 X69.891 Y51.955 E0.73780
G1 X70.350 Y52.001 E0.75710
G1 X70.895 Y52.126 E0.78054
G1 X71.463 Y52.340 E0.80594
G1 X71.838 Y52.537 E0.82365
G1 X72.217 Y52.781 E0.84254
G1 X72.548 Y53.052 E0.86045
G1 X72.877 Y53.375 E0.87974
G1 X73.050 Y53.579 E0.89092
G1 X73.394 Y54.079 E0.91633
G1 X73.589 Y54.454 E0.93404
G1 X73.758 Y54.867 E0.95269
G1 X73.917 Y55.451 E0.97806
G1 X73.960 Y55.716 E0.98928
G1 X73.993 Y56.153 E1.00763
G1 X73.985 Y56.614 E1.02693
G1 X73.957 Y56.880 E1.03811
G1 X73.831 Y57.473 E1.06351
G1 X73.694 Y57.874 E1.08123
G1 X73.505 Y58.294 E1.10052
G1 X73.374 Y58.527 E1.11170
G1 X73.007 Y59.042 E1.13818
G1 X73.212 Y59.314 F15000.000
G1 F1080
G1 X72.860 Y59.693 E1.15982
G1 X72.364 Y60.099 E1.18666
G1 X71.843 Y60.420 E1.21227
G1 X71.257 Y60.679 E1.23910
G1 X70.641 Y60.858 E1.26594
G1 X70.346 Y60.911 E1.27849
G1 X69.879 Y60.954 E1.29811
G1 X69.388 Y60.954 E1.31868
G1 X69.090 Y60.927 E1.33121
G1 X68.451 Y60.804 E1.35845
G1 X68.167 Y60.718 E1.37086
G1 X67.575 Y60.472 E1.39770
G1 X67.022 Y60.148 E1.42453
G1 X66.774 Y59.968 E1.43734
G1 X66.540 Y59.771 E1.45016
G1 X66.093 Y59.311 E1.47699
G1 X65.712 Y58.796 E1.50383
G1 X65.556 Y58.532 E1.51664
G1 X65.417 Y58.256 E1.52961
G1 X65.244 Y57.820 E1.54922
G1 X65.104 Y57.349 E1.56979
G1 X65.043 Y57.046 E1.58273
G1 X65.004 Y56.743 E1.59555
G1 X64.986 Y56.092 E1.62279
G1 X65.007 Y55.796 E1.63520
G1 X65.120 Y55.156 E1.66244
G1 X65.201 Y54.870 E1.67484
G1 X65.438 Y54.271 E1.70183
G1 X65.658 Y53.868 E1.72104
G1 X65.926 Y53.468 E1.74120
