; G-Code generated by Simplify3D(R) Version 3.1.1
; Jan 8, 2019 at 10:35:06 AM
; Settings Summary
;   processName,Process1
;   applyToModels,1975_Mercury
;   profileName,Monoprice Select Mini (modified)
;   profileVersion,2016-08-25 08:00:00
;   baseProfile,
;   printMaterial,PLA
;   printQuality,High
;   printExtruders,
;   extruderName,Primary Extruder
;   extruderToolheadNumber,0
;   extruderDiameter,0.6
;   extruderAutoWidth,0
;   extruderWidth,0.4
;   extrusionMultiplier,1
;   extruderUseRetract,1
;   extruderRetractionDistance,2.5
;   extruderExtraRestartDistance,0
;   extruderRetractionZLift,0
;   extruderRetractionSpeed,1800
;   extruderUseCoasting,0
;   extruderCoastingDistance,0.2
;   extruderUseWipe,0
;   extruderWipeDistance,5
;   primaryExtruder,0
;   layerHeight,0.1
;   topSolidLayers,4
;   bottomSolidLayers,4
;   perimeterOutlines,0
;   printPerimetersInsideOut,1
;   startPointOption,2
;   startPointOriginX,0
;   startPointOriginY,0
;   startPointOriginZ,300
;   sequentialIslands,0
;   spiralVaseMode,0
;   firstLayerHeightPercentage,90
;   firstLayerWidthPercentage,100
;   firstLayerUnderspeed,0.5
;   useRaft,1
;   raftExtruder,0
;   raftLayers,3
;   raftOffset,3
;   raftSeparationDistance,0.14
;   raftInfill,85
;   disableRaftBaseLayers,0
;   useSkirt,1
;   skirtExtruder,0
;   skirtLayers,2
;   skirtOutlines,2
;   skirtOffset,4
;   usePrimePillar,0
;   primePillarExtruder,999
;   primePillarWidth,12
;   primePillarLocation,7
;   primePillarSpeedMultiplier,1
;   useOozeShield,0
;   oozeShieldExtruder,999
;   oozeShieldOffset,2
;   oozeShieldOutlines,1
;   oozeShieldSidewallShape,1
;   oozeShieldSidewallAngle,30
;   oozeShieldSpeedMultiplier,1
;   infillExtruder,0
;   internalInfillPattern,Rectilinear
;   externalInfillPattern,Rectilinear
;   infillPercentage,30
;   outlineOverlapPercentage,30
;   infillExtrusionWidthPercentage,120
;   minInfillLength,5
;   infillLayerInterval,1
;   infillAngles,0
;   overlapInfillAngles,0
;   generateSupport,1
;   supportExtruder,0
;   supportInfillPercentage,40
;   supportExtraInflation,0
;   denseSupportLayers,0
;   denseSupportInfillPercentage,70
;   supportLayerInterval,1
;   supportHorizontalPartOffset,0.3
;   supportUpperSeparationLayers,1
;   supportLowerSeparationLayers,1
;   supportType,0
;   supportGridSpacing,4
;   maxOverhangAngle,45
;   supportAngles,0
;   temperatureName,Primary Extruder,Heated Bed
;   temperatureNumber,0,0
;   temperatureSetpointCount,1,1
;   temperatureSetpointLayers,1,1
;   temperatureSetpointTemperatures,210,60
;   temperatureStabilizeAtStartup,1,1
;   temperatureHeatedBed,0,1
;   temperatureRelayBetweenLayers,0,0
;   temperatureRelayBetweenLoops,0,0
;   fanLayers,1,2
;   fanSpeeds,0,100
;   blipFanToFullPower,0
;   adjustSpeedForCooling,1
;   minSpeedLayerTime,15
;   minCoolingSpeedSlowdown,20
;   increaseFanForCooling,0
;   minFanLayerTime,45
;   maxCoolingFanSpeed,100
;   increaseFanForBridging,0
;   bridgingFanSpeed,100
;   use5D,1
;   relativeEdistances,0
;   allowEaxisZeroing,1
;   independentExtruderAxes,0
;   includeM10123,0
;   stickySupport,1
;   applyToolheadOffsets,0
;   gcodeXoffset,0
;   gcodeYoffset,0
;   gcodeZoffset,0
;   overrideMachineDefinition,1
;   machineTypeOverride,0
;   strokeXoverride,120
;   strokeYoverride,120
;   strokeZoverride,120
;   originOffsetXoverride,0
;   originOffsetYoverride,0
;   originOffsetZoverride,0
;   homeXdirOverride,-1
;   homeYdirOverride,-1
;   homeZdirOverride,-1
;   flipXoverride,1
;   flipYoverride,-1
;   flipZoverride,1
;   toolheadOffsets,0,0|0,0|0,0|0,0|0,0|0,0
;   overrideFirmwareConfiguration,1
;   firmwareTypeOverride,RepRap (Marlin/Repetier/Sprinter)
;   GPXconfigOverride,r2
;   baudRateOverride,115200
;   overridePrinterModels,1
;   printerModelsOverride
;   startingGcode,G28 ; home all axes,G1 Z0.2 F1200 ; raise nozzle,G92 E0 ; reset extrusion distance,G1 X100 Y0 E12 F600 ; purge nozzle
;   layerChangeGcode,
;   retractionGcode,
;   toolChangeGcode,
;   endingGcode,M104 S0 ; turn off extruder,M140 S0 ; turn off bed,G1 X0 Y110 F1000 ; prepare for part removal,M84 ; disable motors
;   exportFileFormat,gcode
;   celebration,0
;   celebrationSong,Random Song
;   postProcessing,
;   defaultSpeed,600
;   outlineUnderspeed,0.4
;   solidInfillUnderspeed,0.6
;   supportUnderspeed,0.8
;   rapidXYspeed,3600
;   rapidZspeed,1000
;   minBridgingArea,50
;   bridgingExtraInflation,0
;   bridgingExtrusionMultiplier,1
;   bridgingSpeedMultiplier,1
;   filamentDiameter,1.75
;   filamentPricePerKg,46
;   filamentDensity,1.25
;   useMinPrintHeight,0
;   minPrintHeight,0
;   useMaxPrintHeight,0
;   maxPrintHeight,0
;   useDiaphragm,0
;   diaphragmLayerInterval,20
;   robustSlicing,1
;   mergeAllIntoSolid,0
;   onlyRetractWhenCrossingOutline,1
;   retractBetweenLayers,1
;   useRetractionMinTravel,0
;   retractionMinTravel,3
;   retractWhileWiping,0
;   onlyWipeOutlines,1
;   avoidCrossingOutline,0
;   maxMovementDetourFactor,3
;   toolChangeRetractionDistance,12
;   toolChangeExtraRestartDistance,-0.5
;   toolChangeRetractionSpeed,600
;   allowThinWallGapFill,1
;   thinWallAllowedOverlapPercentage,10
;   horizontalSizeCompensation,0
G90
M82
M106 S0
M140 S60
M190 S60
M104 S210 T0
M109 S210 T0
G28 ; home all axes
G1 Z0.2 F1200 ; raise nozzle
G92 E0 ; reset extrusion distance
G1 X100 Y0 E12 F600 ; purge nozzle
G92 E0
G1 E-2.5000 F1800
G1 Z0.675 F1000
; layer 1, Z = 0.675
T0
; tool H0.750 W0.400
; skirt
G1 X10.819 Y5.410 F3600
G1 E0.0000 F540
G92 E0
G1 X10.885 Y5.311 E0.0147 F300
G1 X15.609 Y0.588 E0.8479
G1 X15.707 Y0.522 E0.8627
G1 X17.286 Y-0.132 E1.0759
G1 X17.402 Y-0.155 E1.0906
G1 X24.412 Y-0.155 E1.9649
G1 X25.431 Y-0.577 E2.1025
G1 X25.547 Y-0.600 E2.1172
G1 X33.074 Y-0.600 E3.0560
G1 X33.190 Y-0.577 E3.0708
G1 X34.209 Y-0.155 E3.2083
G1 X41.106 Y-0.155 E4.0686
G1 X42.125 Y-0.577 E4.2062
G1 X42.241 Y-0.600 E4.2209
G1 X49.768 Y-0.600 E5.1597
G1 X49.884 Y-0.577 E5.1745
G1 X50.903 Y-0.155 E5.3120
G1 X57.913 Y-0.155 E6.1863
G1 X58.029 Y-0.132 E6.2011
G1 X59.608 Y0.522 E6.4143
G1 X59.706 Y0.588 E6.4290
G1 X64.430 Y5.311 E7.2622
G1 X64.496 Y5.410 E7.2769
G1 X65.150 Y6.989 E7.4901
G1 X65.173 Y7.105 E7.5049
G1 X65.173 Y17.768 E8.8348
G1 X65.150 Y17.884 E8.8496
G1 X64.551 Y19.329 E9.0446
G1 X64.551 Y38.646 E11.4540
G1 X64.908 Y39.509 E11.5705
G1 X64.931 Y39.625 E11.5852
G1 X64.931 Y49.939 E12.8717
G1 X64.908 Y50.055 E12.8864
G1 X64.551 Y50.917 E13.0028
G1 X64.551 Y55.110 E13.5258
G1 X64.908 Y55.972 E13.6422
G1 X64.931 Y56.088 E13.6569
G1 X64.931 Y62.262 E14.4270
G1 X67.125 Y64.456 E14.8139
G1 X67.190 Y64.554 E14.8286
G1 X67.844 Y66.133 E15.0418
G1 X67.868 Y66.249 E15.0566
G1 X67.868 Y73.215 E15.9254
G1 X67.844 Y73.331 E15.9402
G1 X67.190 Y74.911 E16.1534
G1 X67.125 Y75.009 E16.1681
G1 X64.551 Y77.582 E16.6220
G1 X64.551 Y81.742 E17.1409
G1 X65.361 Y82.966 E17.3240
G1 X65.406 Y83.076 E17.3387
G1 X65.732 Y84.754 E17.5519
G1 X65.732 Y84.872 E17.5667
G1 X64.551 Y90.676 E18.3054
G1 X64.551 Y101.343 E19.6359
G1 X65.150 Y102.788 E19.8310
G1 X65.173 Y102.904 E19.8457
G1 X65.173 Y113.365 E21.1505
G1 X65.149 Y113.482 E21.1653
G1 X64.486 Y115.071 E21.3801
G1 X64.419 Y115.170 E21.3950
G1 X59.631 Y119.904 E22.2348
G1 X59.532 Y119.969 E22.2496
G1 X57.935 Y120.615 E22.4644
G1 X57.818 Y120.637 E22.4793
G1 X51.337 Y120.563 E23.2877
G1 X51.284 Y120.557 E23.2942
G1 X50.540 Y120.416 E23.3888
G1 X50.489 Y120.402 E23.3954
G1 X47.876 Y119.409 E23.7440
G1 X42.574 Y119.409 E24.4053
G1 X38.591 Y119.983 E24.9072
G1 X38.569 Y119.985 E24.9099
G1 X38.263 Y120.007 E24.9483
G1 X38.241 Y120.008 E24.9510
G1 X37.074 Y120.008 E25.0966
G1 X37.052 Y120.007 E25.0992
G1 X36.745 Y119.985 E25.1376
G1 X36.724 Y119.983 E25.1403
G1 X31.753 Y119.267 E25.7667
G1 X27.761 Y119.267 E26.2646
G1 X27.589 Y119.370 E26.2897
G1 X27.540 Y119.394 E26.2964
G1 X24.765 Y120.440 E26.6663
G1 X24.713 Y120.455 E26.6730
G1 X23.948 Y120.594 E26.7700
G1 X23.894 Y120.599 E26.7768
G1 X19.592 Y120.599 E27.3134
G1 X19.547 Y120.595 E27.3190
G1 X18.902 Y120.497 E27.4004
G1 X18.857 Y120.487 E27.4061
G1 X16.486 Y119.746 E27.7160
G1 X16.444 Y119.729 E27.7216
G1 X15.858 Y119.442 E27.8030
G1 X15.818 Y119.419 E27.8087
G1 X13.064 Y117.511 E28.2267
G1 X13.010 Y117.463 E28.2357
G1 X12.320 Y116.682 E28.3657
G1 X12.279 Y116.622 E28.3747
G1 X10.426 Y113.084 E28.8729
G1 X10.400 Y113.016 E28.8819
G1 X10.151 Y112.004 E29.0119
G1 X10.142 Y111.932 E29.0209
G1 X10.142 Y105.426 E29.8325
G1 X10.144 Y105.394 E29.8364
G1 X10.191 Y104.947 E29.8924
G1 X10.196 Y104.916 E29.8963
G1 X10.550 Y103.246 E30.1093
G1 X10.558 Y103.216 E30.1132
G1 X10.696 Y102.788 E30.1692
G1 X10.707 Y102.759 E30.1731
G1 X10.764 Y102.632 E30.1905
G1 X10.764 Y101.474 E30.3349
G1 X10.665 Y101.347 E30.3550
G1 X10.611 Y101.242 E30.3697
G1 X10.154 Y99.595 E30.5829
G1 X10.146 Y99.477 E30.5977
G1 X10.764 Y94.439 E31.2307
G1 X10.764 Y81.290 E32.8707
G1 X10.712 Y81.166 E32.8875
G1 X10.694 Y77.512 E33.3432
G1 X8.190 Y75.009 E33.7848
G1 X8.125 Y74.911 E33.7995
G1 X7.471 Y73.331 E34.0128
G1 X7.447 Y73.215 E34.0275
G1 X7.447 Y66.249 E34.8964
G1 X7.471 Y66.133 E34.9111
G1 X8.125 Y64.554 E35.1243
G1 X8.190 Y64.456 E35.1391
G1 X10.376 Y62.270 E35.5245
G1 X10.376 Y56.088 E36.2956
G1 X10.399 Y55.972 E36.3103
G1 X10.674 Y55.309 E36.3998
G1 X10.674 Y52.563 E36.7423
G1 X10.697 Y52.447 E36.7571
G1 X10.764 Y52.285 E36.7790
G1 X10.764 Y50.936 E36.9473
G1 X10.399 Y50.055 E37.0662
G1 X10.376 Y49.939 E37.0810
G1 X10.376 Y39.625 E38.3674
G1 X10.399 Y39.509 E38.3822
G1 X10.764 Y38.628 E38.5011
G1 X10.764 Y19.329 E40.9082
G1 X10.165 Y17.884 E41.1032
G1 X10.142 Y17.768 E41.1180
G1 X10.142 Y7.105 E42.4479
G1 X10.165 Y6.989 E42.4627
G1 X10.819 Y5.410 E42.6759
G1 X11.174 Y5.599 F3600
G92 E0
G1 X11.196 Y5.566 E0.0049 F300
G1 X15.864 Y0.898 E0.8283
G1 X15.896 Y0.877 E0.8332
G1 X17.403 Y0.253 E1.0366
G1 X17.442 Y0.245 E1.0415
G1 X24.492 Y0.245 E1.9208
G1 X25.547 Y-0.192 E2.0633
G1 X25.586 Y-0.200 E2.0682
G1 X33.035 Y-0.200 E2.9973
G1 X33.073 Y-0.192 E3.0022
G1 X34.129 Y0.245 E3.1447
G1 X41.186 Y0.245 E4.0249
G1 X42.242 Y-0.192 E4.1674
G1 X42.280 Y-0.200 E4.1723
G1 X49.729 Y-0.200 E5.1014
G1 X49.768 Y-0.192 E5.1063
G1 X50.823 Y0.245 E5.2488
G1 X57.873 Y0.245 E6.1281
G1 X57.912 Y0.253 E6.1330
G1 X59.419 Y0.877 E6.3364
G1 X59.451 Y0.898 E6.3413
G1 X64.119 Y5.566 E7.1647
G1 X64.141 Y5.599 E7.1696
G1 X64.765 Y7.106 E7.3730
G1 X64.773 Y7.144 E7.3779
G1 X64.773 Y17.729 E8.6980
G1 X64.765 Y17.767 E8.7029
G1 X64.151 Y19.249 E8.9030
G1 X64.151 Y38.726 E11.3323
G1 X64.524 Y39.625 E11.4537
G1 X64.531 Y39.664 E11.4586
G1 X64.531 Y49.900 E12.7352
G1 X64.524 Y49.938 E12.7401
G1 X64.151 Y50.838 E12.8616
G1 X64.151 Y55.190 E13.4044
G1 X64.524 Y56.089 E13.5258
G1 X64.531 Y56.128 E13.5307
G1 X64.531 Y62.428 E14.3166
G1 X66.814 Y64.711 E14.7191
G1 X66.836 Y64.743 E14.7241
G1 X67.460 Y66.250 E14.9274
G1 X67.468 Y66.289 E14.9324
G1 X67.468 Y73.176 E15.7914
G1 X67.460 Y73.215 E15.7963
G1 X66.836 Y74.721 E15.9997
G1 X66.814 Y74.754 E16.0046
G1 X64.151 Y77.417 E16.4743
G1 X64.151 Y81.863 E17.0288
G1 X65.006 Y83.154 E17.2220
G1 X65.021 Y83.191 E17.2269
G1 X65.332 Y84.791 E17.4303
G1 X65.332 Y84.831 E17.4352
G1 X64.151 Y90.635 E18.1740
G1 X64.151 Y101.423 E19.5195
G1 X64.765 Y102.905 E19.7196
G1 X64.773 Y102.944 E19.7245
G1 X64.773 Y113.326 E21.0194
G1 X64.765 Y113.365 E21.0243
G1 X64.132 Y114.881 E21.2293
G1 X64.110 Y114.914 E21.2342
G1 X59.378 Y119.591 E22.0641
G1 X59.345 Y119.613 E22.0690
G1 X57.822 Y120.229 E22.2739
G1 X57.783 Y120.236 E22.2789
G1 X51.359 Y120.163 E23.0801
G1 X51.342 Y120.161 E23.0823
G1 X50.631 Y120.027 E23.1725
G1 X50.614 Y120.022 E23.1747
G1 X47.949 Y119.009 E23.5303
G1 X42.545 Y119.009 E24.2043
G1 X38.541 Y119.586 E24.7089
G1 X38.534 Y119.586 E24.7098
G1 X38.241 Y119.607 E24.7464
G1 X38.234 Y119.608 E24.7473
G1 X37.081 Y119.608 E24.8911
G1 X37.074 Y119.607 E24.8920
G1 X36.781 Y119.586 E24.9286
G1 X36.774 Y119.586 E24.9295
G1 X31.781 Y118.867 E25.5586
G1 X27.650 Y118.867 E26.0739
G1 X27.398 Y119.018 E26.1106
G1 X27.382 Y119.026 E26.1128
G1 X24.641 Y120.059 E26.4782
G1 X24.624 Y120.064 E26.4804
G1 X23.894 Y120.197 E26.5729
G1 X23.876 Y120.199 E26.5751
G1 X19.607 Y120.199 E27.1076
G1 X19.592 Y120.198 E27.1095
G1 X18.977 Y120.104 E27.1871
G1 X18.962 Y120.100 E27.1890
G1 X16.620 Y119.368 E27.4951
G1 X16.606 Y119.363 E27.4970
G1 X16.047 Y119.090 E27.5746
G1 X16.034 Y119.082 E27.5765
G1 X13.311 Y117.196 E27.9895
G1 X13.293 Y117.180 E27.9925
G1 X12.635 Y116.435 E28.1165
G1 X12.622 Y116.415 E28.1195
G1 X10.791 Y112.920 E28.6117
G1 X10.783 Y112.897 E28.6147
G1 X10.545 Y111.932 E28.7386
G1 X10.542 Y111.908 E28.7416
G1 X10.542 Y105.436 E29.5488
G1 X10.543 Y105.426 E29.5502
G1 X10.587 Y104.999 E29.6036
G1 X10.589 Y104.989 E29.6049
G1 X10.939 Y103.339 E29.8152
G1 X10.941 Y103.329 E29.8165
G1 X11.073 Y102.922 E29.8700
G1 X11.077 Y102.912 E29.8713
G1 X11.164 Y102.717 E29.8979
G1 X11.164 Y101.337 E30.0701
G1 X11.004 Y101.132 E30.1024
G1 X10.986 Y101.097 E30.1073
G1 X10.550 Y99.526 E30.3107
G1 X10.548 Y99.486 E30.3156
G1 X11.164 Y94.464 E30.9468
G1 X11.164 Y81.180 E32.6036
G1 X11.142 Y81.158 E32.6074
G1 X11.111 Y81.085 E32.6173
G1 X11.093 Y77.346 E33.0837
G1 X8.501 Y74.754 E33.5409
G1 X8.479 Y74.721 E33.5458
G1 X7.855 Y73.215 E33.7492
G1 X7.848 Y73.176 E33.7541
G1 X7.848 Y66.289 E34.6132
G1 X7.855 Y66.250 E34.6181
G1 X8.479 Y64.743 E34.8215
G1 X8.501 Y64.711 E34.8264
G1 X10.776 Y62.436 E35.2276
G1 X10.776 Y56.128 E36.0144
G1 X10.783 Y56.089 E36.0193
G1 X11.073 Y55.389 E36.1138
G1 X11.073 Y52.603 E36.4613
G1 X11.081 Y52.564 E36.4662
G1 X11.164 Y52.365 E36.4932
G1 X11.164 Y50.856 E36.6813
G1 X10.783 Y49.938 E36.8053
G1 X10.776 Y49.900 E36.8102
G1 X10.776 Y39.664 E38.0868
G1 X10.783 Y39.625 E38.0917
G1 X11.164 Y38.707 E38.2157
G1 X11.164 Y19.249 E40.6426
G1 X10.550 Y17.767 E40.8426
G1 X10.542 Y17.729 E40.8476
G1 X10.542 Y7.144 E42.1677
G1 X10.550 Y7.106 E42.1726
G1 X11.174 Y5.599 E42.3760
; tool H0.750 W1.200
; raft
G1 X15.342 Y8.208 F3600
G92 E0
G1 X18.505 Y5.045 E1.6739 F75
G1 X26.205 Y5.045 E4.5549
G1 X26.650 Y4.600 E4.7903
G1 X31.971 Y4.600 E6.7812
G1 X32.416 Y5.045 E7.0167
G1 X42.899 Y5.045 E10.9394
G1 X43.344 Y4.600 E11.1749
G1 X48.665 Y4.600 E13.1658
G1 X49.110 Y5.045 E13.4012
G1 X56.810 Y5.045 E16.2822
G1 X59.973 Y8.208 E17.9561
G1 X59.973 Y16.665 E21.1203
G1 X59.351 Y17.286 E21.4492
G1 X59.351 Y40.348 E30.0783
G1 X59.731 Y40.728 E30.2795
G1 X59.731 Y48.836 E33.3132
G1 X59.351 Y49.216 E33.5144
G1 X59.351 Y56.811 E36.3565
G1 X59.731 Y57.192 E36.5577
G1 X59.731 Y64.416 E39.2610
G1 X62.667 Y67.352 E40.8147
G1 X62.667 Y72.112 E42.5957
G1 X59.351 Y75.428 E44.3505
G1 X59.351 Y83.308 E47.2987
G1 X60.416 Y84.917 E48.0207
G1 X59.351 Y90.152 E50.0198
G1 X59.351 Y103.386 E54.9716
G1 X59.973 Y104.007 E55.3005
G1 X59.973 Y112.254 E58.3861
G1 X56.766 Y115.424 E60.0735
G1 X51.882 Y115.369 E61.9010
G1 X50.088 Y114.687 E62.6192
G1 X49.537 Y114.209 E62.8919
G1 X42.201 Y114.209 E65.6369
G1 X38.044 Y114.808 E67.2084
G1 X37.271 Y114.808 E67.4979
G1 X32.125 Y114.067 E69.4430
G1 X25.963 Y114.067 E71.7487
G1 X25.239 Y114.704 E72.1098
G1 X23.396 Y115.399 E72.8466
G1 X20.010 Y115.399 E74.1137
G1 X18.436 Y114.907 E74.7305
G1 X16.575 Y113.617 E75.5780
G1 X15.342 Y111.264 E76.5721
G1 X15.342 Y105.713 E78.6489
G1 X15.577 Y104.606 E79.0725
G1 X15.964 Y103.734 E79.4292
G1 X15.964 Y99.684 E80.9450
G1 X15.441 Y99.015 E81.2624
G1 X15.964 Y94.757 E82.8676
G1 X15.964 Y78.769 E88.8499
G1 X15.900 Y78.769 E88.8738
G1 X15.883 Y75.348 E90.1540
G1 X12.648 Y72.112 E91.8662
G1 X12.648 Y67.352 E93.6472
G1 X15.576 Y64.424 E95.1968
G1 X15.576 Y57.192 E97.9030
G1 X15.874 Y56.894 E98.0605
G1 X15.874 Y53.667 E99.2681
G1 X15.964 Y53.576 E99.3159
G1 X15.964 Y49.224 E100.9446
G1 X15.576 Y48.836 E101.1499
G1 X15.576 Y40.728 E104.1836
G1 X15.964 Y40.340 E104.3889
G1 X15.964 Y17.286 E113.0151
G1 X15.342 Y16.665 E113.3440
G1 X15.342 Y8.208 E116.5082
G1 X16.677 Y8.571 F3600
G92 E0
G1 X58.638 Y8.571 E15.7011 F75
G1 X58.773 Y8.705 E15.7722
G1 X58.773 Y11.999 E17.0048
G1 X16.542 Y11.999 E32.8065
G1 X16.542 Y15.428 E34.0894
G1 X58.773 Y15.428 E49.8911
G1 X58.773 Y16.168 E50.1678
G1 X58.151 Y16.789 E50.4967
