; generated by Slic3r 1.3.1-dev on 2019-06-13 at 15:09:58

; external perimeters extrusion width = 1.10mm (8.39mm^3/s)
; perimeters extrusion width = 0.40mm (6.04mm^3/s)
; infill extrusion width = 1.25mm (28.45mm^3/s)
; solid infill extrusion width = 1.40mm (9.62mm^3/s)
; top infill extrusion width = 0.45mm (2.22mm^3/s)

M190 S80 ; set bed temperature and wait for it to be reached
M104 S230 ; set temperature
G28 ; home all axes
G1 X150 Y150 Z50 F10000
; Filament gcode

M109 S230 ; set temperature and wait for it to be reached
G21 ; set units to millimeters
G90 ; use absolute coordinates
M82 ; use absolute distances for extrusion
G92 E0
G92 E0
; layer 1
G1 Z0.300 F15000.000
G1 X43.277 Y46.961 F15000.000
G1 F3600
G1 X51.723 Y46.961 E1.05354
G1 X52.039 Y47.277 E1.10927
G1 X52.039 Y55.723 E2.16280
G1 X51.723 Y56.039 E2.21854
G1 X43.277 Y56.039 E3.27207
G1 X42.961 Y55.723 E3.32780
G1 X42.961 Y47.277 E4.38134
G1 X43.171 Y47.067 E4.41836
G92 E0
G1 X51.200 Y55.200 F15000.000
G1 F3600
G1 X43.800 Y55.200 E0.49436
G1 X43.800 Y47.800 E0.98872
G1 X51.200 Y47.800 E1.48308
G1 X51.200 Y55.050 E1.96742
G1 X50.234 Y54.941 F15000.000
G1 X50.664 Y54.664 F15000.000
G1 F3600
G1 X44.336 Y54.664 E2.39021
G1 X44.336 Y48.336 E2.81301
G1 X50.664 Y48.336 E3.23581
G1 X50.664 Y54.514 E3.64858
G1 X50.129 Y54.129 F15000.000
G1 F3600
G1 X44.871 Y54.129 E3.99981
G1 X44.871 Y48.871 E4.35104
G1 X50.129 Y48.871 E4.70227
G1 X50.129 Y53.979 E5.04348
G1 X49.536 Y53.650 F15000.000
G1 F3600
G1 X49.650 Y53.536 E5.05428
G1 X49.650 Y52.775 E5.10538
G1 X48.775 Y53.650 E5.18843
G1 X48.014 Y53.650 E5.23952
G1 X49.650 Y52.014 E5.39483
G1 X49.650 Y51.253 E5.44592
G1 X47.253 Y53.650 E5.67349
G1 X46.492 Y53.650 E5.72458
G1 X49.650 Y50.492 E6.02440
G1 X49.650 Y49.731 E6.07549
G1 X45.731 Y53.650 E6.44756
G1 X45.350 Y53.650 E6.47311
G1 X45.350 Y53.269 E6.49865
G1 X49.269 Y49.350 E6.87073
G1 X48.508 Y49.350 E6.92182
G1 X45.350 Y52.508 E7.22164
G1 X45.350 Y51.747 E7.27273
G1 X47.747 Y49.350 E7.50029
G1 X46.986 Y49.350 E7.55139
G1 X45.350 Y50.986 E7.70670
G1 X45.350 Y50.225 E7.75779
G1 X46.225 Y49.350 E7.84084
G1 X45.464 Y49.350 E7.89193
G1 X45.350 Y49.464 E7.90272
M104 S205 ; set temperature
M140 S55 ; set bed temperature
G1 Z0.600 F15000.000
G92 E0
G1 X49.929 Y53.929 F15000.000
G1 F1080
G1 X45.071 Y53.929 E0.20334
G1 X45.071 Y49.071 E0.40667
G1 X49.929 Y49.071 E0.61001
G1 X49.929 Y53.779 E0.80707
G1 X50.264 Y54.264 F15000.000
G1 F1080
G1 X44.736 Y54.264 E1.03851
G1 X44.736 Y48.736 E1.26994
G1 X50.264 Y48.736 E1.50138
G1 X50.264 Y54.114 E1.72653
G1 X50.950 Y54.950 F15000.000
G1 F1080
G1 X44.050 Y54.950 E2.61779
G1 X44.050 Y48.050 E3.50906
G1 X50.950 Y48.050 E4.40032
G1 X50.950 Y54.800 E5.27220
G1 X49.984 Y54.691 F15000.000
G92 E0
G1 X49.182 Y49.996 F15000.000
G1 F1440
G1 X49.004 Y49.818 E0.04700
G1 X46.880 Y49.818 E0.44492
G1 X49.182 Y52.120 E1.05467
G1 X49.182 Y53.182 E1.25363
G1 X48.120 Y53.182 E1.45260
G1 X45.818 Y50.880 E2.06235
G1 X45.818 Y53.004 E2.46027
G1 X45.995 Y53.182 E2.50723
G1 Z0.900 F15000.000
G92 E0
G1 X49.929 Y53.929 F15000.000
G1 F1080
G1 X45.071 Y53.929 E0.20334
G1 X45.071 Y49.071 E0.40667
G1 X49.929 Y49.071 E0.61001
G1 X49.929 Y53.779 E0.80707
G1 X50.264 Y54.264 F15000.000
G1 F1080
G1 X44.736 Y54.264 E1.03851
G1 X44.736 Y48.736 E1.26994
G1 X50.264 Y48.736 E1.50138
G1 X50.264 Y54.114 E1.72653
G1 X50.950 Y54.950 F15000.000
G1 F1080
G1 X44.050 Y54.950 E2.61779
G1 X44.050 Y48.050 E3.50906
G1 X50.950 Y48.050 E4.40032
G1 X50.950 Y54.800 E5.27220
G1 X49.984 Y54.691 F15000.000
G92 E0
G1 X49.004 Y53.182 F15000.000
G1 F1440
G1 X49.182 Y53.004 E0.04700
G1 X49.182 Y50.880 E0.44492
G1 X46.880 Y53.182 E1.05467
G1 X45.818 Y53.182 E1.25363
G1 X45.818 Y52.120 E1.45260
G1 X48.120 Y49.818 E2.06234
G1 X45.996 Y49.818 E2.46027
G1 X45.818 Y49.995 E2.50723
M106 S255
G1 Z1.200 F15000.000
G92 E0
G1 X49.929 Y53.929 F15000.000
G1 F1080
G1 X45.071 Y53.929 E0.20334
G1 X45.071 Y49.071 E0.40667
G1 X49.929 Y49.071 E0.61001
G1 X49.929 Y53.779 E0.80707
G1 X50.264 Y54.264 F15000.000
G1 F1080
G1 X44.736 Y54.264 E1.03851
G1 X44.736 Y48.736 E1.26994
G1 X50.264 Y48.736 E1.50138
G1 X50.264 Y54.114 E1.72653
G1 X50.950 Y54.950 F15000.000
G1 F1080
G1 X44.050 Y54.950 E2.61779
G1 X44.050 Y48.050 E3.50906
G1 X50.950 Y48.050 E4.40032
G1 X50.950 Y54.800 E5.27220
G1 X49.984 Y54.691 F15000.000
G92 E0
G1 X49.182 Y49.996 F15000.000
G1 F1440
G1 X49.004 Y49.818 E0.04700
G1 X46.880 Y49.818 E0.44492
G1 X49.182 Y52.120 E1.05466
G1 X49.182 Y53.182 E1.25362
G1 X48.120 Y53.182 E1.45258
G1 X45.818 Y50.880 E2.06232
G1 X45.818 Y53.004 E2.46024
G1 X45.995 Y53.182 E2.50720
G1 Z1.500 F15000.000
G92 E0
G1 X49.929 Y53.929 F15000.000
G1 F1080
G1 X45.071 Y53.929 E0.20334
G1 X45.071 Y49.071 E0.40667
G1 X49.929 Y49.071 E0.61001
G1 X49.929 Y53.779 E0.80707
G1 X50.264 Y54.264 F15000.000
G1 F1080
G1 X44.736 Y54.264 E1.03851
G1 X44.736 Y48.736 E1.26994
G1 X50.264 Y48.736 E1.50138
G1 X50.264 Y54.114 E1.72653
G1 X50.950 Y54.950 F15000.000
G1 F1080
G1 X44.050 Y54.950 E2.61779
G1 X44.050 Y48.050 E3.50906
G1 X50.950 Y48.050 E4.40032
G1 X50.950 Y54.800 E5.27220
G1 X49.984 Y54.691 F15000.000
G92 E0
G1 X49.004 Y53.182 F15000.000
G1 F1440
G1 X49.182 Y53.004 E0.04700
G1 X49.182 Y50.880 E0.44492
G1 X46.880 Y53.182 E1.05466
G1 X45.818 Y53.182 E1.25362
G1 X45.818 Y52.120 E1.45258
G1 X48.120 Y49.818 E2.06232
G1 X45.996 Y49.818 E2.46024
G1 X45.818 Y49.995 E2.50720
G1 Z1.800 F15000.000
G92 E0
G1 X49.929 Y53.929 F15000.000
G1 F1080
G1 X45.071 Y53.929 E0.20334
G1 X45.071 Y49.071 E0.40667
G1 X49.929 Y49.071 E0.61001
G1 X49.929 Y53.779 E0.80707
G1 X50.264 Y54.264 F15000.000
G1 F1080
G1 X44.736 Y54.264 E1.03851
G1 X44.736 Y48.736 E1.26994
G1 X50.264 Y48.736 E1.50138
G1 X50.264 Y54.114 E1.72653
G1 X50.950 Y54.950 F15000.000
G1 F1080
G1 X44.050 Y54.950 E2.61779
G1 X44.050 Y48.050 E3.50906
G1 X50.950 Y48.050 E4.40032
G1 X50.950 Y54.800 E5.27220
G1 X49.984 Y54.691 F15000.000
G92 E0
G1 X49.182 Y49.996 F15000.000
G1 F1440
G1 X49.004 Y49.818 E0.04700
G1 X46.880 Y49.818 E0.44492
G1 X49.182 Y52.120 E1.05466
G1 X49.182 Y53.182 E1.25362
G1 X48.120 Y53.182 E1.45258
G1 X45.818 Y50.880 E2.06232
G1 X45.818 Y53.004 E2.46024
G1 X45.995 Y53.182 E2.50720
G1 Z2.100 F15000.000
G92 E0
G1 X49.929 Y53.929 F15000.000
G1 F1080
G1 X45.071 Y53.929 E0.20334
G1 X45.071 Y49.071 E0.40667
G1 X49.929 Y49.071 E0.61001
G1 X49.929 Y53.779 E0.80707
G1 X50.264 Y54.264 F15000.000
G1 F1080
G1 X44.736 Y54.264 E1.03851
G1 X44.736 Y48.736 E1.26994
G1 X50.264 Y48.736 E1.50138
G1 X50.264 Y54.114 E1.72653
G1 X50.950 Y54.950 F15000.000
G1 F1080
G1 X44.050 Y54.950 E2.61779
G1 X44.050 Y48.050 E3.50906
G1 X50.950 Y48.050 E4.40032
G1 X50.950 Y54.800 E5.27220
G1 X49.984 Y54.691 F15000.000
G92 E0
G1 X49.004 Y53.182 F15000.000
G1 F1440
G1 X49.182 Y53.004 E0.04700
G1 X49.182 Y50.880 E0.44492
G1 X46.880 Y53.182 E1.05466
G1 X45.818 Y53.182 E1.25362
G1 X45.818 Y52.120 E1.45258
G1 X48.120 Y49.818 E2.06232
G1 X45.996 Y49.818 E2.46024
G1 X45.818 Y49.995 E2.50720
G1 Z2.400 F15000.000
G92 E0
G1 X49.929 Y53.929 F15000.000
G1 F1080
G1 X45.071 Y53.929 E0.20334
G1 X45.071 Y49.071 E0.40667
G1 X49.929 Y49.071 E0.61001
G1 X49.929 Y53.779 E0.80707
G1 X50.264 Y54.264 F15000.000
G1 F1080
G1 X44.736 Y54.264 E1.03851
G1 X44.736 Y48.736 E1.26994
G1 X50.264 Y48.736 E1.50138
G1 X50.264 Y54.114 E1.72653
G1 X50.950 Y54.950 F15000.000
G1 F1080
G1 X44.050 Y54.950 E2.61779
G1 X44.050 Y48.050 E3.50906
G1 X50.950 Y48.050 E4.40032
G1 X50.950 Y54.800 E5.27220
G1 X49.984 Y54.691 F15000.000
G92 E0
G1 X49.182 Y49.996 F15000.000
G1 F1440
G1 X49.004 Y49.818 E0.04700
G1 X46.880 Y49.818 E0.44492
G1 X49.182 Y52.120 E1.05466
G1 X49.182 Y53.182 E1.25362
G1 X48.120 Y53.182 E1.45258
G1 X45.818 Y50.880 E2.06232
G1 X45.818 Y53.004 E2.46024
G1 X45.995 Y53.182 E2.50720
G1 Z2.700 F15000.000
G92 E0
G1 X49.929 Y53.929 F15000.000
G1 F1080
G1 X45.071 Y53.929 E0.20334
G1 X45.071 Y49.071 E0.40667
G1 X49.929 Y49.071 E0.61001
G1 X49.929 Y53.779 E0.80707
G1 X50.264 Y54.264 F15000.000
G1 F1080
G1 X44.736 Y54.264 E1.03851
G1 X44.736 Y48.736 E1.26994
G1 X50.264 Y48.736 E1.50138
G1 X50.264 Y54.114 E1.72653
G1 X50.950 Y54.950 F15000.000
G1 F1080
G1 X44.050 Y54.950 E2.61779
G1 X44.050 Y48.050 E3.50906
G1 X50.950 Y48.050 E4.40032
G1 X50.950 Y54.800 E5.27220
G1 X49.984 Y54.691 F15000.000
G92 E0
G1 X49.004 Y53.182 F15000.000
G1 F1440
G1 X49.182 Y53.004 E0.04700
G1 X49.182 Y50.880 E0.44492
G1 X46.880 Y53.182 E1.05466
G1 X45.818 Y53.182 E1.25362
G1 X45.818 Y52.120 E1.45258
G1 X48.120 Y49.818 E2.06232
G1 X45.996 Y49.818 E2.46024
G1 X45.818 Y49.995 E2.50720
G1 Z3.000 F15000.000
G92 E0
G1 X49.929 Y53.929 F15000.000
G1 F1080
G1 X45.071 Y53.929 E0.20334
G1 X45.071 Y49.071 E0.40667
G1 X49.929 Y49.071 E0.61001
G1 X49.929 Y53.779 E0.80707
G1 X50.264 Y54.264 F15000.000
G1 F1080
G1 X44.736 Y54.264 E1.03851
G1 X44.736 Y48.736 E1.26994
G1 X50.264 Y48.736 E1.50138
G1 X50.264 Y54.114 E1.72653
G1 X50.950 Y54.950 F15000.000
G1 F1080
G1 X44.050 Y54.950 E2.61779
G1 X44.050 Y48.050 E3.50906
G1 X50.950 Y48.050 E4.40032
G1 X50.950 Y54.800 E5.27220
G1 X49.984 Y54.691 F15000.000
G92 E0
G1 X49.182 Y49.996 F15000.000
G1 F1440
G1 X49.004 Y49.818 E0.04700
G1 X46.880 Y49.818 E0.44492
G1 X49.182 Y52.120 E1.05466
G1 X49.182 Y53.182 E1.25362
G1 X48.120 Y53.182 E1.45258
G1 X45.818 Y50.880 E2.06232
G1 X45.818 Y53.004 E2.46024
G1 X45.995 Y53.182 E2.50720
G1 Z3.300 F15000.000
G92 E0
G1 X49.929 Y53.929 F15000.000
G1 F1080
G1 X45.071 Y53.929 E0.20334
G1 X45.071 Y49.071 E0.40667
G1 X49.929 Y49.071 E0.61001
G1 X49.929 Y53.779 E0.80707
G1 X50.264 Y54.264 F15000.000
G1 F1080
G1 X44.736 Y54.264 E1.03851
G1 X44.736 Y48.736 E1.26994
G1 X50.264 Y48.736 E1.50138
G1 X50.264 Y54.114 E1.72653
G1 X50.950 Y54.950 F15000.000
G1 F1080
G1 X44.050 Y54.950 E2.61779
G1 X44.050 Y48.050 E3.50906
G1 X50.950 Y48.050 E4.40032
G1 X50.950 Y54.800 E5.27220
G1 X49.984 Y54.691 F15000.000
G92 E0
G1 X49.004 Y53.182 F15000.000
G1 F1440
G1 X49.182 Y53.004 E0.04700
G1 X49.182 Y50.880 E0.44492
G1 X46.880 Y53.182 E1.05466
G1 X45.818 Y53.182 E1.25362
G1 X45.818 Y52.120 E1.45258
G1 X48.120 Y49.818 E2.06232
G1 X45.996 Y49.818 E2.46024
G1 X45.818 Y49.995 E2.50720
G1 Z3.600 F15000.000
G92 E0
G1 X49.929 Y53.929 F15000.000
G1 F1080
G1 X45.071 Y53.929 E0.20334
G1 X45.071 Y49.071 E0.40667
G1 X49.929 Y49.071 E0.61001
G1 X49.929 Y53.779 E0.80707
G1 X50.264 Y54.264 F15000.000
G1 F1080
G1 X44.736 Y54.264 E1.03851
G1 X44.736 Y48.736 E1.26994
G1 X50.264 Y48.736 E1.50138
G1 X50.264 Y54.114 E1.72653
G1 X50.950 Y54.950 F15000.000
G1 F1080
G1 X44.050 Y54.950 E2.61779
G1 X44.050 Y48.050 E3.50906
G1 X50.950 Y48.050 E4.40032
G1 X50.950 Y54.800 E5.27220
G1 X49.984 Y54.691 F15000.000
G92 E0
G1 X49.182 Y49.996 F15000.000
G1 F1440
G1 X49.004 Y49.818 E0.04700
G1 X46.880 Y49.818 E0.44492
G1 X49.182 Y52.120 E1.05466
G1 X49.182 Y53.182 E1.25362
G1 X48.120 Y53.182 E1.45258
G1 X45.818 Y50.880 E2.06232
G1 X45.818 Y53.004 E2.46024
G1 X45.995 Y53.182 E2.50720
G1 Z3.900 F15000.000
G92 E0
G1 X49.929 Y53.929 F15000.000
G1 F1080
G1 X45.071 Y53.929 E0.20334
G1 X45.071 Y49.071 E0.40667
G1 X49.929 Y49.071 E0.61001
G1 X49.929 Y53.779 E0.80707
G1 X50.264 Y54.264 F15000.000
G1 F1080
G1 X44.736 Y54.264 E1.03851
G1 X44.736 Y48.736 E1.26994
G1 X50.264 Y48.736 E1.50138
G1 X50.264 Y54.114 E1.72653
G1 X50.950 Y54.950 F15000.000
G1 F1080
G1 X44.050 Y54.950 E2.61779
G1 X44.050 Y48.050 E3.50906
G1 X50.950 Y48.050 E4.40032
G1 X50.950 Y54.800 E5.27220
G1 X49.984 Y54.691 F15000.000
G92 E0
G1 X49.004 Y53.182 F15000.000
G1 F1440
G1 X49.182 Y53.004 E0.04700
G1 X49.182 Y50.880 E0.44492
G1 X46.880 Y53.182 E1.05466
G1 X45.818 Y53.182 E1.25362
G1 X45.818 Y52.120 E1.45258
G1 X48.120 Y49.818 E2.06232
G1 X45.996 Y49.818 E2.46024
G1 X45.818 Y49.995 E2.50720
G1 Z4.200 F15000.000
G92 E0
G1 X49.929 Y53.929 F15000.000
G1 F1080
G1 X45.071 Y53.929 E0.20334
G1 X45.071 Y49.071 E0.40667
G1 X49.929 Y49.071 E0.61001
G1 X49.929 Y53.779 E0.80707
G1 X50.264 Y54.264 F15000.000
G1 F1080
G1 X44.736 Y54.264 E1.03851
G1 X44.736 Y48.736 E1.26994
G1 X50.264 Y48.736 E1.50138
G1 X50.264 Y54.114 E1.72653
G1 X50.950 Y54.950 F15000.000
G1 F1080
G1 X44.050 Y54.950 E2.61779
G1 X44.050 Y48.050 E3.50906
G1 X50.950 Y48.050 E4.40032
G1 X50.950 Y54.800 E5.27220
G1 X49.984 Y54.691 F15000.000
G92 E0
G1 X49.182 Y49.996 F15000.000
G1 F1440
G1 X49.004 Y49.818 E0.04700
G1 X46.880 Y49.818 E0.44492
G1 X49.182 Y52.120 E1.05466
G1 X49.182 Y53.182 E1.25362
G1 X48.120 Y53.182 E1.45258
G1 X45.818 Y50.880 E2.06232
G1 X45.818 Y53.004 E2.46024
G1 X45.995 Y53.182 E2.50720
G1 Z4.500 F15000.000
G92 E0
G1 X49.929 Y53.929 F15000.000
G1 F1080
G1 X45.071 Y53.929 E0.20334
G1 X45.071 Y49.071 E0.40667
G1 X49.929 Y49.071 E0.61001
G1 X49.929 Y53.779 E0.80707
G1 X50.264 Y54.264 F15000.000
G1 F1080
G1 X44.736 Y54.264 E1.03851
G1 X44.736 Y48.736 E1.26994
G1 X50.264 Y48.736 E1.50138
G1 X50.264 Y54.114 E1.72653
G1 X50.950 Y54.950 F15000.000
G1 F1080
G1 X44.050 Y54.950 E2.61779
G1 X44.050 Y48.050 E3.50906
G1 X50.950 Y48.050 E4.40032
G1 X50.950 Y54.800 E5.27220
G1 X49.984 Y54.691 F15000.000
G92 E0
G1 X49.004 Y53.182 F15000.000
G1 F1440
G1 X49.182 Y53.004 E0.04700
G1 X49.182 Y50.880 E0.44492
G1 X46.880 Y53.182 E1.05466
G1 X45.818 Y53.182 E1.25362
G1 X45.818 Y52.120 E1.45258
G1 X48.120 Y49.818 E2.06232
G1 X45.996 Y49.818 E2.46024
G1 X45.818 Y49.995 E2.50720
G1 Z4.800 F15000.000
G92 E0
G1 X49.929 Y53.929 F15000.000
G1 F1080
G1 X45.071 Y53.929 E0.20334
G1 X45.071 Y49.071 E0.40667
G1 X49.929 Y49.071 E0.61001
G1 X49.929 Y53.779 E0.80707
G1 X50.264 Y54.264 F15000.000
G1 F1080
G1 X44.736 Y54.264 E1.03851
G1 X44.736 Y48.736 E1.26994
G1 X50.264 Y48.736 E1.50138
G1 X50.264 Y54.114 E1.72653
G1 X50.950 Y54.950 F15000.000
G1 F1080
G1 X44.050 Y54.950 E2.61779
G1 X44.050 Y48.050 E3.50906
G1 X50.950 Y48.050 E4.40032
G1 X50.950 Y54.800 E5.27220
G1 X49.984 Y54.691 F15000.000
G92 E0
G1 X49.182 Y49.996 F15000.000
G1 F1440
G1 X49.004 Y49.818 E0.04700
G1 X46.880 Y49.818 E0.44492
G1 X49.182 Y52.120 E1.05466
G1 X49.182 Y53.182 E1.25362
G1 X48.120 Y53.182 E1.45258
G1 X45.818 Y50.880 E2.06232
G1 X45.818 Y53.004 E2.46024
G1 X45.995 Y53.182 E2.50720
G1 Z5.100 F15000.000
G92 E0
G1 X49.929 Y53.929 F15000.000
G1 F1080
G1 X45.071 Y53.929 E0.20334
G1 X45.071 Y49.071 E0.40667
G1 X49.929 Y49.071 E0.61001
G1 X49.929 Y53.779 E0.80707
G1 X50.264 Y54.264 F15000.000
G1 F1080
G1 X44.736 Y54.264 E1.03851
G1 X44.736 Y48.736 E1.26994
G1 X50.264 Y48.736 E1.50138
G1 X50.264 Y54.114 E1.72653
G1 X50.950 Y54.950 F15000.000
G1 F1080
G1 X44.050 Y54.950 E2.61779
G1 X44.050 Y48.050 E3.50906
G1 X50.950 Y48.050 E4.40032
G1 X50.950 Y54.800 E5.27220
G1 X49.984 Y54.691 F15000.000
G92 E0
G1 X49.004 Y53.182 F15000.000
G1 F1440
G1 X49.182 Y53.004 E0.04700
G1 X49.182 Y50.880 E0.44492
G1 X46.880 Y53.182 E1.05466
G1 X45.818 Y53.182 E1.25362
G1 X45.818 Y52.120 E1.45258
G1 X48.120 Y49.818 E2.06232
G1 X45.996 Y49.818 E2.46024
G1 X45.818 Y49.995 E2.50720
G1 Z5.400 F15000.000
G92 E0
G1 X49.929 Y53.929 F15000.000
G1 F1080
G1 X45.071 Y53.929 E0.20334
G1 X45.071 Y49.071 E0.40667
G1 X49.929 Y49.071 E0.61001
G1 X49.929 Y53.779 E0.80707
G1 X50.264 Y54.264 F15000.000
G1 F1080
G1 X44.736 Y54.264 E1.03851
G1 X44.736 Y48.736 E1.26994
G1 X50.264 Y48.736 E1.50138
G1 X50.264 Y54.114 E1.72653
G1 X50.950 Y54.950 F15000.000
G1 F1080
G1 X44.050 Y54.950 E2.61779
G1 X44.050 Y48.050 E3.50906
G1 X50.950 Y48.050 E4.40032
G1 X50.950 Y54.800 E5.27220
G1 X49.984 Y54.691 F15000.000
G92 E0
G1 X49.182 Y49.996 F15000.000
G1 F1440
G1 X49.004 Y49.818 E0.04700
G1 X46.880 Y49.818 E0.44492
G1 X49.182 Y52.120 E1.05466
G1 X49.182 Y53.182 E1.25362
G1 X48.120 Y53.182 E1.45258
G1 X45.818 Y50.880 E2.06232
G1 X45.818 Y53.004 E2.46024
G1 X45.995 Y53.182 E2.50720
G1 Z5.700 F15000.000
G92 E0
G1 X49.929 Y53.929 F15000.000
G1 F1080
G1 X45.071 Y53.929 E0.20334
G1 X45.071 Y49.071 E0.40667
G1 X49.929 Y49.071 E0.61001
G1 X49.929 Y53.779 E0.80707
G1 X50.264 Y54.264 F15000.000
G1 F1080
G1 X44.736 Y54.264 E1.03851
G1 X44.736 Y48.736 E1.26994
G1 X50.264 Y48.736 E1.50138
G1 X50.264 Y54.114 E1.72653
G1 X50.950 Y54.950 F15000.000
G1 F1080
G1 X44.050 Y54.950 E2.61779
G1 X44.050 Y48.050 E3.50906
G1 X50.950 Y48.050 E4.40032
G1 X50.950 Y54.800 E5.27220
