; generated by Slic3r 1.3.1-dev on 2019-06-13 at 14:25:46

; external perimeters extrusion width = 1.10mm (10.95mm^3/s)
; perimeters extrusion width = 0.40mm (7.54mm^3/s)
; infill extrusion width = 1.25mm (37.25mm^3/s)
; solid infill extrusion width = 1.40mm (12.62mm^3/s)
; top infill extrusion width = 0.60mm (3.95mm^3/s)

M190 S80 ; set bed temperature and wait for it to be reached
M104 S230 ; set temperature
G28 ; home all axes
G1 X150 Y150 Z50 F10000
; Filament gcode

M109 S230 ; set temperature and wait for it to be reached
G21 ; set units to millimeters
G90 ; use absolute coordinates
M82 ; use absolute distances for extrusion
G92 E0
G92 E0
G1 Z0.300 F15000.000
G1 X43.277 Y46.961 F15000.000
G1 F3600
G1 X51.723 Y46.961 E1.05354
G1 X52.039 Y47.277 E1.10927
G1 X52.039 Y55.723 E2.16280
G1 X51.723 Y56.039 E2.21854
G1 X43.277 Y56.039 E3.27207
G1 X42.961 Y55.723 E3.32780
G1 X42.961 Y47.277 E4.38134
G1 X43.171 Y47.067 E4.41836
G92 E0
G1 X51.200 Y55.200 F15000.000
G1 F3600
G1 X43.800 Y55.200 E0.49436
G1 X43.800 Y47.800 E0.98872
G1 X51.200 Y47.800 E1.48308
G1 X51.200 Y55.050 E1.96742
G1 X50.234 Y54.941 F15000.000
G1 X50.664 Y54.664 F15000.000
G1 F3600
G1 X44.336 Y54.664 E2.39021
G1 X44.336 Y48.336 E2.81301
G1 X50.664 Y48.336 E3.23581
G1 X50.664 Y54.514 E3.64858
G1 X50.129 Y54.129 F15000.000
G1 F3600
G1 X44.871 Y54.129 E3.99981
G1 X44.871 Y48.871 E4.35104
G1 X50.129 Y48.871 E4.70227
G1 X50.129 Y53.979 E5.04348
G1 X49.536 Y53.650 F15000.000
G1 F3600
G1 X49.650 Y53.536 E5.05428
G1 X49.650 Y52.775 E5.10538
G1 X48.775 Y53.650 E5.18843
G1 X48.014 Y53.650 E5.23952
G1 X49.650 Y52.014 E5.39483
G1 X49.650 Y51.253 E5.44592
G1 X47.253 Y53.650 E5.67349
G1 X46.492 Y53.650 E5.72458
G1 X49.650 Y50.492 E6.02440
G1 X49.650 Y49.731 E6.07549
G1 X45.731 Y53.650 E6.44756
G1 X45.350 Y53.650 E6.47311
G1 X45.350 Y53.269 E6.49865
G1 X49.269 Y49.350 E6.87073
G1 X48.508 Y49.350 E6.92182
G1 X45.350 Y52.508 E7.22164
G1 X45.350 Y51.747 E7.27273
G1 X47.747 Y49.350 E7.50029
G1 X46.986 Y49.350 E7.55139
G1 X45.350 Y50.986 E7.70670
G1 X45.350 Y50.225 E7.75779
G1 X46.225 Y49.350 E7.84084
G1 X45.464 Y49.350 E7.89193
G1 X45.350 Y49.464 E7.90272
M104 S205 ; set temperature
M140 S55 ; set bed temperature
G1 Z0.700 F15000.000
G92 E0
G1 X49.972 Y53.972 F15000.000
G1 F1080
G1 X45.028 Y53.972 E0.25827
G1 X45.028 Y49.028 E0.51653
G1 X49.972 Y49.028 E0.77480
G1 X49.972 Y53.822 E1.02523
G1 X50.286 Y54.286 F15000.000
G1 F1080
G1 X44.714 Y54.286 E1.31632
G1 X44.714 Y48.714 E1.60741
G1 X50.286 Y48.714 E1.89850
G1 X50.286 Y54.136 E2.18176
G1 X50.950 Y54.950 F15000.000
G1 F1080
G1 X44.050 Y54.950 E3.34548
G1 X44.050 Y48.050 E4.50920
G1 X50.950 Y48.050 E5.67292
G1 X50.950 Y54.800 E6.81135
G1 X49.984 Y54.691 F15000.000
G92 E0
G1 X49.244 Y49.929 F15000.000
G1 F1440
G1 X49.071 Y49.756 E0.06353
G1 X46.861 Y49.756 E0.63784
G1 X49.244 Y52.139 E1.51357
G1 X49.244 Y53.244 E1.80072
G1 X48.139 Y53.244 E2.08788
G1 X45.756 Y50.861 E2.96361
G1 X45.756 Y53.071 E3.53792
G1 X45.929 Y53.244 E3.60140
G1 Z1.100 F15000.000
G92 E0
G1 X49.972 Y53.972 F15000.000
G1 F1080
G1 X45.028 Y53.972 E0.25827
G1 X45.028 Y49.028 E0.51653
G1 X49.972 Y49.028 E0.77480
G1 X49.972 Y53.822 E1.02523
G1 X50.286 Y54.286 F15000.000
G1 F1080
G1 X44.714 Y54.286 E1.31632
G1 X44.714 Y48.714 E1.60741
G1 X50.286 Y48.714 E1.89850
G1 X50.286 Y54.136 E2.18176
G1 X50.950 Y54.950 F15000.000
G1 F1080
G1 X44.050 Y54.950 E3.34548
G1 X44.050 Y48.050 E4.50920
G1 X50.950 Y48.050 E5.67292
G1 X50.950 Y54.800 E6.81135
G1 X49.984 Y54.691 F15000.000
G92 E0
G1 X49.071 Y53.244 F15000.000
G1 F1440
G1 X49.244 Y53.071 E0.06353
G1 X49.244 Y50.861 E0.63784
G1 X46.861 Y53.244 E1.51357
G1 X45.756 Y53.244 E1.80072
G1 X45.756 Y52.139 E2.08788
G1 X48.139 Y49.756 E2.96361
G1 X45.929 Y49.756 E3.53792
G1 X45.756 Y49.929 E3.60140
M106 S255
G1 Z1.500 F15000.000
G92 E0
G1 X49.972 Y53.972 F15000.000
G1 F1080
G1 X45.028 Y53.972 E0.25827
G1 X45.028 Y49.028 E0.51653
G1 X49.972 Y49.028 E0.77480
G1 X49.972 Y53.822 E1.02523
G1 X50.286 Y54.286 F15000.000
G1 F1080
G1 X44.714 Y54.286 E1.31632
G1 X44.714 Y48.714 E1.60741
G1 X50.286 Y48.714 E1.89850
G1 X50.286 Y54.136 E2.18176
G1 X50.950 Y54.950 F15000.000
G1 F1080
G1 X44.050 Y54.950 E3.34548
G1 X44.050 Y48.050 E4.50920
G1 X50.950 Y48.050 E5.67292
G1 X50.950 Y54.800 E6.81135
G1 X49.984 Y54.691 F15000.000
G92 E0
G1 X49.244 Y49.929 F15000.000
G1 F1440
G1 X49.071 Y49.756 E0.06353
G1 X46.861 Y49.756 E0.63783
G1 X49.244 Y52.139 E1.51355
G1 X49.244 Y53.244 E1.80070
G1 X48.139 Y53.244 E2.08786
G1 X45.756 Y50.861 E2.96358
G1 X45.756 Y53.071 E3.53788
G1 X45.929 Y53.244 E3.60136
G1 Z1.900 F15000.000
G92 E0
G1 X49.972 Y53.972 F15000.000
G1 F1080
G1 X45.028 Y53.972 E0.25827
G1 X45.028 Y49.028 E0.51653
G1 X49.972 Y49.028 E0.77480
G1 X49.972 Y53.822 E1.02523
G1 X50.286 Y54.286 F15000.000
G1 F1080
G1 X44.714 Y54.286 E1.31632
G1 X44.714 Y48.714 E1.60741
G1 X50.286 Y48.714 E1.89850
G1 X50.286 Y54.136 E2.18176
G1 X50.950 Y54.950 F15000.000
G1 F1080
G1 X44.050 Y54.950 E3.34548
G1 X44.050 Y48.050 E4.50920
G1 X50.950 Y48.050 E5.67292
G1 X50.950 Y54.800 E6.81135
G1 X49.984 Y54.691 F15000.000
G92 E0
G1 X49.071 Y53.244 F15000.000
G1 F1440
G1 X49.244 Y53.071 E0.06353
G1 X49.244 Y50.861 E0.63783
G1 X46.861 Y53.244 E1.51355
G1 X45.756 Y53.244 E1.80070
G1 X45.756 Y52.139 E2.08786
G1 X48.139 Y49.756 E2.96358
G1 X45.929 Y49.756 E3.53788
G1 X45.756 Y49.929 E3.60136
G1 Z2.300 F15000.000
G92 E0
G1 X49.972 Y53.972 F15000.000
G1 F1080
G1 X45.028 Y53.972 E0.25827
G1 X45.028 Y49.028 E0.51653
G1 X49.972 Y49.028 E0.77480
G1 X49.972 Y53.822 E1.02523
G1 X50.286 Y54.286 F15000.000
G1 F1080
G1 X44.714 Y54.286 E1.31632
G1 X44.714 Y48.714 E1.60741
G1 X50.286 Y48.714 E1.89850
G1 X50.286 Y54.136 E2.18176
G1 X50.950 Y54.950 F15000.000
G1 F1080
G1 X44.050 Y54.950 E3.34548
G1 X44.050 Y48.050 E4.50920
G1 X50.950 Y48.050 E5.67292
G1 X50.950 Y54.800 E6.81135
G1 X49.984 Y54.691 F15000.000
G92 E0
G1 X49.244 Y49.929 F15000.000
G1 F1440
G1 X49.071 Y49.756 E0.06353
G1 X46.861 Y49.756 E0.63783
G1 X49.244 Y52.139 E1.51355
G1 X49.244 Y53.244 E1.80070
G1 X48.139 Y53.244 E2.08786
G1 X45.756 Y50.861 E2.96358
G1 X45.756 Y53.071 E3.53788
G1 X45.929 Y53.244 E3.60136
G1 Z2.700 F15000.000
G92 E0
G1 X49.972 Y53.972 F15000.000
G1 F1080
G1 X45.028 Y53.972 E0.25827
G1 X45.028 Y49.028 E0.51653
G1 X49.972 Y49.028 E0.77480
G1 X49.972 Y53.822 E1.02523
G1 X50.286 Y54.286 F15000.000
G1 F1080
G1 X44.714 Y54.286 E1.31632
G1 X44.714 Y48.714 E1.60741
G1 X50.286 Y48.714 E1.89850
G1 X50.286 Y54.136 E2.18176
G1 X50.950 Y54.950 F15000.000
G1 F1080
G1 X44.050 Y54.950 E3.34548
G1 X44.050 Y48.050 E4.50920
G1 X50.950 Y48.050 E5.67292
G1 X50.950 Y54.800 E6.81135
G1 X49.984 Y54.691 F15000.000
G92 E0
G1 X49.071 Y53.244 F15000.000
G1 F1440
G1 X49.244 Y53.071 E0.06353
G1 X49.244 Y50.861 E0.63783
G1 X46.861 Y53.244 E1.51355
G1 X45.756 Y53.244 E1.80070
G1 X45.756 Y52.139 E2.08786
G1 X48.139 Y49.756 E2.96358
G1 X45.929 Y49.756 E3.53788
G1 X45.756 Y49.929 E3.60136
G1 Z3.100 F15000.000
G92 E0
G1 X49.972 Y53.972 F15000.000
G1 F1080
G1 X45.028 Y53.972 E0.25827
G1 X45.028 Y49.028 E0.51653
G1 X49.972 Y49.028 E0.77480
G1 X49.972 Y53.822 E1.02523
G1 X50.286 Y54.286 F15000.000
G1 F1080
G1 X44.714 Y54.286 E1.31632
G1 X44.714 Y48.714 E1.60741
G1 X50.286 Y48.714 E1.89850
G1 X50.286 Y54.136 E2.18176
G1 X50.950 Y54.950 F15000.000
G1 F1080
G1 X44.050 Y54.950 E3.34548
G1 X44.050 Y48.050 E4.50920
G1 X50.950 Y48.050 E5.67292
G1 X50.950 Y54.800 E6.81135
G1 X49.984 Y54.691 F15000.000
G92 E0
G1 X49.244 Y49.929 F15000.000
G1 F1440
G1 X49.071 Y49.756 E0.06353
G1 X46.861 Y49.756 E0.63783
G1 X49.244 Y52.139 E1.51355
G1 X49.244 Y53.244 E1.80070
G1 X48.139 Y53.244 E2.08786
G1 X45.756 Y50.861 E2.96358
G1 X45.756 Y53.071 E3.53788
G1 X45.929 Y53.244 E3.60136
G1 Z3.500 F15000.000
G92 E0
G1 X49.972 Y53.972 F15000.000
G1 F1080
G1 X45.028 Y53.972 E0.25827
G1 X45.028 Y49.028 E0.51653
G1 X49.972 Y49.028 E0.77480
G1 X49.972 Y53.822 E1.02523
G1 X50.286 Y54.286 F15000.000
G1 F1080
G1 X44.714 Y54.286 E1.31632
G1 X44.714 Y48.714 E1.60741
G1 X50.286 Y48.714 E1.89850
G1 X50.286 Y54.136 E2.18176
G1 X50.950 Y54.950 F15000.000
G1 F1080
G1 X44.050 Y54.950 E3.34548
G1 X44.050 Y48.050 E4.50920
G1 X50.950 Y48.050 E5.67292
G1 X50.950 Y54.800 E6.81135
G1 X49.984 Y54.691 F15000.000
G92 E0
G1 X49.071 Y53.244 F15000.000
G1 F1440
G1 X49.244 Y53.071 E0.06353
G1 X49.244 Y50.861 E0.63783
G1 X46.861 Y53.244 E1.51355
G1 X45.756 Y53.244 E1.80070
G1 X45.756 Y52.139 E2.08786
G1 X48.139 Y49.756 E2.96358
G1 X45.929 Y49.756 E3.53788
G1 X45.756 Y49.929 E3.60136
G1 Z3.900 F15000.000
G92 E0
G1 X49.972 Y53.972 F15000.000
G1 F1080
G1 X45.028 Y53.972 E0.25827
G1 X45.028 Y49.028 E0.51653
G1 X49.972 Y49.028 E0.77480
G1 X49.972 Y53.822 E1.02523
G1 X50.286 Y54.286 F15000.000
G1 F1080
G1 X44.714 Y54.286 E1.31632
G1 X44.714 Y48.714 E1.60741
G1 X50.286 Y48.714 E1.89850
G1 X50.286 Y54.136 E2.18176
G1 X50.950 Y54.950 F15000.000
G1 F1080
G1 X44.050 Y54.950 E3.34548
G1 X44.050 Y48.050 E4.50920
G1 X50.950 Y48.050 E5.67292
G1 X50.950 Y54.800 E6.81135
G1 X49.984 Y54.691 F15000.000
G92 E0
G1 X49.244 Y49.929 F15000.000
G1 F1440
G1 X49.071 Y49.756 E0.06353
G1 X46.861 Y49.756 E0.63783
G1 X49.244 Y52.139 E1.51355
G1 X49.244 Y53.244 E1.80070
G1 X48.139 Y53.244 E2.08786
G1 X45.756 Y50.861 E2.96358
G1 X45.756 Y53.071 E3.53788
G1 X45.929 Y53.244 E3.60136
G1 Z4.300 F15000.000
G92 E0
G1 X49.972 Y53.972 F15000.000
G1 F1080
G1 X45.028 Y53.972 E0.25827
G1 X45.028 Y49.028 E0.51653
G1 X49.972 Y49.028 E0.77480
G1 X49.972 Y53.822 E1.02523
G1 X50.286 Y54.286 F15000.000
G1 F1080
G1 X44.714 Y54.286 E1.31632
G1 X44.714 Y48.714 E1.60741
G1 X50.286 Y48.714 E1.89850
G1 X50.286 Y54.136 E2.18176
G1 X50.950 Y54.950 F15000.000
G1 F1080
G1 X44.050 Y54.950 E3.34548
G1 X44.050 Y48.050 E4.50920
G1 X50.950 Y48.050 E5.67292
G1 X50.950 Y54.800 E6.81135
G1 X49.984 Y54.691 F15000.000
G92 E0
G1 X49.071 Y53.244 F15000.000
G1 F1440
G1 X49.244 Y53.071 E0.06353
G1 X49.244 Y50.861 E0.63783
G1 X46.861 Y53.244 E1.51355
G1 X45.756 Y53.244 E1.80070
G1 X45.756 Y52.139 E2.08786
G1 X48.139 Y49.756 E2.96358
G1 X45.929 Y49.756 E3.53788
G1 X45.756 Y49.929 E3.60136
G1 Z4.700 F15000.000
G92 E0
G1 X49.972 Y53.972 F15000.000
G1 F1080
G1 X45.028 Y53.972 E0.25827
G1 X45.028 Y49.028 E0.51653
G1 X49.972 Y49.028 E0.77480
G1 X49.972 Y53.822 E1.02523
G1 X50.286 Y54.286 F15000.000
G1 F1080
G1 X44.714 Y54.286 E1.31632
G1 X44.714 Y48.714 E1.60741
G1 X50.286 Y48.714 E1.89850
G1 X50.286 Y54.136 E2.18176
G1 X50.950 Y54.950 F15000.000
G1 F1080
G1 X44.050 Y54.950 E3.34548
G1 X44.050 Y48.050 E4.50920
G1 X50.950 Y48.050 E5.67292
G1 X50.950 Y54.800 E6.81135
G1 X49.984 Y54.691 F15000.000
G92 E0
G1 X49.244 Y49.929 F15000.000
G1 F1440
G1 X49.071 Y49.756 E0.06353
G1 X46.861 Y49.756 E0.63783
G1 X49.244 Y52.139 E1.51355
G1 X49.244 Y53.244 E1.80070
G1 X48.139 Y53.244 E2.08786
G1 X45.756 Y50.861 E2.96358
G1 X45.756 Y53.071 E3.53788
G1 X45.929 Y53.244 E3.60136
G1 Z5.100 F15000.000
G92 E0
G1 X49.972 Y53.972 F15000.000
G1 F1080
G1 X45.028 Y53.972 E0.25827
G1 X45.028 Y49.028 E0.51653
G1 X49.972 Y49.028 E0.77480
G1 X49.972 Y53.822 E1.02523
G1 X50.286 Y54.286 F15000.000
G1 F1080
G1 X44.714 Y54.286 E1.31632
G1 X44.714 Y48.714 E1.60741
G1 X50.286 Y48.714 E1.89850
G1 X50.286 Y54.136 E2.18176
G1 X50.950 Y54.950 F15000.000
G1 F1080
G1 X44.050 Y54.950 E3.34548
G1 X44.050 Y48.050 E4.50920
G1 X50.950 Y48.050 E5.67292
G1 X50.950 Y54.800 E6.81135
G1 X49.984 Y54.691 F15000.000
G92 E0
G1 X49.071 Y53.244 F15000.000
G1 F1440
G1 X49.244 Y53.071 E0.06353
G1 X49.244 Y50.861 E0.63783
G1 X46.861 Y53.244 E1.51355
G1 X45.756 Y53.244 E1.80070
G1 X45.756 Y52.139 E2.08786
G1 X48.139 Y49.756 E2.96358
G1 X45.929 Y49.756 E3.53788
G1 X45.756 Y49.929 E3.60136
G1 Z5.500 F15000.000
G92 E0
G1 X49.972 Y53.972 F15000.000
G1 F1080
G1 X45.028 Y53.972 E0.25827
G1 X45.028 Y49.028 E0.51653
G1 X49.972 Y49.028 E0.77480
G1 X49.972 Y53.822 E1.02523
G1 X50.286 Y54.286 F15000.000
G1 F1080
G1 X44.714 Y54.286 E1.31632
G1 X44.714 Y48.714 E1.60741
G1 X50.286 Y48.714 E1.89850
G1 X50.286 Y54.136 E2.18176
G1 X50.950 Y54.950 F15000.000
G1 F1080
G1 X44.050 Y54.950 E3.34548
G1 X44.050 Y48.050 E4.50920
G1 X50.950 Y48.050 E5.67292
G1 X50.950 Y54.800 E6.81135
G1 X49.984 Y54.691 F15000.000
G92 E0
G1 X49.244 Y49.929 F15000.000
G1 F1440
G1 X49.071 Y49.756 E0.06353
G1 X46.861 Y49.756 E0.63783
G1 X49.244 Y52.139 E1.51355
G1 X49.244 Y53.244 E1.80070
G1 X48.139 Y53.244 E2.08786
G1 X45.756 Y50.861 E2.96358
G1 X45.756 Y53.071 E3.53788
G1 X45.929 Y53.244 E3.60136
G1 Z5.900 F15000.000
G92 E0
G1 X49.972 Y53.972 F15000.000
G1 F1080
G1 X45.028 Y53.972 E0.25827
G1 X45.028 Y49.028 E0.51653
G1 X49.972 Y49.028 E0.77480
G1 X49.972 Y53.822 E1.02523
G1 X50.286 Y54.286 F15000.000
G1 F1080
G1 X44.714 Y54.286 E1.31632
G1 X44.714 Y48.714 E1.60741
G1 X50.286 Y48.714 E1.89850
G1 X50.286 Y54.136 E2.18176
G1 X50.950 Y54.950 F15000.000
G1 F1080
G1 X44.050 Y54.950 E3.34548
G1 X44.050 Y48.050 E4.50920
G1 X50.950 Y48.050 E5.67292
G1 X50.950 Y54.800 E6.81135
G1 X49.984 Y54.691 F15000.000
G92 E0
G1 X49.071 Y53.244 F15000.000
G1 F1440
G1 X49.244 Y53.071 E0.06353
G1 X49.244 Y50.861 E0.63783
G1 X46.861 Y53.244 E1.51355
G1 X45.756 Y53.244 E1.80070
G1 X45.756 Y52.139 E2.08786
G1 X48.139 Y49.756 E2.96358
G1 X45.929 Y49.756 E3.53788
G1 X45.756 Y49.929 E3.60136
G1 Z6.300 F15000.000
G92 E0
G1 X49.972 Y53.972 F15000.000
G1 F1080
G1 X45.028 Y53.972 E0.25827
G1 X45.028 Y49.028 E0.51653
G1 X49.972 Y49.028 E0.77480
G1 X49.972 Y53.822 E1.02523
G1 X50.286 Y54.286 F15000.000
G1 F1080
G1 X44.714 Y54.286 E1.31632
G1 X44.714 Y48.714 E1.60741
G1 X50.286 Y48.714 E1.89850
G1 X50.286 Y54.136 E2.18176
G1 X50.950 Y54.950 F15000.000
G1 F1080
G1 X44.050 Y54.950 E3.34548
G1 X44.050 Y48.050 E4.50920
G1 X50.950 Y48.050 E5.67292
G1 X50.950 Y54.800 E6.81135
G1 X49.984 Y54.691 F15000.000
G92 E0
G1 X49.244 Y49.929 F15000.000
G1 F1440
G1 X49.071 Y49.756 E0.06353
G1 X46.861 Y49.756 E0.63783
G1 X49.244 Y52.139 E1.51355
G1 X49.244 Y53.244 E1.80070
G1 X48.139 Y53.244 E2.08786
G1 X45.756 Y50.861 E2.96358
G1 X45.756 Y53.071 E3.53788
G1 X45.929 Y53.244 E3.60136
G1 Z6.700 F15000.000
G92 E0
G1 X49.972 Y53.972 F15000.000
G1 F1080
G1 X45.028 Y53.972 E0.25827
G1 X45.028 Y49.028 E0.51653
G1 X49.972 Y49.028 E0.77480
G1 X49.972 Y53.822 E1.02523
G1 X50.286 Y54.286 F15000.000
G1 F1080
G1 X44.714 Y54.286 E1.31632
G1 X44.714 Y48.714 E1.60741
G1 X50.286 Y48.714 E1.89850
G1 X50.286 Y54.136 E2.18176
G1 X50.950 Y54.950 F15000.000
G1 F1080
G1 X44.050 Y54.950 E3.34548
G1 X44.050 Y48.050 E4.50920
G1 X50.950 Y48.050 E5.67292
G1 X50.950 Y54.800 E6.81135
G1 X49.984 Y54.691 F15000.000
G92 E0
G1 X49.071 Y53.244 F15000.000
G1 F1440
G1 X49.244 Y53.071 E0.06353
G1 X49.244 Y50.861 E0.63783
G1 X46.861 Y53.244 E1.51355
G1 X45.756 Y53.244 E1.80070
G1 X45.756 Y52.139 E2.08786
G1 X48.139 Y49.756 E2.96358
G1 X45.929 Y49.756 E3.53788
G1 X45.756 Y49.929 E3.60136
G1 Z7.100 F15000.000
G92 E0
G1 X49.972 Y53.972 F15000.000
G1 F1080
G1 X45.028 Y53.972 E0.25827
G1 X45.028 Y49.028 E0.51653
G1 X49.972 Y49.028 E0.77480
G1 X49.972 Y53.822 E1.02523
G1 X50.286 Y54.286 F15000.000
G1 F1080
G1 X44.714 Y54.286 E1.31632
G1 X44.714 Y48.714 E1.60741
G1 X50.286 Y48.714 E1.89850
G1 X50.286 Y54.136 E2.18176
G1 X50.950 Y54.950 F15000.000
G1 F1080
G1 X44.050 Y54.950 E3.34548
G1 X44.050 Y48.050 E4.50920
G1 X50.950 Y48.050 E5.67292
G1 X50.950 Y54.800 E6.81135
G1 X49.984 Y54.691 F15000.000
G92 E0
G1 X49.244 Y49.929 F15000.000
G1 F1440
G1 X49.071 Y49.756 E0.06353
G1 X46.861 Y49.756 E0.63784
G1 X49.244 Y52.139 E1.51357
G1 X49.244 Y53.244 E1.80072
G1 X48.139 Y53.244 E2.08788
G1 X45.756 Y50.861 E2.96361
G1 X45.756 Y53.071 E3.53792
G1 X45.929 Y53.244 E3.60140
G1 Z7.500 F15000.000
G92 E0
G1 X49.972 Y53.972 F15000.000
G1 F1080
G1 X45.028 Y53.972 E0.25827
G1 X45.028 Y49.028 E0.51653
G1 X49.972 Y49.028 E0.77480
G1 X49.972 Y53.822 E1.02523
G1 X50.286 Y54.286 F15000.000
G1 F1080
G1 X44.714 Y54.286 E1.31632
G1 X44.714 Y48.714 E1.60741
G1 X50.286 Y48.714 E1.89850
G1 X50.286 Y54.136 E2.18176
G1 X50.950 Y54.950 F15000.000
G1 F1080
G1 X44.050 Y54.950 E3.34548
G1 X44.050 Y48.050 E4.50920
G1 X50.950 Y48.050 E5.67292
G1 X50.950 Y54.800 E6.81135
G1 X49.984 Y54.691 F15000.000
