; generated by Slic3r 1.3.1-dev on 2019-06-13 at 08:50:47

; external perimeters extrusion width = 1.10mm (10.95mm^3/s)
; perimeters extrusion width = 0.40mm (7.54mm^3/s)
; infill extrusion width = 1.25mm (37.25mm^3/s)
; solid infill extrusion width = 1.40mm (12.62mm^3/s)
; top infill extrusion width = 0.60mm (3.95mm^3/s)

M190 S80 ; set bed temperature and wait for it to be reached
M104 S230 ; set temperature
G28 ; home all axes
G1 X150 Y150 Z50 F10000
; Filament gcode

M109 S230 ; set temperature and wait for it to be reached
G21 ; set units to millimeters
G90 ; use absolute coordinates
M82 ; use absolute distances for extrusion
G92 E0
G92 E0
; layer 1
G1 Z0.300 F15000.000
G1 X47.277 Y46.961 F15000.000
G1 F3600
G1 X67.723 Y46.961 E2.55024
G1 X68.039 Y47.277 E2.60597
G1 X68.039 Y67.723 E5.15622
G1 X67.723 Y68.039 E5.21195
G1 X47.277 Y68.039 E7.76219
G1 X46.961 Y67.723 E7.81792
G1 X46.961 Y47.277 E10.36816
G1 X47.171 Y47.067 E10.40519
G92 E0
G1 X65.162 Y50.607 F15000.000
G1 F3600
G1 X66.907 Y50.607 E0.11656
G1 X66.907 Y51.793 E0.19576
G1 X65.162 Y51.793 E0.31232
G1 X63.997 Y53.812 E0.46805
G1 X59.612 Y53.812 E0.76096
G1 X58.447 Y51.793 E0.91669
G1 X54.062 Y51.793 E1.20960
G1 X52.897 Y53.812 E1.36533
G1 X48.512 Y53.812 E1.65825
G1 X48.093 Y53.085 E1.71427
G1 X48.093 Y49.315 E1.96617
G1 X48.512 Y48.589 E2.02219
G1 X52.897 Y48.589 E2.31511
G1 X54.062 Y50.607 E2.47083
G1 X58.447 Y50.607 E2.76375
G1 X59.612 Y48.589 E2.91948
G1 X63.997 Y48.589 E3.21239
G1 X65.162 Y50.607 E3.36812
G92 E0
G1 X65.162 Y57.016 F15000.000
G1 F3600
G1 X66.907 Y57.016 E0.11656
G1 X66.907 Y58.202 E0.19576
G1 X65.162 Y58.202 E0.31232
G1 X63.997 Y60.220 E0.46805
G1 X59.612 Y60.220 E0.76096
G1 X58.447 Y58.202 E0.91669
G1 X54.062 Y58.202 E1.20960
G1 X52.897 Y60.220 E1.36533
G1 X48.512 Y60.220 E1.65825
G1 X48.093 Y59.494 E1.71427
G1 X48.093 Y55.723 E1.96617
G1 X48.512 Y54.997 E2.02219
G1 X52.897 Y54.997 E2.31511
G1 X54.062 Y57.016 E2.47083
G1 X58.447 Y57.016 E2.76375
G1 X59.612 Y54.997 E2.91948
G1 X63.997 Y54.997 E3.21239
G1 X65.162 Y57.016 E3.36812
G92 E0
G1 X65.162 Y63.425 F15000.000
G1 F3600
G1 X66.907 Y63.425 E0.11656
G1 X66.907 Y64.610 E0.19576
G1 X65.162 Y64.610 E0.31232
G1 X63.997 Y66.629 E0.46805
G1 X59.612 Y66.629 E0.76096
G1 X58.447 Y64.610 E0.91669
G1 X54.062 Y64.610 E1.20960
G1 X52.897 Y66.629 E1.36533
G1 X48.512 Y66.629 E1.65825
G1 X48.093 Y65.903 E1.71427
G1 X48.093 Y62.132 E1.96617
G1 X48.512 Y61.406 E2.02219
G1 X52.897 Y61.406 E2.31511
G1 X54.062 Y63.425 E2.47083
G1 X58.447 Y63.425 E2.76375
G1 X59.612 Y61.406 E2.91948
G1 X63.997 Y61.406 E3.21239
G1 X65.162 Y63.425 E3.36812
M104 S205 ; set temperature
M140 S55 ; set bed temperature
G1 Z0.700 F15000.000
G1 X66.918 Y63.719 F15000.000
G1 F4800
G1 X66.918 Y57.426 E4.58640
G1 X65.851 Y57.426 E4.79296
G1 X63.698 Y61.154 E5.62646
G1 X64.843 Y63.137 E6.06958
G1 X62.690 Y66.865 E6.90308
G1 X60.401 Y66.865 E7.34621
G1 X60.371 Y66.918 E7.35804
G1 X64.004 Y66.918 E8.06142
G1 X65.851 Y63.719 E8.77662
G1 X66.918 Y63.719 E8.98318
G92 E0
G1 X66.918 Y51.133 F15000.000
G1 F4800
G1 X66.918 Y48.082 E0.59069
G1 X63.979 Y48.082 E1.15959
G1 X63.698 Y48.569 E1.26840
G1 X64.843 Y50.551 E1.71153
G1 X62.690 Y54.279 E2.54503
G1 X60.401 Y54.279 E2.98815
G1 X58.249 Y58.008 E3.82165
G1 X59.393 Y59.990 E4.26478
G1 X57.240 Y63.719 E5.09827
G1 X54.952 Y63.719 E5.54140
G1 X53.104 Y66.918 E6.25661
G1 X59.026 Y66.918 E7.40311
G1 X59.393 Y66.283 E7.54507
G1 X58.249 Y64.301 E7.98819
G1 X60.401 Y60.572 E8.82169
G1 X62.690 Y60.572 E9.26481
G1 X64.843 Y56.844 E10.09831
G1 X63.698 Y54.862 E10.54144
G1 X65.851 Y51.133 E11.37494
G1 X66.918 Y51.133 E11.58150
G92 E0
G1 X58.249 Y51.715 F15000.000
G1 F4800
G1 X60.346 Y48.082 E0.81219
G1 X59.002 Y48.082 E1.07244
G1 X57.240 Y51.133 E1.75450
G1 X54.952 Y51.133 E2.19763
G1 X52.799 Y54.862 E3.03112
G1 X53.943 Y56.844 E3.47425
G1 X51.791 Y60.572 E4.30775
G1 X49.502 Y60.572 E4.75087
G1 X48.082 Y63.032 E5.30065
G1 X48.082 Y65.570 E5.79207
G1 X48.494 Y66.283 E5.95147
G1 X48.127 Y66.918 E6.09343
G1 X49.471 Y66.918 E6.35368
G1 X49.502 Y66.865 E6.36552
G1 X51.791 Y66.865 E6.80864
G1 X53.943 Y63.137 E7.64214
G1 X52.799 Y61.154 E8.08526
G1 X54.952 Y57.426 E8.91876
G1 X57.240 Y57.426 E9.36189
G1 X59.393 Y53.697 E10.19539
G1 X58.249 Y51.715 E10.63851
G92 E0
G1 X52.799 Y48.569 F15000.000
G1 F4800
G1 X53.080 Y48.082 E0.10881
G1 X49.447 Y48.082 E0.81219
G1 X48.082 Y50.446 E1.34065
G1 X48.082 Y52.984 E1.83208
G1 X48.494 Y53.697 E1.99148
G1 X48.082 Y54.410 E2.15088
G1 X48.082 Y56.739 E2.60165
G1 X49.502 Y54.279 E3.15142
G1 X51.791 Y54.279 E3.59455
G1 X53.943 Y50.551 E4.42805
G1 X52.799 Y48.569 E4.87117
G92 E0
G1 X48.082 Y48.118 F15000.000
G1 F4800
G1 X48.103 Y48.082 E0.00797
G1 X48.082 Y48.082 E0.01196
G1 X48.082 Y48.118 E0.01886
G92 E0
G1 X48.494 Y59.990 F15000.000
G1 F4800
G1 X48.082 Y59.277 E0.15940
G1 X48.082 Y60.703 E0.43550
G1 X48.494 Y59.990 E0.59490
G1 Z1.100 F15000.000
G1 X49.502 Y60.572 F15000.000
G1 F4800
G1 X51.791 Y60.572 E1.03803
G1 X53.943 Y64.301 E1.87153
G1 X52.799 Y66.283 E2.31465
G1 X53.166 Y66.918 E2.45661
G1 X51.821 Y66.918 E2.71686
G1 X51.791 Y66.865 E2.72870
G1 X49.502 Y66.865 E3.17182
G1 X48.082 Y64.406 E3.72160
G1 X48.082 Y61.867 E4.21302
G1 X48.494 Y61.154 E4.37242
G1 X48.082 Y60.441 E4.53183
G1 X48.082 Y58.113 E4.98259
G1 X49.502 Y60.572 E5.53236
G92 E0
G1 X48.494 Y54.862 F15000.000
G1 F4800
G1 X48.082 Y55.575 E0.15940
G1 X48.082 Y54.149 E0.43550
G1 X48.494 Y54.862 E0.59490
G92 E0
G1 X53.943 Y51.715 F15000.000
G1 F4800
G1 X52.799 Y53.697 E0.44313
G1 X54.952 Y57.426 E1.27662
G1 X57.240 Y57.426 E1.71975
G1 X59.393 Y61.154 E2.55325
G1 X58.249 Y63.137 E2.99637
G1 X60.401 Y66.865 E3.82987
G1 X62.690 Y66.865 E4.27300
G1 X62.721 Y66.918 E4.28483
G1 X59.088 Y66.918 E4.98821
G1 X57.240 Y63.719 E5.70341
G1 X54.952 Y63.719 E6.14654
G1 X52.799 Y59.990 E6.98004
G1 X53.943 Y58.008 E7.42316
G1 X51.791 Y54.279 E8.25666
G1 X49.502 Y54.279 E8.69979
G1 X48.082 Y51.820 E9.24956
G1 X48.082 Y49.282 E9.74098
G1 X48.494 Y48.569 E9.90039
G1 X48.213 Y48.082 E10.00920
G1 X51.846 Y48.082 E10.71258
G1 X53.943 Y51.715 E11.52476
G92 E0
G1 X59.393 Y48.569 F15000.000
G1 F4800
G1 X58.249 Y50.551 E0.44313
G1 X60.401 Y54.279 E1.27662
G1 X62.690 Y54.279 E1.71975
G1 X64.843 Y58.008 E2.55325
G1 X63.698 Y59.990 E2.99637
G1 X65.851 Y63.719 E3.82987
G1 X66.918 Y63.719 E4.03643
G1 X66.918 Y66.918 E4.65582
G1 X64.065 Y66.918 E5.20815
G1 X63.698 Y66.283 E5.35011
G1 X64.843 Y64.301 E5.79324
G1 X62.690 Y60.572 E6.62673
G1 X60.401 Y60.572 E7.06986
G1 X58.249 Y56.844 E7.90336
G1 X59.393 Y54.862 E8.34648
G1 X57.240 Y51.133 E9.17998
G1 X54.952 Y51.133 E9.62311
G1 X53.190 Y48.082 E10.30517
G1 X59.112 Y48.082 E11.45167
G1 X59.393 Y48.569 E11.56048
G92 E0
G1 X66.918 Y51.133 F15000.000
G1 F4800
G1 X66.918 Y57.426 E1.21828
G1 X65.851 Y57.426 E1.42484
G1 X63.698 Y53.697 E2.25834
G1 X64.843 Y51.715 E2.70146
G1 X62.745 Y48.082 E3.51365
G1 X64.089 Y48.082 E3.77390
G1 X65.851 Y51.133 E4.45596
G1 X66.918 Y51.133 E4.66252
G92 E0
G1 X48.188 Y66.918 F15000.000
G1 F4800
G1 X48.082 Y66.918 E0.02056
G1 X48.082 Y66.734 E0.05616
G1 X48.188 Y66.918 E0.09728
M106 S255
G1 Z1.500 F15000.000
G92 E0
G1 X64.843 Y63.137 F15000.000
G1 F4800
G1 X63.698 Y61.154 E0.44313
G1 X59.393 Y61.154 E1.27662
G1 X58.249 Y63.137 E1.71975
G1 X53.943 Y63.137 E2.55325
G1 X52.799 Y61.154 E2.99637
G1 X48.494 Y61.154 E3.82987
G1 X48.082 Y61.867 E3.98927
G1 X48.082 Y65.570 E4.70608
G1 X48.494 Y66.283 E4.86548
G1 X52.799 Y66.283 E5.69898
G1 X53.943 Y64.301 E6.14210
G1 X58.249 Y64.301 E6.97560
G1 X59.393 Y66.283 E7.41873
G1 X63.698 Y66.283 E8.25223
G1 X64.843 Y64.301 E8.69535
G1 X66.918 Y64.301 E9.09710
G1 X66.918 Y63.137 E9.32248
G1 X64.843 Y63.137 E9.72423
G92 E0
G1 X64.843 Y56.844 F15000.000
G1 F4800
G1 X63.698 Y54.862 E0.44313
G1 X59.393 Y54.862 E1.27662
G1 X58.249 Y56.844 E1.71975
G1 X53.943 Y56.844 E2.55325
G1 X52.799 Y54.862 E2.99637
G1 X48.494 Y54.862 E3.82987
G1 X48.082 Y55.575 E3.98927
G1 X48.082 Y59.277 E4.70608
G1 X48.494 Y59.990 E4.86548
G1 X52.799 Y59.990 E5.69898
G1 X53.943 Y58.008 E6.14210
G1 X58.249 Y58.008 E6.97560
G1 X59.393 Y59.990 E7.41873
G1 X63.698 Y59.990 E8.25222
G1 X64.843 Y58.008 E8.69535
G1 X66.918 Y58.008 E9.09710
G1 X66.918 Y56.844 E9.32248
G1 X64.843 Y56.844 E9.72423
G92 E0
G1 X64.843 Y50.551 F15000.000
G1 F4800
G1 X63.698 Y48.569 E0.44313
G1 X59.393 Y48.569 E1.27662
G1 X58.249 Y50.551 E1.71975
G1 X53.943 Y50.551 E2.55325
G1 X52.799 Y48.569 E2.99637
G1 X48.494 Y48.569 E3.82987
G1 X48.082 Y49.282 E3.98927
G1 X48.082 Y52.984 E4.70608
G1 X48.494 Y53.697 E4.86548
G1 X52.799 Y53.697 E5.69898
G1 X53.943 Y51.715 E6.14210
G1 X58.249 Y51.715 E6.97560
G1 X59.393 Y53.697 E7.41873
G1 X63.698 Y53.697 E8.25222
G1 X64.843 Y51.715 E8.69535
G1 X66.918 Y51.715 E9.09710
G1 X66.918 Y50.551 E9.32248
G1 X64.843 Y50.551 E9.72423
G1 Z1.900 F15000.000
G92 E0
G1 X66.918 Y51.133 F15000.000
G1 F4800
G1 X66.918 Y48.082 E0.59069
G1 X63.979 Y48.082 E1.15959
G1 X63.698 Y48.569 E1.26840
G1 X64.843 Y50.551 E1.71153
G1 X62.690 Y54.279 E2.54503
G1 X60.401 Y54.279 E2.98815
G1 X58.249 Y58.008 E3.82165
G1 X59.393 Y59.990 E4.26478
G1 X57.240 Y63.719 E5.09827
G1 X54.952 Y63.719 E5.54140
G1 X53.104 Y66.918 E6.25661
G1 X59.026 Y66.918 E7.40311
G1 X59.393 Y66.283 E7.54507
G1 X58.249 Y64.301 E7.98819
G1 X60.401 Y60.572 E8.82169
G1 X62.690 Y60.572 E9.26481
G1 X64.843 Y56.844 E10.09831
G1 X63.698 Y54.862 E10.54144
G1 X65.851 Y51.133 E11.37494
G1 X66.918 Y51.133 E11.58150
G92 E0
G1 X58.249 Y51.715 F15000.000
G1 F4800
G1 X60.346 Y48.082 E0.81219
G1 X59.002 Y48.082 E1.07244
G1 X57.240 Y51.133 E1.75450
G1 X54.952 Y51.133 E2.19763
G1 X52.799 Y54.862 E3.03112
G1 X53.943 Y56.844 E3.47425
G1 X51.791 Y60.572 E4.30775
G1 X49.502 Y60.572 E4.75087
G1 X48.082 Y63.032 E5.30065
G1 X48.082 Y65.570 E5.79207
G1 X48.494 Y66.283 E5.95147
G1 X48.127 Y66.918 E6.09343
G1 X49.471 Y66.918 E6.35368
G1 X49.502 Y66.865 E6.36552
G1 X51.791 Y66.865 E6.80864
G1 X53.943 Y63.137 E7.64214
G1 X52.799 Y61.154 E8.08526
G1 X54.952 Y57.426 E8.91876
G1 X57.240 Y57.426 E9.36189
G1 X59.393 Y53.697 E10.19539
G1 X58.249 Y51.715 E10.63851
G92 E0
G1 X52.799 Y48.569 F15000.000
G1 F4800
G1 X53.080 Y48.082 E0.10881
G1 X49.447 Y48.082 E0.81219
G1 X48.082 Y50.446 E1.34065
G1 X48.082 Y52.984 E1.83208
G1 X48.494 Y53.697 E1.99148
G1 X48.082 Y54.410 E2.15088
G1 X48.082 Y56.739 E2.60165
G1 X49.502 Y54.279 E3.15142
G1 X51.791 Y54.279 E3.59455
G1 X53.943 Y50.551 E4.42805
G1 X52.799 Y48.569 E4.87117
G92 E0
G1 X48.082 Y48.118 F15000.000
G1 F4800
G1 X48.103 Y48.082 E0.00797
G1 X48.082 Y48.082 E0.01196
G1 X48.082 Y48.118 E0.01886
G92 E0
G1 X48.494 Y59.990 F15000.000
G1 F4800
G1 X48.082 Y59.277 E0.15940
G1 X48.082 Y60.703 E0.43550
G1 X48.494 Y59.990 E0.59490
G92 E0
G1 X66.918 Y63.719 F15000.000
G1 F4800
G1 X66.918 Y57.426 E1.21828
G1 X65.851 Y57.426 E1.42484
G1 X63.698 Y61.154 E2.25834
G1 X64.843 Y63.137 E2.70146
G1 X62.690 Y66.865 E3.53496
G1 X60.401 Y66.865 E3.97809
G1 X60.371 Y66.918 E3.98992
G1 X64.004 Y66.918 E4.69330
G1 X65.851 Y63.719 E5.40850
G1 X66.918 Y63.719 E5.61506
G1 Z2.300 F15000.000
G92 E0
G1 X66.918 Y51.133 F15000.000
G1 F4800
G1 X65.851 Y51.133 E0.20656
G1 X64.089 Y48.082 E0.88862
G1 X62.745 Y48.082 E1.14887
G1 X64.843 Y51.715 E1.96106
G1 X63.698 Y53.697 E2.40419
G1 X65.851 Y57.426 E3.23768
G1 X66.918 Y57.426 E3.44424
G1 X66.918 Y51.133 E4.66252
G92 E0
G1 X59.393 Y48.569 F15000.000
G1 F4800
G1 X59.112 Y48.082 E0.10881
G1 X53.190 Y48.082 E1.25531
G1 X54.952 Y51.133 E1.93738
G1 X57.240 Y51.133 E2.38050
G1 X59.393 Y54.862 E3.21400
G1 X58.249 Y56.844 E3.65713
G1 X60.401 Y60.572 E4.49062
G1 X62.690 Y60.572 E4.93375
G1 X64.843 Y64.301 E5.76725
G1 X63.698 Y66.283 E6.21037
G1 X64.065 Y66.918 E6.35233
G1 X66.918 Y66.918 E6.90466
G1 X66.918 Y63.719 E7.52405
G1 X65.851 Y63.719 E7.73061
G1 X63.698 Y59.990 E8.56411
G1 X64.843 Y58.008 E9.00724
G1 X62.690 Y54.279 E9.84073
G1 X60.401 Y54.279 E10.28386
G1 X58.249 Y50.551 E11.11736
G1 X59.393 Y48.569 E11.56048
G92 E0
G1 X53.943 Y51.715 F15000.000
G1 F4800
G1 X51.846 Y48.082 E0.81219
G1 X48.213 Y48.082 E1.51556
G1 X48.494 Y48.569 E1.62438
G1 X48.082 Y49.282 E1.78378
G1 X48.082 Y51.820 E2.27520
G1 X49.502 Y54.279 E2.82498
G1 X51.791 Y54.279 E3.26810
G1 X53.943 Y58.008 E4.10160
G1 X52.799 Y59.990 E4.54473
G1 X54.952 Y63.719 E5.37822
G1 X57.240 Y63.719 E5.82135
G1 X59.088 Y66.918 E6.53656
G1 X62.721 Y66.918 E7.23993
G1 X62.690 Y66.865 E7.25177
G1 X60.401 Y66.865 E7.69489
G1 X58.249 Y63.137 E8.52839
G1 X59.393 Y61.154 E8.97152
G1 X57.240 Y57.426 E9.80501
G1 X54.952 Y57.426 E10.24814
G1 X52.799 Y53.697 E11.08164
G1 X53.943 Y51.715 E11.52476
G92 E0
G1 X48.494 Y54.862 F15000.000
G1 F4800
G1 X48.082 Y54.149 E0.15940
G1 X48.082 Y55.575 E0.43550
G1 X48.494 Y54.862 E0.59490
G92 E0
G1 X49.502 Y60.572 F15000.000
G1 F4800
G1 X48.082 Y58.113 E0.54978
G1 X48.082 Y60.441 E1.00054
G1 X48.494 Y61.154 E1.15994
G1 X48.082 Y61.867 E1.31935
G1 X48.082 Y64.406 E1.81077
G1 X49.502 Y66.865 E2.36054
G1 X51.791 Y66.865 E2.80367
G1 X51.821 Y66.918 E2.81550
G1 X53.166 Y66.918 E3.07575
G1 X52.799 Y66.283 E3.21771
G1 X53.943 Y64.301 E3.66084
G1 X51.791 Y60.572 E4.49433
G1 X49.502 Y60.572 E4.93746
G92 E0
G1 X48.188 Y66.918 F15000.000
G1 F4800
G1 X48.082 Y66.734 E0.04111
G1 X48.082 Y66.918 E0.07672
G1 X48.188 Y66.918 E0.09728
G1 Z2.700 F15000.000
G92 E0
G1 X64.843 Y63.137 F15000.000
G1 F4800
G1 X63.698 Y61.154 E0.44313
G1 X59.393 Y61.154 E1.27662
G1 X58.249 Y63.137 E1.71975
G1 X53.943 Y63.137 E2.55325
G1 X52.799 Y61.154 E2.99637
G1 X48.494 Y61.154 E3.82987
G1 X48.082 Y61.867 E3.98927
G1 X48.082 Y65.570 E4.70608
G1 X48.494 Y66.283 E4.86548
G1 X52.799 Y66.283 E5.69898
G1 X53.943 Y64.301 E6.14210
G1 X58.249 Y64.301 E6.97560
G1 X59.393 Y66.283 E7.41873
G1 X63.698 Y66.283 E8.25223
G1 X64.843 Y64.301 E8.69535
G1 X66.918 Y64.301 E9.09710
G1 X66.918 Y63.137 E9.32248
G1 X64.843 Y63.137 E9.72423
G92 E0
G1 X64.843 Y56.844 F15000.000
G1 F4800
G1 X63.698 Y54.862 E0.44313
G1 X59.393 Y54.862 E1.27662
G1 X58.249 Y56.844 E1.71975
G1 X53.943 Y56.844 E2.55325
G1 X52.799 Y54.862 E2.99637
G1 X48.494 Y54.862 E3.82987
G1 X48.082 Y55.575 E3.98927
G1 X48.082 Y59.277 E4.70608
G1 X48.494 Y59.990 E4.86548
G1 X52.799 Y59.990 E5.69898
G1 X53.943 Y58.008 E6.14210
G1 X58.249 Y58.008 E6.97560
G1 X59.393 Y59.990 E7.41873
G1 X63.698 Y59.990 E8.25222
G1 X64.843 Y58.008 E8.69535
G1 X66.918 Y58.008 E9.09710
G1 X66.918 Y56.844 E9.32248
G1 X64.843 Y56.844 E9.72423
G92 E0
G1 X64.843 Y50.551 F15000.000
G1 F4800
G1 X63.698 Y48.569 E0.44313
G1 X59.393 Y48.569 E1.27662
G1 X58.249 Y50.551 E1.71975
G1 X53.943 Y50.551 E2.55325
G1 X52.799 Y48.569 E2.99637
G1 X48.494 Y48.569 E3.82987
G1 X48.082 Y49.282 E3.98927
G1 X48.082 Y52.984 E4.70608
G1 X48.494 Y53.697 E4.86548
G1 X52.799 Y53.697 E5.69898
G1 X53.943 Y51.715 E6.14210
G1 X58.249 Y51.715 E6.97560
G1 X59.393 Y53.697 E7.41873
G1 X63.698 Y53.697 E8.25222
G1 X64.843 Y51.715 E8.69535
G1 X66.918 Y51.715 E9.09710
G1 X66.918 Y50.551 E9.32248
G1 X64.843 Y50.551 E9.72423
G1 Z3.100 F15000.000
G92 E0
G1 X66.918 Y51.133 F15000.000
G1 F4800
G1 X66.918 Y48.082 E0.59069
G1 X63.979 Y48.082 E1.15959
G1 X63.698 Y48.569 E1.26840
G1 X64.843 Y50.551 E1.71153
G1 X62.690 Y54.279 E2.54503
G1 X60.401 Y54.279 E2.98815
G1 X58.249 Y58.008 E3.82165
G1 X59.393 Y59.990 E4.26478
G1 X57.240 Y63.719 E5.09827
G1 X54.952 Y63.719 E5.54140
G1 X53.104 Y66.918 E6.25661
G1 X59.026 Y66.918 E7.40311
G1 X59.393 Y66.283 E7.54507
G1 X58.249 Y64.301 E7.98819
G1 X60.401 Y60.572 E8.82169
G1 X62.690 Y60.572 E9.26481
G1 X64.843 Y56.844 E10.09831
G1 X63.698 Y54.862 E10.54144
G1 X65.851 Y51.133 E11.37494
G1 X66.918 Y51.133 E11.58150
G92 E0
G1 X58.249 Y51.715 F15000.000
G1 F4800
G1 X60.346 Y48.082 E0.81219
G1 X59.002 Y48.082 E1.07244
G1 X57.240 Y51.133 E1.75450
G1 X54.952 Y51.133 E2.19763
G1 X52.799 Y54.862 E3.03112
G1 X53.943 Y56.844 E3.47425
G1 X51.791 Y60.572 E4.30775
G1 X49.502 Y60.572 E4.75087
G1 X48.082 Y63.032 E5.30065
G1 X48.082 Y65.570 E5.79207
G1 X48.494 Y66.283 E5.95147
G1 X48.127 Y66.918 E6.09343
G1 X49.471 Y66.918 E6.35368
G1 X49.502 Y66.865 E6.36552
G1 X51.791 Y66.865 E6.80864
G1 X53.943 Y63.137 E7.64214
G1 X52.799 Y61.154 E8.08526
