; generated by Slic3r 1.3.1-dev on 2019-07-08 at 16:27:17

; external perimeters extrusion width = 0.44mm (2.61mm^3/s)
; perimeters extrusion width = 0.40mm (5.20mm^3/s)
; infill extrusion width = 0.50mm (8.93mm^3/s)
; solid infill extrusion width = 0.56mm (3.02mm^3/s)
; top infill extrusion width = 0.38mm (1.54mm^3/s)

M107
M104 S230 ; set temperature
G28 ; home all axes
G1 X150 Y150 Z50 F10000
; Filament gcode
; layer 1
M109 S230 ; set temperature and wait for it to be reached
G21 ; set units to millimeters
G90 ; use absolute coordinates
M82 ; use absolute distances for extrusion
G92 E0
G92 E0
G1 Z0.350 F15000.000
G1 X105.526 Y54.800 F15000.000
G1 F3600
G1 X106.138 Y54.574 E0.09484
G1 X106.363 Y52.449 E0.40575
G1 X106.404 Y52.231 E0.43804
G1 X106.511 Y51.976 E0.47829
G1 X106.574 Y51.888 E0.49399
G1 X106.739 Y51.732 E0.52711
G1 X106.826 Y51.676 E0.54213
G1 X107.042 Y51.590 E0.57596
G1 X107.351 Y51.534 E0.62156
G1 X107.698 Y51.518 E0.67222
G1 X108.573 Y51.536 E0.79951
G1 X109.787 Y51.605 E0.97646
G1 X111.201 Y51.732 E1.18303
G1 X111.943 Y51.821 E1.29177
G1 X113.417 Y52.058 E1.50897
G1 X114.104 Y52.208 E1.61136
G1 X114.756 Y52.381 E1.70949
G1 X115.374 Y52.577 E1.80387
G1 X115.960 Y52.799 E1.89504
G1 X116.501 Y53.039 E1.98112
G1 X117.027 Y53.312 E2.06744
G1 X117.527 Y53.612 E2.15226
G1 X118.001 Y53.941 E2.23615
G1 X118.450 Y54.297 E2.31956
G1 X118.872 Y54.675 E2.40209
G1 X119.270 Y55.071 E2.48363
G1 X119.650 Y55.488 E2.56580
G1 X119.998 Y55.904 E2.64462
G1 X120.619 Y56.735 E2.79558
G1 X121.159 Y57.556 E2.93866
G1 X121.406 Y57.969 E3.00859
G1 X121.829 Y58.772 E3.14072
G1 X122.018 Y59.185 E3.20680
G1 X122.348 Y60.049 E3.34149
G1 X122.487 Y60.494 E3.40933
G1 X122.717 Y61.419 E3.54792
G1 X122.888 Y62.409 E3.69419
G1 X122.992 Y63.412 E3.84088
G1 X123.018 Y63.925 E3.91568
G1 X123.018 Y64.966 E4.06711
G1 X122.992 Y65.479 E4.14191
G1 X122.888 Y66.482 E4.28860
G1 X122.810 Y66.987 E4.36294
G1 X122.611 Y67.936 E4.50412
G1 X122.345 Y68.853 E4.64300
G1 X122.023 Y69.696 E4.77427
G1 X121.830 Y70.120 E4.84207
G1 X121.624 Y70.527 E4.90846
G1 X121.164 Y71.328 E5.04282
G1 X120.624 Y72.149 E5.18592
G1 X120.322 Y72.568 E5.26105
G1 X119.642 Y73.412 E5.41877
G1 X119.270 Y73.820 E5.49916
G1 X118.872 Y74.216 E5.58070
G1 X118.450 Y74.594 E5.66322
G1 X118.001 Y74.950 E5.74664
G1 X117.527 Y75.279 E5.83053
G1 X117.027 Y75.579 E5.91535
G1 X116.501 Y75.852 E6.00167
G1 X115.960 Y76.092 E6.08775
G1 X115.360 Y76.319 E6.18106
G1 X114.743 Y76.514 E6.27525
G1 X114.092 Y76.686 E6.37319
G1 X113.406 Y76.835 E6.47539
G1 X112.692 Y76.962 E6.58089
G1 X111.201 Y77.160 E6.79976
G1 X109.146 Y77.328 E7.09984
G1 X107.698 Y77.373 E7.31053
G1 X107.381 Y77.360 E7.35675
G1 X107.102 Y77.318 E7.39785
G1 X106.826 Y77.215 E7.44063
G1 X106.739 Y77.159 E7.45565
G1 X106.574 Y77.003 E7.48877
G1 X106.511 Y76.915 E7.50447
G1 X106.424 Y76.721 E7.53546
G1 X106.363 Y76.442 E7.57700
G1 X106.138 Y74.318 E7.88792
G1 X105.526 Y74.092 E7.98276
G1 X104.879 Y74.686 E8.11061
G1 X104.264 Y75.146 E8.22244
G1 X103.914 Y75.363 E8.28236
G1 X103.535 Y75.564 E8.34476
G1 X103.128 Y75.739 E8.40922
G1 X102.695 Y75.879 E8.47547
G1 X102.237 Y75.974 E8.54343
G1 X101.769 Y76.012 E8.61177
G1 X101.298 Y75.997 E8.68038
G1 X100.827 Y75.933 E8.74956
G1 X100.383 Y75.829 E8.81595
G1 X99.897 Y75.670 E8.89032
G1 X99.444 Y75.477 E8.96202
G1 X99.019 Y75.257 E9.03157
G1 X98.573 Y74.981 E9.10789
G1 X98.163 Y74.684 E9.18159
G1 X97.772 Y74.359 E9.25555
G1 X97.401 Y74.010 E9.32968
G1 X97.050 Y73.640 E9.40384
G1 X96.721 Y73.253 E9.47786
G1 X96.135 Y72.449 E9.62252
G1 X95.635 Y71.601 E9.76575
G1 X95.423 Y71.169 E9.83583
G1 X95.239 Y70.732 E9.90479
G1 X95.088 Y70.292 E9.97260
G1 X94.970 Y69.849 E10.03930
G1 X94.891 Y69.404 E10.10500
G1 X94.853 Y68.959 E10.16992
G1 X94.862 Y68.517 E10.23438
G1 X94.920 Y68.080 E10.29843
G1 X95.024 Y67.660 E10.36141
G1 X95.168 Y67.259 E10.42348
G1 X95.347 Y66.878 E10.48474
G1 X95.556 Y66.518 E10.54523
G1 X95.804 Y66.165 E10.60799
G1 X96.061 Y65.855 E10.66666
G1 X96.321 Y65.583 E10.72136
G1 X96.609 Y65.324 E10.77773
G1 X96.911 Y65.084 E10.83394
G1 X97.430 Y64.725 E10.92564
G1 X97.430 Y64.166 E11.00707
G1 X96.911 Y63.808 E11.09877
G1 X96.609 Y63.568 E11.15498
G1 X96.321 Y63.308 E11.21136
G1 X96.061 Y63.037 E11.26605
G1 X95.791 Y62.709 E11.32782
G1 X95.568 Y62.392 E11.38425
G1 X95.358 Y62.035 E11.44455
G1 X95.178 Y61.656 E11.50557
G1 X95.032 Y61.257 E11.56737
G1 X94.926 Y60.839 E11.63007
G1 X94.864 Y60.405 E11.69387
G1 X94.852 Y59.960 E11.75874
G1 X94.888 Y59.512 E11.82408
G1 X94.970 Y59.043 E11.89341
G1 X95.088 Y58.600 E11.96011
G1 X95.239 Y58.159 E12.02793
G1 X95.423 Y57.722 E12.09689
G1 X95.866 Y56.875 E12.23606
G1 X96.421 Y56.029 E12.38322
G1 X96.730 Y55.627 E12.45695
G1 X97.050 Y55.251 E12.52887
G1 X97.401 Y54.881 E12.60303
G1 X97.772 Y54.532 E12.67716
G1 X98.163 Y54.207 E12.75111
G1 X98.573 Y53.910 E12.82481
G1 X99.002 Y53.645 E12.89814
G1 X99.463 Y53.405 E12.97382
G1 X99.897 Y53.222 E13.04239
G1 X100.359 Y53.069 E13.11320
G1 X100.827 Y52.958 E13.18314
G1 X101.327 Y52.892 E13.25652
G1 X101.769 Y52.879 E13.32093
G1 X102.237 Y52.918 E13.38928
G1 X102.695 Y53.012 E13.45724
G1 X103.152 Y53.162 E13.52724
G1 X103.555 Y53.337 E13.59119
G1 X103.931 Y53.538 E13.65316
G1 X104.278 Y53.755 E13.71271
G1 X104.879 Y54.206 E13.82210
G1 X105.483 Y54.759 E13.94122
G92 E0
G1 X111.445 Y66.941 F15000.000
G1 F3600
G1 X114.640 Y65.285 E0.32909
G1 X114.294 Y66.318 E0.42872
G1 X114.121 Y66.676 E0.46504
G1 X113.856 Y67.104 E0.51113
G1 X113.477 Y67.639 E0.57101
G1 X113.177 Y67.982 E0.61273
G1 X112.812 Y68.327 E0.65858
G1 X111.487 Y66.984 E0.83114
G92 E0
G1 X114.570 Y63.492 F15000.000
G1 F3600
G1 X111.439 Y61.890 E0.32162
G1 X112.532 Y61.006 E0.45017
G1 X112.803 Y60.555 E0.49823
G1 X113.177 Y60.909 E0.54527
G1 X113.434 Y61.203 E0.58095
G1 X113.692 Y61.548 E0.62041
G1 X114.099 Y62.185 E0.68949
G1 X114.333 Y62.675 E0.73918
G1 X114.553 Y63.435 E0.81149
G1 X115.148 Y63.406 F15000.000
G1 F3600
G1 X115.204 Y63.951 E0.86155
G1 X115.216 Y64.279 E0.89153
G1 X115.247 Y64.263 E0.89473
G1 X115.183 Y65.184 E0.97919
G1 X115.120 Y65.648 E1.02203
G1 X115.021 Y66.120 E1.06612
G1 X114.877 Y66.555 E1.10795
G1 X114.663 Y66.993 E1.15252
G1 X114.381 Y67.450 E1.20165
G1 X113.963 Y68.038 E1.26765
G1 X113.630 Y68.419 E1.31383
G1 X113.357 Y68.677 E1.34824
G1 X113.220 Y68.765 E1.36310
G1 X112.990 Y68.875 E1.38640
G1 X112.602 Y69.009 E1.42391
G1 X110.813 Y67.195 E1.65688
G1 X110.209 Y66.874 E1.71943
G1 X114.973 Y64.405 E2.21010
G1 X110.293 Y62.009 E2.69086
G1 X112.051 Y60.587 E2.89764
G1 X112.495 Y59.849 E2.97645
G1 X112.990 Y60.017 E3.02424
G1 X113.292 Y60.169 E3.05512
G1 X113.630 Y60.473 E3.09673
G1 X113.923 Y60.807 E3.13734
G1 X114.209 Y61.191 E3.18110
G1 X114.642 Y61.868 E3.25466
G1 X114.789 Y62.147 E3.28345
G1 X114.925 Y62.463 E3.31489
G1 X115.035 Y62.841 E3.35090
G1 X115.139 Y63.347 E3.39817
G1 X115.772 Y63.326 F15000.000
G1 F3600
G1 X115.832 Y63.908 E3.45166
G1 X115.852 Y64.502 E3.50602
G1 X115.809 Y65.249 E3.57439
G1 X115.739 Y65.756 E3.62120
G1 X115.632 Y66.267 E3.66892
G1 X115.464 Y66.781 E3.71842
G1 X115.206 Y67.310 E3.77221
G1 X114.906 Y67.795 E3.82437
G1 X114.448 Y68.438 E3.89650
G1 X114.084 Y68.855 E3.94714
G1 X113.774 Y69.147 E3.98611
G1 X113.633 Y69.250 E4.00203
G1 X113.397 Y69.382 E4.02680
G1 X113.014 Y69.537 E4.06454
G1 X112.270 Y69.748 E4.13526
G1 X112.139 Y69.434 E4.16641
G1 X110.433 Y67.705 E4.38853
G1 X108.858 Y66.866 E4.55169
G1 X113.601 Y64.408 E5.04016
G1 X108.882 Y61.993 E5.52483
G1 X109.952 Y61.477 E5.63345
G1 X111.569 Y60.168 E5.82373
G1 X112.198 Y59.124 E5.93517
G1 X113.014 Y59.354 E6.01270
G1 X113.528 Y59.578 E6.06390
G1 X113.774 Y59.744 E6.09107
G1 X114.084 Y60.037 E6.13005
G1 X114.412 Y60.412 E6.17561
G1 X114.726 Y60.833 E6.22366
G1 X115.186 Y61.552 E6.30171
G1 X115.357 Y61.875 E6.33515
G1 X115.522 Y62.262 E6.37359
G1 X115.645 Y62.688 E6.41418
G1 X115.763 Y63.267 E6.46815
G1 X116.395 Y63.246 F15000.000
G1 F3600
G1 X116.459 Y63.865 E6.52507
G1 X116.481 Y64.497 E6.58288
G1 X116.434 Y65.313 E6.65763
G1 X116.359 Y65.863 E6.70841
G1 X116.243 Y66.413 E6.75977
G1 X116.031 Y67.056 E6.82168
G1 X115.749 Y67.627 E6.87994
G1 X115.431 Y68.141 E6.93514
G1 X114.934 Y68.837 E7.01338
G1 X114.537 Y69.291 E7.06849
G1 X114.186 Y69.623 E7.11266
G1 X113.835 Y69.862 E7.15153
G1 X113.467 Y70.038 E7.18877
G1 X112.921 Y70.226 E7.24159
G1 X112.564 Y70.321 E7.27541
G1 X111.883 Y70.452 E7.33883
G1 X111.606 Y69.788 E7.40460
G1 X110.053 Y68.215 E7.60678
G1 X108.420 Y67.345 E7.77591
G1 X107.166 Y67.035 E7.89401
G1 X112.228 Y64.412 E8.41533
G1 X107.811 Y62.151 E8.86905
G1 X107.878 Y61.707 E8.91014
G1 X108.119 Y61.664 E8.93252
G1 X109.613 Y60.943 E9.08426
G1 X111.088 Y59.749 E9.25777
G1 X111.877 Y58.439 E9.39762
G1 X112.564 Y58.571 E9.46154
G1 X112.921 Y58.665 E9.49535
G1 X113.467 Y58.853 E9.54818
G1 X113.835 Y59.029 E9.58542
G1 X114.100 Y59.200 E9.61427
G1 X114.537 Y59.600 E9.66847
G1 X114.901 Y60.016 E9.71898
G1 X115.243 Y60.475 E9.77132
G1 X115.729 Y61.236 E9.85385
G1 X115.924 Y61.604 E9.89195
G1 X116.120 Y62.068 E9.93801
G1 X116.255 Y62.536 E9.98256
G1 X116.386 Y63.187 E10.04322
G1 X117.019 Y63.165 F15000.000
G1 F3600
G1 X117.086 Y63.822 E10.10357
G1 X117.109 Y64.492 E10.16482
G1 X117.060 Y65.378 E10.24596
G1 X116.978 Y65.971 E10.30072
G1 X116.855 Y66.559 E10.35570
G1 X116.605 Y67.310 E10.42806
G1 X116.291 Y67.944 E10.49275
G1 X115.956 Y68.486 E10.55099
G1 X115.419 Y69.236 E10.63536
G1 X114.991 Y69.727 E10.69493
G1 X114.475 Y70.195 E10.75862
G1 X114.142 Y70.411 E10.79487
G1 X113.706 Y70.619 E10.83908
G1 X113.097 Y70.830 E10.89801
G1 X112.711 Y70.932 E10.93450
G1 X112.294 Y71.022 E10.97348
G1 X111.493 Y71.151 E11.04769
G1 X111.073 Y70.143 E11.14759
G1 X109.673 Y68.724 E11.32984
G1 X108.194 Y67.936 E11.48308
G1 X106.675 Y67.561 E11.62616
G1 X105.788 Y67.590 E11.70726
G1 X105.662 Y67.107 E11.75291
G1 X110.856 Y64.415 E12.28782
G1 X105.858 Y61.858 E12.80112
G1 X105.925 Y61.414 E12.84221
G1 X107.924 Y61.061 E13.02779
G1 X109.274 Y60.409 E13.16493
G1 X110.607 Y59.330 E13.32167
G1 X111.558 Y57.751 E13.49022
G1 X112.307 Y57.871 E13.55956
G1 X112.711 Y57.960 E13.59741
G1 X113.097 Y58.062 E13.63390
G1 X113.706 Y58.272 E13.69283
G1 X114.142 Y58.481 E13.73704
G1 X114.475 Y58.696 E13.77329
G1 X114.991 Y59.164 E13.83698
G1 X115.390 Y59.621 E13.89244
G1 X115.760 Y60.117 E13.94907
G1 X116.273 Y60.919 E14.03609
G1 X116.491 Y61.333 E14.07885
G1 X116.718 Y61.874 E14.13253
G1 X116.866 Y62.384 E14.18103
G1 X117.009 Y63.106 E14.24839
G1 X117.642 Y63.085 F15000.000
G1 F3600
G1 X117.713 Y63.779 E14.31217
G1 X117.738 Y64.486 E14.37687
G1 X117.685 Y65.442 E14.46439
G1 X117.598 Y66.078 E14.52312
G1 X117.419 Y66.879 E14.59812
G1 X117.232 Y67.436 E14.65189
G1 X116.926 Y68.095 E14.71826
G1 X116.482 Y68.832 E14.79697
G1 X116.060 Y69.434 E14.86420
G1 X115.444 Y70.163 E14.95148
G1 X115.010 Y70.573 E15.00603
G1 X114.659 Y70.833 E15.04604
G1 X114.214 Y71.081 E15.09256
G1 X113.633 Y71.319 E15.15002
G1 X112.858 Y71.543 E15.22372
G1 X112.411 Y71.640 E15.26555
G1 X111.104 Y71.850 E15.38665
G1 X110.540 Y70.497 E15.52070
G1 X109.293 Y69.234 E15.68301
G1 X107.967 Y68.528 E15.82036
G1 X106.608 Y68.192 E15.94834
G1 X105.185 Y68.239 E16.07856
G1 X103.879 Y68.621 E16.20299
G1 X102.622 Y69.420 E16.33911
G1 X101.537 Y70.592 E16.48518
G1 X101.278 Y70.391 E16.51515
G1 X100.876 Y69.976 E16.56796
G1 X100.556 Y69.538 E16.61760
G1 X100.334 Y69.160 E16.65762
G1 X109.483 Y64.419 E17.59985
G1 X100.331 Y59.736 E18.53986
G1 X100.658 Y59.200 E18.59723
G1 X101.001 Y58.775 E18.64716
G1 X101.277 Y58.501 E18.68274
G1 X101.537 Y58.300 E18.71276
G1 X102.279 Y59.113 E18.81342
G1 X103.100 Y59.827 E18.91294
G1 X104.283 Y60.428 E19.03422
G1 X105.966 Y60.768 E19.19122
G1 X107.729 Y60.457 E19.35491
G1 X108.936 Y59.874 E19.47745
G1 X110.126 Y58.911 E19.61743
G1 X110.965 Y57.518 E19.76612
G1 X111.089 Y57.039 E19.81138
G1 X112.423 Y57.254 E19.93493
G1 X113.272 Y57.458 E20.01476
G1 X113.945 Y57.690 E20.07981
G1 X114.214 Y57.810 E20.10679
G1 X114.659 Y58.058 E20.15331
G1 X115.010 Y58.318 E20.19332
G1 X115.444 Y58.728 E20.24787
G1 X115.879 Y59.226 E20.30827
G1 X116.277 Y59.759 E20.36921
G1 X116.816 Y60.603 E20.46071
G1 X117.059 Y61.061 E20.50812
G1 X117.316 Y61.680 E20.56943
G1 X117.476 Y62.231 E20.62188
G1 X117.633 Y63.026 E20.69593
G1 X118.265 Y63.005 F15000.000
G1 F3600
G1 X118.341 Y63.736 E20.76314
G1 X118.366 Y64.481 E20.83129
G1 X118.311 Y65.506 E20.92519
G1 X118.217 Y66.186 E20.98790
G1 X118.021 Y67.061 E21.06988
G1 X117.822 Y67.655 E21.12719
G1 X117.485 Y68.382 E21.20051
G1 X117.007 Y69.177 E21.28530
G1 X116.390 Y70.035 E21.38192
G1 X115.897 Y70.599 E21.45041
G1 X115.422 Y71.048 E21.51016
G1 X115.000 Y71.361 E21.55819
G1 X114.487 Y71.648 E21.61197
G1 X113.839 Y71.913 E21.67599
G1 X113.448 Y72.037 E21.71349
G1 X112.528 Y72.258 E21.79998
G1 X111.336 Y72.450 E21.91040
G1 X110.621 Y72.528 E21.97615
G1 X110.591 Y72.254 E22.00135
G1 X110.007 Y70.851 E22.14025
G1 X108.913 Y69.743 E22.28262
G1 X107.741 Y69.119 E22.40408
G1 X106.542 Y68.823 E22.51698
G1 X105.285 Y68.864 E22.63195
G1 X104.141 Y69.199 E22.74098
G1 X103.028 Y69.906 E22.86152
G1 X102.079 Y70.931 E22.98924
G1 X101.794 Y71.179 E23.02380
G1 X101.568 Y71.329 E23.04860
G1 X101.210 Y71.134 E23.08588
G1 X100.862 Y70.864 E23.12613
G1 X100.382 Y70.366 E23.18937
G1 X100.031 Y69.883 E23.24399
G1 X99.759 Y69.422 E23.29288
G1 X99.536 Y68.929 E23.34236
G1 X100.053 Y68.598 E23.39853
G1 X108.111 Y64.422 E24.22836
G1 X100.189 Y60.369 E25.04201
G1 X99.923 Y60.218 E25.06994
G1 X99.538 Y59.959 E25.11243
G1 X99.741 Y59.501 E25.15825
G1 X100.057 Y58.964 E25.21517
G1 X100.534 Y58.354 E25.28606
G1 X100.862 Y58.028 E25.32828
G1 X101.210 Y57.758 E25.36862
G1 X101.580 Y57.556 E25.40714
G1 X102.050 Y57.931 E25.46214
G1 X102.718 Y58.662 E25.55274
G1 X103.454 Y59.302 E25.64185
G1 X104.491 Y59.829 E25.74823
G1 X105.974 Y60.129 E25.88653
G1 X107.534 Y59.853 E26.03138
G1 X108.597 Y59.340 E26.13932
G1 X109.644 Y58.492 E26.26253
G1 X110.379 Y57.272 E26.39281
G1 X110.616 Y56.363 E26.47868
G1 X111.324 Y56.440 E26.54377
G1 X112.540 Y56.636 E26.65645
G1 X113.006 Y56.738 E26.69999
G1 X113.839 Y56.979 E26.77929
G1 X114.183 Y57.109 E26.81297
G1 X114.757 Y57.384 E26.87111
G1 X115.000 Y57.530 E26.89712
G1 X115.422 Y57.843 E26.94515
G1 X115.897 Y58.292 E27.00490
G1 X116.367 Y58.830 E27.07025
G1 X116.795 Y59.402 E27.13547
G1 X117.360 Y60.286 E27.23146
G1 X117.626 Y60.790 E27.28352
G1 X117.853 Y61.316 E27.33593
G1 X118.086 Y62.079 E27.40887
G1 X118.256 Y62.945 E27.48962
G1 X118.889 Y62.924 F15000.000
G1 F3600
G1 X118.968 Y63.693 E27.56025
G1 X118.995 Y64.475 E27.63185
G1 X118.936 Y65.571 E27.73214
G1 X118.837 Y66.293 E27.79882
G1 X118.623 Y67.242 E27.88777
G1 X118.412 Y67.873 E27.94862
G1 X118.044 Y68.670 E28.02889
G1 X117.532 Y69.523 E28.11978
G1 X116.876 Y70.434 E28.22252
G1 X116.351 Y71.035 E28.29547
G1 X115.834 Y71.523 E28.36041
G1 X115.342 Y71.889 E28.41648
G1 X114.760 Y72.214 E28.47750
G1 X114.045 Y72.506 E28.54810
G1 X113.623 Y72.640 E28.58854
G1 X112.645 Y72.875 E28.68053
G1 X111.420 Y73.072 E28.79399
G1 X110.065 Y73.221 E28.91862
G1 X109.976 Y72.412 E28.99301
G1 X109.474 Y71.206 E29.11248
G1 X108.533 Y70.253 E29.23491
G1 X107.514 Y69.710 E29.34049
G1 X106.476 Y69.454 E29.43829
G1 X105.385 Y69.490 E29.53804
G1 X104.403 Y69.777 E29.63166
G1 X103.434 Y70.393 E29.73661
G1 X102.517 Y71.383 E29.86003
G1 X102.175 Y71.680 E29.90140
G1 X101.894 Y71.867 E29.93230
G1 X101.649 Y71.985 E29.95717
G1 X101.460 Y71.941 E29.97487
G1 X101.171 Y71.831 E30.00319
G1 X100.852 Y71.651 E30.03670
G1 X100.447 Y71.337 E30.08356
G1 X100.036 Y70.928 E30.13651
G1 X99.889 Y70.755 E30.15729
G1 X99.505 Y70.228 E30.21689
G1 X99.201 Y69.712 E30.27164
G1 X98.957 Y69.148 E30.32789
G1 X98.887 Y68.831 E30.35749
G1 X98.983 Y68.650 E30.37626
G1 X99.127 Y68.488 E30.39606
G1 X99.335 Y68.312 E30.42097
G1 X99.739 Y68.054 E30.46479
G1 X106.738 Y64.426 E31.18568
G1 X99.891 Y60.922 E31.88895
G1 X99.593 Y60.753 E31.92032
G1 X99.338 Y60.582 E31.94841
G1 X99.095 Y60.377 E31.97746
G1 X98.963 Y60.203 E31.99740
G1 X98.876 Y60.039 E32.01437
G1 X99.019 Y59.572 E32.05905
G1 X99.187 Y59.203 E32.09613
