; G-Code generated by Simplify3D(R) Version 4.0.1
; Oct 9, 2018 at 1:04:28 PM
; Settings Summary
;   processName,Process1
;   applyToModels,ASTM D638-10 Type V
;   profileName,MakerBot Replicator 2X(2) (modified)
;   profileVersion,2015-05-01 08:00:00
;   baseProfile,
;   printMaterial,ABS
;   printQuality,Medium
;   printExtruders,Left Extruder Only
;   extruderName,Right Extruder,Left Extruder
;   extruderToolheadNumber,0,1
;   extruderDiameter,0.4,0.4
;   extruderAutoWidth,0,0
;   extruderWidth,0.4,0.4
;   extrusionMultiplier,1,1
;   extruderUseRetract,1,1
;   extruderRetractionDistance,1,1
;   extruderExtraRestartDistance,0,0
;   extruderRetractionZLift,0,0
;   extruderRetractionSpeed,1200,1200
;   extruderUseCoasting,0,0
;   extruderCoastingDistance,0.2,0.2
;   extruderUseWipe,0,0
;   extruderWipeDistance,5,5
;   primaryExtruder,0
;   layerHeight,0.2
;   topSolidLayers,0
;   bottomSolidLayers,0
;   perimeterOutlines,0
;   printPerimetersInsideOut,1
;   startPointOption,2
;   startPointOriginX,0
;   startPointOriginY,0
;   sequentialIslands,0
;   spiralVaseMode,0
;   firstLayerHeightPercentage,90
;   firstLayerWidthPercentage,100
;   firstLayerUnderspeed,0.5
;   useRaft,1
;   raftExtruder,0
;   raftTopLayers,2
;   raftBaseLayers,2
;   raftOffset,3
;   raftSeparationDistance,0.14
;   raftTopInfill,100
;   aboveRaftSpeedMultiplier,0.3
;   useSkirt,0
;   skirtExtruder,1
;   skirtLayers,1
;   skirtOutlines,2
;   skirtOffset,4
;   usePrimePillar,0
;   primePillarExtruder,999
;   primePillarWidth,12
;   primePillarLocation,7
;   primePillarSpeedMultiplier,1
;   useOozeShield,0
;   oozeShieldExtruder,999
;   oozeShieldOffset,2
;   oozeShieldOutlines,1
;   oozeShieldSidewallShape,1
;   oozeShieldSidewallAngle,30
;   oozeShieldSpeedMultiplier,1
;   infillExtruder,0
;   internalInfillPattern,Rectilinear
;   externalInfillPattern,Rectilinear
;   infillPercentage,100
;   outlineOverlapPercentage,20
;   infillExtrusionWidthPercentage,100
;   minInfillLength,5
;   infillLayerInterval,1
;   internalInfillAngles,0
;   overlapInternalInfillAngles,0
;   externalInfillAngles,45,-45
;   generateSupport,0
;   supportExtruder,1
;   supportInfillPercentage,30
;   supportExtraInflation,0
;   supportBaseLayers,0
;   denseSupportExtruder,1
;   denseSupportLayers,0
;   denseSupportInfillPercentage,70
;   supportLayerInterval,1
;   supportHorizontalPartOffset,0.3
;   supportUpperSeparationLayers,1
;   supportLowerSeparationLayers,1
;   supportType,0
;   supportGridSpacing,4
;   maxOverhangAngle,45
;   supportAngles,0
;   temperatureName,Right Extruder,Left Extruder,Heated Build Platform
;   temperatureNumber,0,1,0
;   temperatureSetpointCount,1,1,1
;   temperatureSetpointLayers,1,1,1
;   temperatureSetpointTemperatures,230,0,120
;   temperatureStabilizeAtStartup,0,0,0
;   temperatureHeatedBed,0,0,1
;   temperatureRelayBetweenLayers,0,0,0
;   temperatureRelayBetweenLoops,0,0,0
;   fanLayers,1
;   fanSpeeds,0
;   blipFanToFullPower,0
;   adjustSpeedForCooling,1
;   minSpeedLayerTime,15
;   minCoolingSpeedSlowdown,20
;   increaseFanForCooling,0
;   minFanLayerTime,45
;   maxCoolingFanSpeed,100
;   increaseFanForBridging,0
;   bridgingFanSpeed,100
;   use5D,1
;   relativeEdistances,1
;   allowEaxisZeroing,0
;   independentExtruderAxes,1
;   includeM10123,0
;   stickySupport,1
;   applyToolheadOffsets,0
;   gcodeXoffset,0
;   gcodeYoffset,0
;   gcodeZoffset,0
;   overrideMachineDefinition,1
;   machineTypeOverride,0
;   strokeXoverride,250
;   strokeYoverride,150
;   strokeZoverride,150
;   originOffsetXoverride,125
;   originOffsetYoverride,75
;   originOffsetZoverride,0
;   homeXdirOverride,1
;   homeYdirOverride,1
;   homeZdirOverride,-1
;   flipXoverride,1
;   flipYoverride,-1
;   flipZoverride,1
;   toolheadOffsets,0,0|33,0|0,0|0,0|0,0|0,0
;   overrideFirmwareConfiguration,1
;   firmwareTypeOverride,MakerBot/Sailfish Firmware
;   GPXconfigOverride,r2x
;   baudRateOverride,115200
;   overridePrinterModels,1
;   printerModelsOverride,MakerBot_Replicator2X.stl
;   startingGcode,; **** Replicator 2X start.gcode ****,M73 P0 ; Enable build progress,G162 X Y F3000 ; Home XY maximum,G161 Z F1200 ; Home Z minimum,G92 Z-5 ; Set Z to -5,G1 Z0 ; Move Z to 0,G161 Z F100 ; Home Z slowly,M132 X Y Z A B ; Recall home offsets,M135 T0 ; Load right extruder offsets,G1 X-130 Y-75 Z30 F9000 ; Move to wait position off table,G130 X20 Y20 Z20 A20 B20 ; Lower stepper Vrefs while heating,M126 S[fan_speed_pwm] ; Set fan speed,M140 S[bed0_temperature] T0 ; Heat buildplate,M134 T0 ; Stabilize bed temperature,M104 S[extruder1_temperature] T1 ; Heat left extruder,M133 T1 ; Stabilize left extruder temperature,G130 X127 Y127 Z40 A127 B127 ; Default stepper Vrefs,G92 A0 B0 ; Zero extruders,M135 T1 ; Load left extruder offsets,G1 X-100 Y-65 F9000 ; Move to front left corner of bed,G1 Z0.3 F6000 ; Move down to purge,G1 X90 Y-65 E24 F2000 ; Extrude a line of filament across the front edge of the bed,G1 X100 Y-65 F180 ; Wait for ooze,G1 X110 Y-65 F5000 ; Fast wipe,G1 Z1 F100 ; Lift,G92 A0 B0 ; zero extruders,M73 P1 ;@body (notify GPX body has started),; **** end of start.gcode ****
;   layerChangeGcode,
;   retractionGcode,
;   toolChangeGcode,
;   endingGcode,; **** Replicator 2X end.gcode ****,M73 P100 ; end build progress,G1 Z155 F1000 ; send Z axis to bottom of machine,M140 S0 T0 ; cool down HBP,M104 S0 T0 ; cool down right extruder,M104 S0 T1 ; cool down left extruder,M127 ; stop blower fan,G162 X Y F3000 ; home XY maximum,M18 ; disable stepper,M72 P1 ; play Ta-Da song,; **** end of end.gcode ****
;   exportFileFormat,x3g
;   celebration,0
;   celebrationSong,Random Song
;   postProcessing,
;   defaultSpeed,600
;   outlineUnderspeed,0.5
;   solidInfillUnderspeed,0.8
;   supportUnderspeed,0.8
;   rapidXYspeed,3600
;   rapidZspeed,1200
;   minBridgingArea,50
;   bridgingExtraInflation,0
;   bridgingExtrusionMultiplier,1
;   bridgingSpeedMultiplier,0.8
;   useFixedBridgingAngle,0
;   fixedBridgingAngle,0
;   applyBridgingToPerimeters,0
;   filamentDiameters,1|1|1.75|1.75|1.75|1.75
;   filamentPricesPerKg,46|46|46|46|46|46
;   filamentDensities,1.25|1.25|1.25|1.25|1.25|1.25
;   useMinPrintHeight,0
;   minPrintHeight,0
;   useMaxPrintHeight,0
;   maxPrintHeight,0
;   useDiaphragm,0
;   diaphragmLayerInterval,20
;   robustSlicing,1
;   mergeAllIntoSolid,0
;   onlyRetractWhenCrossingOutline,1
;   retractBetweenLayers,1
;   useRetractionMinTravel,0
;   retractionMinTravel,3
;   retractWhileWiping,0
;   onlyWipeOutlines,1
;   avoidCrossingOutline,0
;   maxMovementDetourFactor,3
;   toolChangeRetractionDistance,12
;   toolChangeExtraRestartDistance,-0.5
;   toolChangeRetractionSpeed,600
;   externalThinWallType,0
;   internalThinWallType,2
;   thinWallAllowedOverlapPercentage,10
;   singleExtrusionMinLength,1
;   singleExtrusionMinPrintingWidthPercentage,50
;   singleExtrusionMaxPrintingWidthPercentage,200
;   singleExtrusionEndpointExtension,0.2
;   horizontalSizeCompensation,0
G90
M83
; **** Replicator 2X start.gcode ****
M73 P0 ; Enable build progress
G162 X Y F3000 ; Home XY maximum
G161 Z F1200 ; Home Z minimum
G92 Z-5 ; Set Z to -5
G1 Z0 ; Move Z to 0
G161 Z F100 ; Home Z slowly
M132 X Y Z A B ; Recall home offsets
M135 T0 ; Load right extruder offsets
G1 X-130 Y-75 Z30 F9000 ; Move to wait position off table
G130 X20 Y20 Z20 A20 B20 ; Lower stepper Vrefs while heating
M127 ; Set fan speed
M140 S120 T0 ; Heat buildplate
M134 T0 ; Stabilize bed temperature
M104 S0 T1 ; Heat left extruder
G130 X127 Y127 Z40 A127 B127 ; Default stepper Vrefs
G92 A0 B0 ; Zero extruders
M135 T1 ; Load left extruder offsets
G1 X-100 Y-65 F9000 ; Move to front left corner of bed
G1 Z0.3 F6000 ; Move down to purge
G1 X90 Y-65 E24 F2000 ;  a line of filament across the front edge of the bed
G1 X100 Y-65 F180 ; Wait for ooze
G1 X110 Y-65 F5000 ; Fast wipe
G1 Z1 F100 ; Lift
G92 A0 B0 ; zero extruders
M73 P1 ;@body (notify GPX body has started)
; **** end of start.gcode ****
G1 E-1.0000 F1200
G1 Z0.450 F1200
; process Process1
; layer 1, Z = 0.450
M104 S230 T0
M135 T0
; tool H0.500 W0.800
; raft
G1 X2.356 Y4.323 F3600
G1 E1.0000 F360
G1 X-2.356 Y4.323 E2.3999 F75
G1 X-3.630 Y4.407 E0.6504
G1 X-4.805 Y4.640 E0.6099
G1 X-6.028 Y5.052 E0.6576
G1 X-12.398 Y7.667 E3.5064
G1 X-12.896 Y7.765 E0.2587
G1 X-32.827 Y7.765 E10.1507
G1 X-34.350 Y6.242 E1.0970
G1 X-34.350 Y-6.242 E6.3578
G1 X-32.827 Y-7.765 E1.0970
G1 X-12.896 Y-7.765 E10.1507
G1 X-12.398 Y-7.667 E0.2587
G1 X-6.028 Y-5.052 E3.5064
G1 X-4.805 Y-4.640 E0.6576
G1 X-3.630 Y-4.407 E0.6099
G1 X-2.356 Y-4.323 E0.6504
G1 X2.356 Y-4.323 E2.3999
G1 X3.630 Y-4.407 E0.6504
G1 X4.805 Y-4.640 E0.6099
G1 X6.028 Y-5.052 E0.6575
G1 X12.398 Y-7.667 E3.5065
G1 X12.896 Y-7.765 E0.2587
G1 X32.827 Y-7.765 E10.1507
G1 X34.350 Y-6.242 E1.0970
G1 X34.350 Y6.242 E6.3578
G1 X32.827 Y7.765 E1.0970
G1 X12.896 Y7.765 E10.1507
G1 X12.398 Y7.667 E0.2587
G1 X6.028 Y5.052 E3.5065
G1 X4.805 Y4.640 E0.6575
G1 X3.630 Y4.407 E0.6099
G1 X2.356 Y4.323 E0.6504
G1 E-1.0000 F1200
G1 X6.964 Y-4.571 F3600
G1 E1.0000 F1200
G1 X33.550 Y-4.571 E13.5404 F75
G1 X33.550 Y-5.910 E0.6819
G1 X32.603 Y-6.857 E0.6819
G1 X12.533 Y-6.857 E10.2218
G1 E-1.0000 F1200
G1 X12.533 Y6.857 F3600
G1 E1.0000 F1200
G1 X32.603 Y6.857 E10.2218 F75
G1 E-1.0000 F1200
G1 X-12.533 Y6.857 F3600
G1 E1.0000 F1200
G1 X-32.603 Y6.857 E10.2218 F75
G1 X-33.550 Y5.910 E0.6819
G1 X-33.550 Y4.571 E0.6819
G1 X-6.964 Y4.571 E13.5404
G1 X-6.308 Y4.303 E0.3607
G1 X-5.011 Y3.865 E0.6971
G1 X-3.735 Y3.612 E0.6629
G1 X-2.382 Y3.523 E0.6903
G1 X2.382 Y3.523 E2.4265
G1 X3.735 Y3.612 E0.6903
G1 X5.011 Y3.865 E0.6629
G1 X6.308 Y4.303 E0.6970
G1 X6.964 Y4.571 E0.3607
G1 X33.550 Y4.571 E13.5404
G1 X33.550 Y2.286 E1.1641
G1 X-33.550 Y2.286 E34.1737
G1 X-33.550 Y0.000 E1.1641
G1 X33.550 Y0.000 E34.1737
G1 X33.550 Y-2.286 E1.1641
G1 X-33.550 Y-2.286 E34.1737
G1 X-33.550 Y-4.571 E1.1641
G1 X-6.964 Y-4.571 E13.5404
G1 X-12.533 Y-6.857 E3.0660
G1 X-32.603 Y-6.857 E10.2218
G1 E-1.0000 F1200
; layer 2, Z = 0.950
G1 X-32.827 Y-7.765 F3600
G1 Z0.950 F1200
G1 E1.0000 F1200
G1 X-12.896 Y-7.765 E10.1507 F150
G1 X-12.398 Y-7.667 E0.2587
G1 X-6.028 Y-5.052 E3.5064
G1 X-4.805 Y-4.640 E0.6576
G1 X-3.630 Y-4.407 E0.6099
G1 X-2.356 Y-4.323 E0.6504
G1 X2.356 Y-4.323 E2.3999
G1 X3.630 Y-4.407 E0.6504
G1 X4.805 Y-4.640 E0.6099
G1 X6.028 Y-5.052 E0.6575
G1 X12.398 Y-7.667 E3.5065
G1 X12.896 Y-7.765 E0.2587
G1 X32.827 Y-7.765 E10.1507
G1 X34.350 Y-6.242 E1.0970
G1 X34.350 Y6.242 E6.3578
G1 X32.827 Y7.765 E1.0970
G1 X12.896 Y7.765 E10.1507
G1 X12.398 Y7.667 E0.2587
G1 X6.028 Y5.052 E3.5065
G1 X4.805 Y4.640 E0.6575
G1 X3.630 Y4.407 E0.6099
G1 X2.356 Y4.323 E0.6504
G1 X-2.356 Y4.323 E2.3999
G1 X-3.630 Y4.407 E0.6504
G1 X-4.805 Y4.640 E0.6099
G1 X-6.028 Y5.052 E0.6576
G1 X-12.398 Y7.667 E3.5064
G1 X-12.896 Y7.765 E0.2587
G1 X-32.827 Y7.765 E10.1507
G1 X-34.350 Y6.242 E1.0970
G1 X-34.350 Y-6.242 E6.3578
G1 X-32.827 Y-7.765 E1.0970
G1 E-1.0000 F1200
G1 X-32.603 Y-6.857 F3600
G1 E1.0000 F1200
G1 X-12.533 Y-6.857 E10.2218 F150
G1 X-6.964 Y-4.571 E3.0660
G1 X-33.550 Y-4.571 E13.5404
G1 X-33.550 Y-2.286 E1.1641
G1 X33.550 Y-2.286 E34.1737
G1 X33.550 Y0.000 E1.1641
G1 X-33.550 Y0.000 E34.1737
G1 X-33.550 Y2.286 E1.1641
G1 X33.550 Y2.286 E34.1737
G1 X33.550 Y4.571 E1.1641
G1 X6.964 Y4.571 E13.5404
G1 X6.308 Y4.303 E0.3607
G1 X5.011 Y3.865 E0.6970
G1 X3.735 Y3.612 E0.6629
G1 X2.382 Y3.523 E0.6903
G1 X-2.382 Y3.523 E2.4265
G1 X-3.735 Y3.612 E0.6903
G1 X-5.011 Y3.865 E0.6629
G1 X-6.308 Y4.303 E0.6971
G1 X-6.964 Y4.571 E0.3607
G1 X-33.550 Y4.571 E13.5404
G1 X-33.550 Y5.910 E0.6819
G1 X-32.603 Y6.857 E0.6819
G1 X-12.533 Y6.857 E10.2218
G1 E-1.0000 F1200
G1 X6.964 Y-4.571 F3600
G1 E1.0000 F1200
G1 X33.550 Y-4.571 E13.5404 F150
G1 X33.550 Y-5.910 E0.6819
G1 X32.603 Y-6.857 E0.6819
G1 X12.533 Y-6.857 E10.2218
G1 E-1.0000 F1200
G1 X12.533 Y6.857 F3600
G1 E1.0000 F1200
G1 X32.603 Y6.857 E10.2218 F150
G1 E-1.0000 F1200
; layer 3, Z = 1.172
; tool H0.222 W0.400
G1 X32.765 Y-7.965 F3600
G1 Z1.172 F1200
G1 E1.0000 F1200
G1 X34.550 Y-6.179 E0.2858 F450
G1 X34.550 Y-5.614 E0.0640
G1 X32.199 Y-7.965 E0.3763
G1 X31.633 Y-7.965 E0.0640
G1 X34.550 Y-5.048 E0.4669
G1 X34.550 Y-4.482 E0.0640
G1 X31.068 Y-7.965 E0.5574
G1 X30.502 Y-7.965 E0.0640
G1 X34.550 Y-3.917 E0.6479
G1 X34.550 Y-3.351 E0.0640
G1 X29.936 Y-7.965 E0.7385
G1 X29.370 Y-7.965 E0.0640
G1 X34.550 Y-2.785 E0.8290
G1 X34.550 Y-2.220 E0.0640
G1 X28.805 Y-7.965 E0.9196
G1 X28.239 Y-7.965 E0.0640
G1 X34.550 Y-1.654 E1.0101
G1 X34.550 Y-1.088 E0.0640
G1 X27.673 Y-7.965 E1.1006
G1 X27.108 Y-7.965 E0.0640
G1 X34.550 Y-0.523 E1.1912
G1 X34.550 Y0.043 E0.0640
G1 X26.542 Y-7.965 E1.2817
G1 X25.976 Y-7.965 E0.0640
G1 X34.550 Y0.609 E1.3723
G1 X34.550 Y1.175 E0.0640
G1 X25.411 Y-7.965 E1.4628
G1 X24.845 Y-7.965 E0.0640
G1 X34.550 Y1.740 E1.5533
G1 X34.550 Y2.306 E0.0640
G1 X24.279 Y-7.965 E1.6439
G1 X23.714 Y-7.965 E0.0640
G1 X34.550 Y2.872 E1.7344
G1 X34.550 Y3.437 E0.0640
G1 X23.148 Y-7.965 E1.8250
G1 X22.582 Y-7.965 E0.0640
G1 X34.550 Y4.003 E1.9155
G1 X34.550 Y4.569 E0.0640
G1 X22.017 Y-7.965 E2.0061
G1 X21.451 Y-7.965 E0.0640
G1 X34.550 Y5.134 E2.0966
G1 X34.550 Y5.700 E0.0640
G1 X20.885 Y-7.965 E2.1871
G1 X20.320 Y-7.965 E0.0640
G1 X34.550 Y6.266 E2.2777
G1 X34.550 Y6.325 E0.0067
G1 X34.297 Y6.578 E0.0406
G1 X19.754 Y-7.965 E2.3277
G1 X19.188 Y-7.965 E0.0640
G1 X34.014 Y6.861 E2.3729
G1 X33.731 Y7.144 E0.0453
G1 X18.622 Y-7.965 E2.4182
G1 X18.057 Y-7.965 E0.0640
G1 X33.448 Y7.427 E2.4635
G1 X33.165 Y7.709 E0.0453
G1 X17.491 Y-7.965 E2.5087
G1 X16.925 Y-7.965 E0.0640
G1 X32.855 Y7.965 E2.5496
G1 X32.289 Y7.965 E0.0640
G1 X16.360 Y-7.965 E2.5496
G1 X15.794 Y-7.965 E0.0640
G1 X31.724 Y7.965 E2.5496
G1 X31.158 Y7.965 E0.0640
G1 X15.228 Y-7.965 E2.5496
G1 X14.663 Y-7.965 E0.0640
G1 X30.592 Y7.965 E2.5496
G1 X30.027 Y7.965 E0.0640
G1 X14.097 Y-7.965 E2.5496
G1 X13.531 Y-7.965 E0.0640
G1 X29.461 Y7.965 E2.5496
G1 X28.895 Y7.965 E0.0640
G1 X12.966 Y-7.965 E2.5496
G1 X12.876 Y-7.965 E0.0101
G1 X12.478 Y-7.886 E0.0459
G1 X28.329 Y7.965 E2.5371
G1 X27.764 Y7.965 E0.0640
G1 X12.056 Y-7.743 E2.5141
G1 X11.655 Y-7.578 E0.0491
G1 X27.198 Y7.965 E2.4877
G1 X26.632 Y7.965 E0.0640
G1 X11.254 Y-7.413 E2.4614
G1 X10.853 Y-7.249 E0.0491
G1 X26.067 Y7.965 E2.4350
G1 X25.501 Y7.965 E0.0640
G1 X10.452 Y-7.084 E2.4087
G1 X10.051 Y-6.920 E0.0491
G1 X24.935 Y7.965 E2.3823
G1 X24.370 Y7.965 E0.0640
G1 X9.650 Y-6.755 E2.3560
G1 X9.249 Y-6.590 E0.0491
G1 X23.804 Y7.965 E2.3296
G1 X23.238 Y7.965 E0.0640
G1 X8.848 Y-6.426 E2.3033
G1 X8.447 Y-6.261 E0.0491
G1 X22.673 Y7.965 E2.2769
G1 X22.107 Y7.965 E0.0640
G1 X8.046 Y-6.096 E2.2506
G1 X7.645 Y-5.932 E0.0491
G1 X21.541 Y7.965 E2.2242
G1 X20.976 Y7.965 E0.0640
G1 X7.244 Y-5.767 E2.1979
G1 X6.842 Y-5.603 E0.0491
G1 X20.410 Y7.965 E2.1716
G1 X19.844 Y7.965 E0.0640
G1 X6.441 Y-5.438 E2.1452
G1 X6.040 Y-5.273 E0.0491
G1 X19.278 Y7.965 E2.1189
G1 X18.713 Y7.965 E0.0640
G1 X5.622 Y-5.126 E2.0953
G1 X5.199 Y-4.984 E0.0505
G1 X18.147 Y7.965 E2.0725
G1 X17.581 Y7.965 E0.0640
G1 X4.776 Y-4.841 E2.0496
G1 X4.753 Y-4.833 E0.0027
G1 X4.306 Y-4.745 E0.0516
G1 X17.016 Y7.965 E2.0342
G1 X16.450 Y7.965 E0.0640
G1 X3.834 Y-4.651 E2.0193
G1 X3.604 Y-4.606 E0.0265
G1 X3.332 Y-4.588 E0.0309
G1 X15.884 Y7.965 E2.0091
G1 X15.319 Y7.965 E0.0640
G1 X2.801 Y-4.553 E2.0035
G1 X2.350 Y-4.523 E0.0512
G1 X2.265 Y-4.523 E0.0096
G1 X14.753 Y7.965 E1.9988
G1 X14.187 Y7.965 E0.0640
G1 X1.699 Y-4.523 E1.9988
G1 X1.133 Y-4.523 E0.0640
G1 X13.622 Y7.965 E1.9988
G1 X13.056 Y7.965 E0.0640
G1 X0.568 Y-4.523 E1.9988
G1 X0.002 Y-4.523 E0.0640
G1 X12.395 Y7.870 E1.9836
G1 X12.340 Y7.859 E0.0064
G1 X11.456 Y7.496 E0.1081
G1 X-0.564 Y-4.523 E1.9238
G1 X-1.129 Y-4.523 E0.0640
G1 X10.497 Y7.102 E1.8608
G1 X9.537 Y6.709 E0.1174
G1 X-1.695 Y-4.523 E1.7978
G1 X-2.261 Y-4.523 E0.0640
G1 X8.578 Y6.315 E1.7347
G1 X7.618 Y5.921 E0.1174
G1 X-2.860 Y-4.557 E1.6770
G1 X-3.465 Y-4.596 E0.0687
G1 X6.659 Y5.527 E1.6204
G1 X5.958 Y5.240 E0.0857
G1 X5.728 Y5.162 E0.0275
G1 X-4.148 Y-4.713 E1.5806
G1 X-4.753 Y-4.833 E0.0699
G1 X-4.874 Y-4.874 E0.0144
