; generated by Slic3r 1.3.1-dev on 2019-07-12 at 15:18:43

; external perimeters extrusion width = 0.44mm (3.04mm^3/s)
; perimeters extrusion width = 0.40mm (6.04mm^3/s)
; infill extrusion width = 0.48mm (10.05mm^3/s)
; solid infill extrusion width = 0.48mm (3.02mm^3/s)
; top infill extrusion width = 0.45mm (2.22mm^3/s)

M104 S230 ; set temperature
G28 ; home all axes
G1 X150 Y150 Z50 F10000
; Filament gcode
; layer 1
M109 S230 ; set temperature and wait for it to be reached
G21 ; set units to millimeters
G90 ; use absolute coordinates
M82 ; use absolute distances for extrusion
G92 E0
G92 E0
G1 Z0.300 F15000.000
G1 X63.674 Y51.295 F15000.000
G1 F3600
G1 X63.990 Y50.979 E0.05573
G1 X84.437 Y50.979 E2.60597
G1 X84.753 Y51.295 E2.66171
G1 X84.753 Y71.742 E5.21195
G1 X84.437 Y72.058 E5.26768
G1 X63.990 Y72.058 E7.81792
G1 X63.674 Y71.742 E7.87365
G1 X63.674 Y51.355 E10.41641
G92 E0
G1 X64.423 Y54.383 F15000.000
G1 F3600
G1 X64.847 Y54.883 E0.04382
G1 X64.999 Y55.257 E0.07078
G1 X65.033 Y55.631 E0.09585
G1 X64.985 Y56.005 E0.12103
G1 X64.862 Y56.378 E0.14732
G1 X64.645 Y56.752 E0.17620
G1 X64.423 Y56.999 E0.19838
G1 X64.423 Y60.365 E0.42323
G1 X64.847 Y60.865 E0.46704
G1 X64.999 Y61.238 E0.49400
G1 X65.033 Y61.612 E0.51908
G1 X64.985 Y61.986 E0.54425
G1 X64.862 Y62.360 E0.57055
G1 X64.645 Y62.734 E0.59943
G1 X64.423 Y62.980 E0.62160
G92 E0
G1 X64.423 Y66.346 F15000.000
G1 F3600
G1 X64.847 Y66.846 E0.04382
G1 X64.999 Y67.220 E0.07078
G1 X65.033 Y67.594 E0.09585
G1 X64.985 Y67.968 E0.12103
G1 X64.862 Y68.342 E0.14732
G1 X64.645 Y68.715 E0.17620
G1 X64.423 Y68.962 E0.19838
G1 X66.388 Y71.309 E0.40286
G1 X66.432 Y70.959 E0.42647
G1 X66.555 Y70.585 E0.45276
G1 X66.772 Y70.211 E0.48164
G1 X67.109 Y69.837 E0.51526
G1 X67.520 Y69.463 E0.55237
G1 X67.838 Y69.089 E0.58515
G1 X67.990 Y68.715 E0.61211
G1 X68.023 Y68.342 E0.63718
G1 X67.976 Y67.968 E0.66236
G1 X67.853 Y67.594 E0.68865
G1 X67.636 Y67.220 E0.71753
G1 X67.299 Y66.846 E0.75115
G1 X66.888 Y66.472 E0.78826
G1 X66.570 Y66.099 E0.82104
G1 X66.418 Y65.725 E0.84800
G1 X66.385 Y65.351 E0.87307
G1 X66.432 Y64.977 E0.89825
G1 X66.555 Y64.603 E0.92454
G1 X66.772 Y64.229 E0.95342
G1 X67.109 Y63.855 E0.98705
G1 X67.520 Y63.482 E1.02415
G1 X67.838 Y63.108 E1.05693
G1 X67.990 Y62.734 E1.08389
G1 X68.023 Y62.360 E1.10897
G1 X67.976 Y61.986 E1.13414
G1 X67.853 Y61.612 E1.16044
G1 X67.636 Y61.238 E1.18932
G1 X67.299 Y60.865 E1.22294
G1 X66.888 Y60.491 E1.26005
G1 X66.570 Y60.117 E1.29282
G1 X66.418 Y59.743 E1.31979
G1 X66.385 Y59.369 E1.34486
G1 X66.432 Y58.995 E1.37004
G1 X66.555 Y58.622 E1.39633
G1 X66.772 Y58.248 E1.42521
G1 X67.109 Y57.874 E1.45883
G1 X67.520 Y57.500 E1.49594
G1 X67.838 Y57.126 E1.52872
G1 X67.990 Y56.752 E1.55568
G1 X68.023 Y56.378 E1.58075
G1 X67.976 Y56.005 E1.60593
G1 X67.853 Y55.631 E1.63222
G1 X67.636 Y55.257 E1.66110
G1 X67.299 Y54.883 E1.69472
G1 X66.888 Y54.509 E1.73183
G1 X66.570 Y54.135 E1.76461
G1 X66.418 Y53.762 E1.79157
G1 X66.385 Y53.388 E1.81665
G1 X66.432 Y53.014 E1.84182
G1 X66.555 Y52.640 E1.86811
G1 X66.772 Y52.266 E1.89699
G1 X67.109 Y51.892 E1.93062
G1 X67.290 Y51.728 E1.94694
G1 X69.701 Y51.728 E2.10799
G1 X69.561 Y51.892 E2.12240
G1 X69.409 Y52.266 E2.14936
G1 X69.375 Y52.640 E2.17444
G1 X69.423 Y53.014 E2.19961
G1 X69.546 Y53.388 E2.22591
G1 X69.763 Y53.762 E2.25479
G1 X70.100 Y54.135 E2.28841
G1 X70.511 Y54.509 E2.32552
G1 X70.829 Y54.883 E2.35829
G1 X70.981 Y55.257 E2.38526
G1 X71.014 Y55.631 E2.41033
G1 X70.967 Y56.005 E2.43551
G1 X70.844 Y56.378 E2.46180
G1 X70.626 Y56.752 E2.49068
G1 X70.290 Y57.126 E2.52430
G1 X69.879 Y57.500 E2.56141
G1 X69.561 Y57.874 E2.59419
G1 X69.409 Y58.248 E2.62115
G1 X69.375 Y58.622 E2.64622
G1 X69.423 Y58.995 E2.67140
G1 X69.546 Y59.369 E2.69769
G1 X69.763 Y59.743 E2.72657
G1 X70.100 Y60.117 E2.76019
G1 X70.511 Y60.491 E2.79730
G1 X70.829 Y60.865 E2.83008
G1 X70.981 Y61.238 E2.85704
G1 X71.014 Y61.612 E2.88212
G1 X70.967 Y61.986 E2.90729
G1 X70.844 Y62.360 E2.93358
G1 X70.626 Y62.734 E2.96246
G1 X70.290 Y63.108 E2.99609
G1 X69.879 Y63.482 E3.03320
G1 X69.561 Y63.855 E3.06597
G1 X69.409 Y64.229 E3.09293
G1 X69.375 Y64.603 E3.11801
G1 X69.423 Y64.977 E3.14319
G1 X69.546 Y65.351 E3.16948
G1 X69.763 Y65.725 E3.19836
G1 X70.100 Y66.099 E3.23198
G1 X70.511 Y66.472 E3.26909
G1 X70.829 Y66.846 E3.30187
G1 X70.981 Y67.220 E3.32883
G1 X71.014 Y67.594 E3.35390
G1 X70.967 Y67.968 E3.37908
G1 X70.844 Y68.342 E3.40537
G1 X70.626 Y68.715 E3.43425
G1 X70.290 Y69.089 E3.46787
G1 X69.879 Y69.463 E3.50498
G1 X69.561 Y69.837 E3.53776
G1 X69.409 Y70.211 E3.56472
G1 X69.375 Y70.585 E3.58980
G1 X69.423 Y70.959 E3.61497
G1 X69.538 Y71.309 E3.63962
G1 X72.369 Y71.309 E3.82874
G1 X72.414 Y70.959 E3.85234
G1 X72.537 Y70.585 E3.87863
G1 X72.754 Y70.211 E3.90751
G1 X73.091 Y69.837 E3.94113
G1 X73.502 Y69.463 E3.97824
G1 X73.819 Y69.089 E4.01102
G1 X73.971 Y68.715 E4.03798
G1 X74.005 Y68.342 E4.06305
G1 X73.957 Y67.968 E4.08823
G1 X73.834 Y67.594 E4.11452
G1 X73.617 Y67.220 E4.14340
G1 X73.280 Y66.846 E4.17702
G1 X72.869 Y66.472 E4.21413
G1 X72.552 Y66.099 E4.24691
G1 X72.400 Y65.725 E4.27387
G1 X72.366 Y65.351 E4.29895
G1 X72.414 Y64.977 E4.32412
G1 X72.537 Y64.603 E4.35041
G1 X72.754 Y64.229 E4.37929
G1 X73.091 Y63.855 E4.41292
G1 X73.502 Y63.482 E4.45003
G1 X73.819 Y63.108 E4.48280
G1 X73.971 Y62.734 E4.50976
G1 X74.005 Y62.360 E4.53484
G1 X73.957 Y61.986 E4.56002
G1 X73.834 Y61.612 E4.58631
G1 X73.617 Y61.238 E4.61519
G1 X73.280 Y60.865 E4.64881
G1 X72.869 Y60.491 E4.68592
G1 X72.552 Y60.117 E4.71870
G1 X72.400 Y59.743 E4.74566
G1 X72.366 Y59.369 E4.77073
G1 X72.414 Y58.995 E4.79591
G1 X72.537 Y58.622 E4.82220
G1 X72.754 Y58.248 E4.85108
G1 X73.091 Y57.874 E4.88470
G1 X73.502 Y57.500 E4.92181
G1 X73.819 Y57.126 E4.95459
G1 X73.971 Y56.752 E4.98155
G1 X74.005 Y56.378 E5.00662
G1 X73.957 Y56.005 E5.03180
G1 X73.834 Y55.631 E5.05809
G1 X73.617 Y55.257 E5.08697
G1 X73.280 Y54.883 E5.12060
G1 X72.869 Y54.509 E5.15770
G1 X72.552 Y54.135 E5.19048
G1 X72.400 Y53.762 E5.21744
G1 X72.366 Y53.388 E5.24252
G1 X72.414 Y53.014 E5.26769
G1 X72.537 Y52.640 E5.29399
G1 X72.754 Y52.266 E5.32287
G1 X73.091 Y51.892 E5.35649
G1 X73.272 Y51.728 E5.37281
G1 X75.682 Y51.728 E5.53386
G1 X75.542 Y51.892 E5.54827
G1 X75.390 Y52.266 E5.57523
G1 X75.357 Y52.640 E5.60031
G1 X75.405 Y53.014 E5.62549
G1 X75.528 Y53.388 E5.65178
G1 X75.745 Y53.762 E5.68066
G1 X76.082 Y54.135 E5.71428
G1 X76.492 Y54.509 E5.75139
G1 X76.810 Y54.883 E5.78417
G1 X76.962 Y55.257 E5.81113
G1 X76.996 Y55.631 E5.83620
G1 X76.948 Y56.005 E5.86138
G1 X76.825 Y56.378 E5.88767
G1 X76.608 Y56.752 E5.91655
G1 X76.271 Y57.126 E5.95017
G1 X75.860 Y57.500 E5.98728
G1 X75.542 Y57.874 E6.02006
G1 X75.390 Y58.248 E6.04702
G1 X75.357 Y58.622 E6.07209
G1 X75.405 Y58.995 E6.09727
G1 X75.528 Y59.369 E6.12356
G1 X75.745 Y59.743 E6.15244
G1 X76.082 Y60.117 E6.18607
G1 X76.492 Y60.491 E6.22317
G1 X76.810 Y60.865 E6.25595
G1 X76.962 Y61.238 E6.28291
G1 X76.996 Y61.612 E6.30799
G1 X76.948 Y61.986 E6.33316
G1 X76.825 Y62.360 E6.35946
G1 X76.608 Y62.734 E6.38834
G1 X76.271 Y63.108 E6.42196
G1 X75.860 Y63.482 E6.45907
G1 X75.542 Y63.855 E6.49184
G1 X75.390 Y64.229 E6.51881
G1 X75.357 Y64.603 E6.54388
G1 X75.405 Y64.977 E6.56906
G1 X75.528 Y65.351 E6.59535
G1 X75.745 Y65.725 E6.62423
G1 X76.082 Y66.099 E6.65785
G1 X76.492 Y66.472 E6.69496
G1 X76.810 Y66.846 E6.72774
G1 X76.962 Y67.220 E6.75470
G1 X76.996 Y67.594 E6.77977
G1 X76.948 Y67.968 E6.80495
G1 X76.825 Y68.342 E6.83124
G1 X76.608 Y68.715 E6.86012
G1 X76.271 Y69.089 E6.89374
G1 X75.860 Y69.463 E6.93085
G1 X75.542 Y69.837 E6.96363
G1 X75.390 Y70.211 E6.99059
G1 X75.357 Y70.585 E7.01567
G1 X75.405 Y70.959 E7.04084
G1 X75.520 Y71.309 E7.06549
G1 X78.351 Y71.309 E7.25461
G1 X78.395 Y70.959 E7.27821
G1 X78.518 Y70.585 E7.30450
G1 X78.735 Y70.211 E7.33338
G1 X79.072 Y69.837 E7.36700
G1 X79.483 Y69.463 E7.40411
G1 X79.801 Y69.089 E7.43689
G1 X79.953 Y68.715 E7.46385
G1 X79.986 Y68.342 E7.48892
G1 X79.939 Y67.968 E7.51410
G1 X79.816 Y67.594 E7.54039
G1 X79.599 Y67.220 E7.56927
G1 X79.262 Y66.846 E7.60289
G1 X78.851 Y66.472 E7.64000
G1 X78.533 Y66.099 E7.67278
G1 X78.381 Y65.725 E7.69974
G1 X78.348 Y65.351 E7.72482
G1 X78.395 Y64.977 E7.74999
G1 X78.518 Y64.603 E7.77628
G1 X78.735 Y64.229 E7.80517
G1 X79.072 Y63.855 E7.83879
G1 X79.483 Y63.482 E7.87590
G1 X79.801 Y63.108 E7.90867
G1 X79.953 Y62.734 E7.93563
G1 X79.986 Y62.360 E7.96071
G1 X79.939 Y61.986 E7.98589
G1 X79.816 Y61.612 E8.01218
G1 X79.599 Y61.238 E8.04106
G1 X79.262 Y60.865 E8.07468
G1 X78.851 Y60.491 E8.11179
G1 X78.533 Y60.117 E8.14457
G1 X78.381 Y59.743 E8.17153
G1 X78.348 Y59.369 E8.19660
G1 X78.395 Y58.995 E8.22178
G1 X78.518 Y58.622 E8.24807
G1 X78.735 Y58.248 E8.27695
G1 X79.072 Y57.874 E8.31057
G1 X79.483 Y57.500 E8.34768
G1 X79.801 Y57.126 E8.38046
G1 X79.953 Y56.752 E8.40742
G1 X79.986 Y56.378 E8.43250
G1 X79.939 Y56.005 E8.45767
G1 X79.816 Y55.631 E8.48396
G1 X79.599 Y55.257 E8.51284
G1 X79.262 Y54.883 E8.54647
G1 X78.851 Y54.509 E8.58358
G1 X78.533 Y54.135 E8.61635
G1 X78.381 Y53.762 E8.64331
G1 X78.348 Y53.388 E8.66839
G1 X78.395 Y53.014 E8.69357
G1 X78.518 Y52.640 E8.71986
G1 X78.735 Y52.266 E8.74874
G1 X79.072 Y51.892 E8.78236
G1 X79.253 Y51.728 E8.79868
G1 X81.664 Y51.728 E8.95973
G1 X81.524 Y51.892 E8.97414
G1 X81.372 Y52.266 E9.00110
G1 X81.339 Y52.640 E9.02618
G1 X81.386 Y53.014 E9.05136
G1 X81.509 Y53.388 E9.07765
G1 X81.726 Y53.762 E9.10653
G1 X82.063 Y54.135 E9.14015
G1 X82.474 Y54.509 E9.17726
G1 X82.792 Y54.883 E9.21004
G1 X82.944 Y55.257 E9.23700
G1 X82.977 Y55.631 E9.26207
G1 X82.930 Y56.005 E9.28725
G1 X82.807 Y56.378 E9.31354
G1 X82.590 Y56.752 E9.34242
G1 X82.253 Y57.126 E9.37604
G1 X81.842 Y57.500 E9.41315
G1 X81.524 Y57.874 E9.44593
G1 X81.372 Y58.248 E9.47289
G1 X81.339 Y58.622 E9.49797
G1 X81.386 Y58.995 E9.52314
G1 X81.509 Y59.369 E9.54943
G1 X81.726 Y59.743 E9.57831
G1 X82.063 Y60.117 E9.61194
G1 X82.474 Y60.491 E9.64905
G1 X82.792 Y60.865 E9.68182
G1 X82.944 Y61.238 E9.70878
G1 X82.977 Y61.612 E9.73386
G1 X82.930 Y61.986 E9.75904
G1 X82.807 Y62.360 E9.78533
G1 X82.590 Y62.734 E9.81421
G1 X82.253 Y63.108 E9.84783
G1 X81.842 Y63.482 E9.88494
G1 X81.524 Y63.855 E9.91772
G1 X81.372 Y64.229 E9.94468
G1 X81.339 Y64.603 E9.96975
G1 X81.386 Y64.977 E9.99493
G1 X81.509 Y65.351 E10.02122
G1 X81.726 Y65.725 E10.05010
G1 X82.063 Y66.099 E10.08372
G1 X82.474 Y66.472 E10.12083
G1 X82.792 Y66.846 E10.15361
G1 X82.944 Y67.220 E10.18057
G1 X82.977 Y67.594 E10.20564
G1 X82.930 Y67.968 E10.23082
G1 X82.807 Y68.342 E10.25711
G1 X82.590 Y68.715 E10.28599
G1 X82.253 Y69.089 E10.31962
G1 X81.842 Y69.463 E10.35672
G1 X81.524 Y69.837 E10.38950
G1 X81.372 Y70.211 E10.41646
G1 X81.339 Y70.585 E10.44154
G1 X81.386 Y70.959 E10.46671
G1 X81.501 Y71.309 E10.49136
M104 S205 ; set temperature
G1 Z0.600 F15000.000
G1 X81.509 Y71.309 F15000.000
G1 F4800
G1 X81.309 Y70.959 E10.51243
G1 X81.171 Y70.585 E10.53327
G1 X81.094 Y70.211 E10.55321
G1 X81.086 Y70.024 E10.56298
G1 X81.113 Y69.837 E10.57285
G1 X81.200 Y69.650 E10.58362
G1 X81.380 Y69.463 E10.59715
G1 X82.463 Y68.715 E10.66592
G1 X82.793 Y68.342 E10.69199
G1 X83.006 Y67.968 E10.71447
G1 X83.145 Y67.594 E10.73531
G1 X83.222 Y67.220 E10.75524
G1 X83.230 Y67.033 E10.76502
G1 X83.203 Y66.846 E10.77489
G1 X83.116 Y66.659 E10.78566
G1 X82.936 Y66.472 E10.79919
G1 X82.360 Y66.099 E10.83507
G1 X81.853 Y65.725 E10.86799
G1 X81.523 Y65.351 E10.89406
G1 X81.309 Y64.977 E10.91654
G1 X81.171 Y64.603 E10.93738
G1 X81.094 Y64.229 E10.95731
G1 X81.086 Y64.042 E10.96709
G1 X81.113 Y63.855 E10.97696
G1 X81.200 Y63.668 E10.98772
G1 X81.380 Y63.482 E11.00126
G1 X82.463 Y62.734 E11.07003
G1 X82.793 Y62.360 E11.09610
G1 X83.006 Y61.986 E11.11858
G1 X83.145 Y61.612 E11.13942
G1 X83.222 Y61.238 E11.15935
G1 X83.230 Y61.052 E11.16913
G1 X83.203 Y60.865 E11.17900
G1 X83.116 Y60.678 E11.18976
G1 X82.936 Y60.491 E11.20330
G1 X82.360 Y60.117 E11.23918
G1 X81.853 Y59.743 E11.27210
G1 X81.523 Y59.369 E11.29817
G1 X81.309 Y58.995 E11.32065
G1 X81.171 Y58.622 E11.34148
G1 X81.094 Y58.248 E11.36142
G1 X81.086 Y58.061 E11.37120
G1 X81.113 Y57.874 E11.38106
G1 X81.200 Y57.687 E11.39183
G1 X81.380 Y57.500 E11.40537
G1 X82.463 Y56.752 E11.47414
G1 X82.793 Y56.378 E11.50021
G1 X83.006 Y56.005 E11.52269
G1 X83.145 Y55.631 E11.54352
G1 X83.222 Y55.257 E11.56346
G1 X83.230 Y55.070 E11.57324
G1 X83.203 Y54.883 E11.58310
G1 X83.116 Y54.696 E11.59387
G1 X82.936 Y54.509 E11.60741
G1 X82.360 Y54.135 E11.64329
G1 X81.853 Y53.762 E11.67621
G1 X81.523 Y53.388 E11.70228
G1 X81.309 Y53.014 E11.72476
G1 X81.171 Y52.640 E11.74559
G1 X81.094 Y52.266 E11.76553
G1 X81.086 Y52.079 E11.77531
G1 X81.113 Y51.892 E11.78517
G1 X81.190 Y51.728 E11.79465
G1 X79.623 Y51.728 E11.87651
G1 X79.369 Y51.892 E11.89229
G1 X78.862 Y52.266 E11.92521
G1 X78.532 Y52.640 E11.95128
G1 X78.319 Y53.014 E11.97376
G1 X78.180 Y53.388 E11.99459
G1 X78.103 Y53.762 E12.01453
G1 X78.095 Y53.948 E12.02431
G1 X78.123 Y54.135 E12.03417
G1 X78.209 Y54.322 E12.04494
G1 X78.389 Y54.509 E12.05848
G1 X78.965 Y54.883 E12.09436
G1 X79.472 Y55.257 E12.12728
G1 X79.803 Y55.631 E12.15335
G1 X80.016 Y56.005 E12.17583
G1 X80.154 Y56.378 E12.19666
G1 X80.231 Y56.752 E12.21660
G1 X80.239 Y56.939 E12.22638
G1 X80.212 Y57.126 E12.23624
G1 X80.125 Y57.313 E12.24701
G1 X79.945 Y57.500 E12.26055
G1 X79.369 Y57.874 E12.29643
G1 X78.862 Y58.248 E12.32935
G1 X78.532 Y58.622 E12.35542
G1 X78.319 Y58.995 E12.37790
G1 X78.180 Y59.369 E12.39873
G1 X78.103 Y59.743 E12.41867
G1 X78.095 Y59.930 E12.42845
G1 X78.123 Y60.117 E12.43831
G1 X78.209 Y60.304 E12.44908
G1 X78.389 Y60.491 E12.46262
G1 X78.965 Y60.865 E12.49849
G1 X79.472 Y61.238 E12.53142
G1 X79.803 Y61.612 E12.55749
G1 X80.016 Y61.986 E12.57997
G1 X80.154 Y62.360 E12.60080
G1 X80.231 Y62.734 E12.62074
G1 X80.239 Y62.921 E12.63051
G1 X80.212 Y63.108 E12.64038
G1 X80.125 Y63.295 E12.65115
G1 X79.945 Y63.482 E12.66469
G1 X79.369 Y63.855 E12.70056
G1 X78.862 Y64.229 E12.73349
G1 X78.532 Y64.603 E12.75956
G1 X78.319 Y64.977 E12.78204
G1 X78.180 Y65.351 E12.80287
G1 X78.103 Y65.725 E12.82281
G1 X78.095 Y65.912 E12.83258
G1 X78.123 Y66.099 E12.84245
G1 X78.209 Y66.285 E12.85322
G1 X78.389 Y66.472 E12.86676
G1 X78.965 Y66.846 E12.90263
G1 X79.472 Y67.220 E12.93556
G1 X79.803 Y67.594 E12.96163
G1 X80.016 Y67.968 E12.98411
G1 X80.154 Y68.342 E13.00494
G1 X80.231 Y68.715 E13.02488
G1 X80.239 Y68.902 E13.03465
G1 X80.212 Y69.089 E13.04452
G1 X80.125 Y69.276 E13.05529
G1 X79.945 Y69.463 E13.06883
G1 X79.369 Y69.837 E13.10470
G1 X78.862 Y70.211 E13.13763
G1 X78.532 Y70.585 E13.16369
G1 X78.319 Y70.959 E13.18618
G1 X78.189 Y71.309 E13.20571
G1 X75.528 Y71.309 E13.34473
G1 X75.328 Y70.959 E13.36580
G1 X75.189 Y70.585 E13.38663
G1 X75.112 Y70.211 E13.40657
G1 X75.105 Y70.024 E13.41635
G1 X75.132 Y69.837 E13.42621
G1 X75.219 Y69.650 E13.43698
G1 X75.398 Y69.463 E13.45052
G1 X76.481 Y68.715 E13.51929
G1 X76.812 Y68.342 E13.54536
G1 X77.025 Y67.968 E13.56784
G1 X77.164 Y67.594 E13.58867
G1 X77.240 Y67.220 E13.60861
G1 X77.248 Y67.033 E13.61839
G1 X77.221 Y66.846 E13.62825
G1 X77.134 Y66.659 E13.63902
G1 X76.955 Y66.472 E13.65256
G1 X76.379 Y66.099 E13.68844
G1 X75.871 Y65.725 E13.72136
G1 X75.541 Y65.351 E13.74743
G1 X75.328 Y64.977 E13.76991
G1 X75.189 Y64.603 E13.79074
G1 X75.112 Y64.229 E13.81068
G1 X75.105 Y64.042 E13.82046
G1 X75.132 Y63.855 E13.83032
G1 X75.219 Y63.668 E13.84109
G1 X75.398 Y63.482 E13.85463
G1 X76.481 Y62.734 E13.92340
G1 X76.812 Y62.360 E13.94947
G1 X77.025 Y61.986 E13.97195
G1 X77.164 Y61.612 E13.99278
G1 X77.240 Y61.238 E14.01272
G1 X77.248 Y61.052 E14.02249
G1 X77.221 Y60.865 E14.03236
G1 X77.134 Y60.678 E14.04313
G1 X76.955 Y60.491 E14.05667
G1 X76.379 Y60.117 E14.09254
G1 X75.871 Y59.743 E14.12547
G1 X75.541 Y59.369 E14.15154
G1 X75.328 Y58.995 E14.17402
G1 X75.189 Y58.622 E14.19485
G1 X75.112 Y58.248 E14.21479
G1 X75.105 Y58.061 E14.22456
G1 X75.132 Y57.874 E14.23443
G1 X75.219 Y57.687 E14.24520
G1 X75.398 Y57.500 E14.25874
G1 X76.481 Y56.752 E14.32751
G1 X76.812 Y56.378 E14.35357
G1 X77.025 Y56.005 E14.37606
G1 X77.164 Y55.631 E14.39689
G1 X77.240 Y55.257 E14.41683
