; generated by Slic3r 1.3.1-dev on 2019-07-17 at 10:37:56

; external perimeters extrusion width = 0.44mm (3.04mm^3/s)
; perimeters extrusion width = 0.40mm (6.04mm^3/s)
; infill extrusion width = 0.48mm (10.05mm^3/s)
; solid infill extrusion width = 0.48mm (3.02mm^3/s)
; top infill extrusion width = 0.45mm (2.22mm^3/s)

M107
M190 S80 ; set bed temperature and wait for it to be reached
M104 S230 ; set temperature
G28 ; home all axes
G1 X150 Y150 Z50 F10000
; Filament gcode
; layer 1
M109 S230 ; set temperature and wait for it to be reached
G21 ; set units to millimeters
G90 ; use absolute coordinates
M82 ; use absolute distances for extrusion
G92 E0
G92 E0
G1 Z0.300 F15000.000
G1 X70.509 Y62.773 F15000.000
G1 F1301.79
G1 X79.044 Y62.773 E0.57023
G1 X79.044 Y62.350 E0.59849
G1 X70.509 Y62.350 E1.16872
G1 X70.509 Y61.927 E1.19699
G1 X79.044 Y61.927 E1.76721
G1 X79.044 Y61.504 E1.79548
G1 X70.509 Y61.504 E2.36571
G1 X70.509 Y61.081 E2.39397
G1 X79.044 Y61.081 E2.96420
G1 X79.044 Y60.658 E2.99246
G1 X70.509 Y60.658 E3.56269
G1 X70.509 Y60.234 E3.59096
G1 X79.044 Y60.234 E4.16118
G1 X79.044 Y59.811 E4.18945
G1 X70.509 Y59.811 E4.75968
G1 X70.509 Y59.388 E4.78794
G1 X79.044 Y59.388 E5.35817
G1 X79.044 Y58.965 E5.38644
G1 X70.509 Y58.965 E5.95666
G1 X70.509 Y58.542 E5.98493
G1 X79.044 Y58.542 E6.55516
G1 X79.044 Y58.119 E6.58342
G1 X70.509 Y58.119 E7.15365
G1 X70.509 Y57.696 E7.18192
G1 X79.044 Y57.696 E7.75214
G1 X79.044 Y57.273 E7.78041
G1 X70.509 Y57.273 E8.35064
G1 X70.509 Y56.850 E8.37890
G1 X79.044 Y56.850 E8.94913
G1 X79.044 Y56.426 E8.97739
G1 X70.509 Y56.426 E9.54762
G1 X70.509 Y56.003 E9.57589
G1 X79.044 Y56.003 E10.14611
M104 S205 ; set temperature
M140 S55 ; set bed temperature
G1 Z0.600 F15000.000
G1 X78.944 Y56.003 F15000.000
G1 F1272.65
G1 X70.609 Y56.003 E10.58161
G1 X70.609 Y56.426 E10.60371
G1 X78.944 Y56.426 E11.03921
G1 X78.944 Y56.850 E11.06131
G1 X70.609 Y56.850 E11.49681
G1 X70.609 Y57.273 E11.51891
G1 X78.944 Y57.273 E11.95441
G1 X78.944 Y57.696 E11.97651
G1 X70.609 Y57.696 E12.41201
G1 X70.609 Y58.119 E12.43411
G1 X78.944 Y58.119 E12.86961
G1 X78.944 Y58.542 E12.89171
G1 X70.609 Y58.542 E13.32721
G1 X70.609 Y58.965 E13.34931
G1 X78.944 Y58.965 E13.78481
G1 X78.944 Y59.388 E13.80691
G1 X70.609 Y59.388 E14.24241
G1 X70.609 Y59.811 E14.26451
G1 X78.944 Y59.811 E14.70001
G1 X78.944 Y60.234 E14.72211
G1 X70.609 Y60.234 E15.15761
G1 X70.609 Y60.658 E15.17971
G1 X78.944 Y60.658 E15.61521
G1 X78.944 Y61.081 E15.63731
G1 X70.609 Y61.081 E16.07281
G1 X70.609 Y61.504 E16.09491
G1 X78.944 Y61.504 E16.53041
G1 X78.944 Y61.927 E16.55251
G1 X70.609 Y61.927 E16.98801
G1 X70.609 Y62.350 E17.01011
G1 X78.944 Y62.350 E17.44561
G1 X78.944 Y62.773 E17.46771
G1 X70.609 Y62.773 E17.90321
G1 Z0.900 F15000.000
G1 F1272.65
G1 X78.944 Y62.773 E18.33870
G1 X78.944 Y62.350 E18.36081
G1 X70.609 Y62.350 E18.79630
G1 X70.609 Y61.927 E18.81841
G1 X78.944 Y61.927 E19.25390
G1 X78.944 Y61.504 E19.27601
G1 X70.609 Y61.504 E19.71150
G1 X70.609 Y61.081 E19.73361
G1 X78.944 Y61.081 E20.16910
G1 X78.944 Y60.658 E20.19121
G1 X70.609 Y60.658 E20.62670
G1 X70.609 Y60.234 E20.64881
G1 X78.944 Y60.234 E21.08430
G1 X78.944 Y59.811 E21.10641
G1 X70.609 Y59.811 E21.54190
G1 X70.609 Y59.388 E21.56401
G1 X78.944 Y59.388 E21.99950
G1 X78.944 Y58.965 E22.02161
G1 X70.609 Y58.965 E22.45710
G1 X70.609 Y58.542 E22.47921
G1 X78.944 Y58.542 E22.91470
G1 X78.944 Y58.119 E22.93681
G1 X70.609 Y58.119 E23.37230
G1 X70.609 Y57.696 E23.39441
G1 X78.944 Y57.696 E23.82990
G1 X78.944 Y57.273 E23.85201
G1 X70.609 Y57.273 E24.28750
G1 X70.609 Y56.850 E24.30961
G1 X78.944 Y56.850 E24.74510
G1 X78.944 Y56.426 E24.76721
G1 X70.609 Y56.426 E25.20270
G1 X70.609 Y56.003 E25.22481
G1 X78.944 Y56.003 E25.66030
M106 S255
G1 Z1.200 F15000.000
G1 F1272.65
G1 X70.609 Y56.003 E26.09580
G1 X70.609 Y56.426 E26.11790
G1 X78.944 Y56.426 E26.55340
G1 X78.944 Y56.850 E26.57551
G1 X70.609 Y56.850 E27.01100
G1 X70.609 Y57.273 E27.03311
G1 X78.944 Y57.273 E27.46860
G1 X78.944 Y57.696 E27.49071
G1 X70.609 Y57.696 E27.92620
G1 X70.609 Y58.119 E27.94831
G1 X78.944 Y58.119 E28.38380
G1 X78.944 Y58.542 E28.40591
G1 X70.609 Y58.542 E28.84140
G1 X70.609 Y58.965 E28.86351
G1 X78.944 Y58.965 E29.29900
G1 X78.944 Y59.388 E29.32111
G1 X70.609 Y59.388 E29.75660
G1 X70.609 Y59.811 E29.77871
G1 X78.944 Y59.811 E30.21420
G1 X78.944 Y60.234 E30.23631
G1 X70.609 Y60.234 E30.67180
G1 X70.609 Y60.658 E30.69391
G1 X78.944 Y60.658 E31.12940
G1 X78.944 Y61.081 E31.15151
G1 X70.609 Y61.081 E31.58700
G1 X70.609 Y61.504 E31.60911
G1 X78.944 Y61.504 E32.04460
G1 X78.944 Y61.927 E32.06671
G1 X70.609 Y61.927 E32.50220
G1 X70.609 Y62.350 E32.52431
G1 X78.944 Y62.350 E32.95980
G1 X78.944 Y62.773 E32.98191
G1 X70.609 Y62.773 E33.41740
G1 Z1.500 F15000.000
G1 F1272.65
G1 X78.944 Y62.773 E33.85289
G1 X78.944 Y62.350 E33.87500
G1 X70.609 Y62.350 E34.31049
G1 X70.609 Y61.927 E34.33260
G1 X78.944 Y61.927 E34.76810
G1 X78.944 Y61.504 E34.79020
G1 X70.609 Y61.504 E35.22570
G1 X70.609 Y61.081 E35.24780
G1 X78.944 Y61.081 E35.68330
G1 X78.944 Y60.658 E35.70540
G1 X70.609 Y60.658 E36.14090
G1 X70.609 Y60.234 E36.16300
G1 X78.944 Y60.234 E36.59850
G1 X78.944 Y59.811 E36.62060
G1 X70.609 Y59.811 E37.05610
G1 X70.609 Y59.388 E37.07820
G1 X78.944 Y59.388 E37.51370
G1 X78.944 Y58.965 E37.53580
G1 X70.609 Y58.965 E37.97130
G1 X70.609 Y58.542 E37.99340
G1 X78.944 Y58.542 E38.42890
G1 X78.944 Y58.119 E38.45100
G1 X70.609 Y58.119 E38.88650
G1 X70.609 Y57.696 E38.90860
G1 X78.944 Y57.696 E39.34410
G1 X78.944 Y57.273 E39.36620
G1 X70.609 Y57.273 E39.80170
G1 X70.609 Y56.850 E39.82380
G1 X78.944 Y56.850 E40.25930
G1 X78.944 Y56.426 E40.28140
G1 X70.609 Y56.426 E40.71690
G1 X70.609 Y56.003 E40.73900
G1 X78.944 Y56.003 E41.17450
G1 Z1.800 F15000.000
G1 F1272.65
G1 X70.609 Y56.003 E41.60999
G1 X70.609 Y56.426 E41.63210
G1 X78.944 Y56.426 E42.06759
G1 X78.944 Y56.850 E42.08970
G1 X70.609 Y56.850 E42.52519
G1 X70.609 Y57.273 E42.54730
G1 X78.944 Y57.273 E42.98279
G1 X78.944 Y57.696 E43.00490
G1 X70.609 Y57.696 E43.44039
G1 X70.609 Y58.119 E43.46250
G1 X78.944 Y58.119 E43.89799
G1 X78.944 Y58.542 E43.92010
G1 X70.609 Y58.542 E44.35559
G1 X70.609 Y58.965 E44.37770
G1 X78.944 Y58.965 E44.81319
G1 X78.944 Y59.388 E44.83530
G1 X70.609 Y59.388 E45.27079
G1 X70.609 Y59.811 E45.29290
G1 X78.944 Y59.811 E45.72839
G1 X78.944 Y60.234 E45.75050
G1 X70.609 Y60.234 E46.18599
G1 X70.609 Y60.658 E46.20810
G1 X78.944 Y60.658 E46.64359
G1 X78.944 Y61.081 E46.66570
G1 X70.609 Y61.081 E47.10119
G1 X70.609 Y61.504 E47.12330
G1 X78.944 Y61.504 E47.55879
G1 X78.944 Y61.927 E47.58090
G1 X70.609 Y61.927 E48.01639
G1 X70.609 Y62.350 E48.03850
G1 X78.944 Y62.350 E48.47399
G1 X78.944 Y62.773 E48.49610
G1 X70.609 Y62.773 E48.93159
G1 Z2.100 F15000.000
G1 F1272.65
G1 X78.944 Y62.773 E49.36709
G1 X78.944 Y62.350 E49.38919
G1 X70.609 Y62.350 E49.82469
G1 X70.609 Y61.927 E49.84679
G1 X78.944 Y61.927 E50.28229
G1 X78.944 Y61.504 E50.30439
G1 X70.609 Y61.504 E50.73989
G1 X70.609 Y61.081 E50.76199
G1 X78.944 Y61.081 E51.19749
G1 X78.944 Y60.658 E51.21959
G1 X70.609 Y60.658 E51.65509
G1 X70.609 Y60.234 E51.67719
G1 X78.944 Y60.234 E52.11269
G1 X78.944 Y59.811 E52.13479
G1 X70.609 Y59.811 E52.57029
G1 X70.609 Y59.388 E52.59239
G1 X78.944 Y59.388 E53.02789
G1 X78.944 Y58.965 E53.04999
G1 X70.609 Y58.965 E53.48549
G1 X70.609 Y58.542 E53.50759
G1 X78.944 Y58.542 E53.94309
G1 X78.944 Y58.119 E53.96519
G1 X70.609 Y58.119 E54.40069
G1 X70.609 Y57.696 E54.42279
G1 X78.944 Y57.696 E54.85829
G1 X78.944 Y57.273 E54.88039
G1 X70.609 Y57.273 E55.31589
G1 X70.609 Y56.850 E55.33799
G1 X78.944 Y56.850 E55.77349
G1 X78.944 Y56.426 E55.79559
G1 X70.609 Y56.426 E56.23109
G1 X70.609 Y56.003 E56.25319
G1 X78.944 Y56.003 E56.68869
G1 Z2.400 F15000.000
G1 F1272.65
G1 X70.609 Y56.003 E57.12418
G1 X70.609 Y56.426 E57.14629
G1 X78.944 Y56.426 E57.58178
G1 X78.944 Y56.850 E57.60389
G1 X70.609 Y56.850 E58.03938
G1 X70.609 Y57.273 E58.06149
G1 X78.944 Y57.273 E58.49698
G1 X78.944 Y57.696 E58.51909
G1 X70.609 Y57.696 E58.95458
G1 X70.609 Y58.119 E58.97669
G1 X78.944 Y58.119 E59.41218
G1 X78.944 Y58.542 E59.43429
G1 X70.609 Y58.542 E59.86978
G1 X70.609 Y58.965 E59.89189
G1 X78.944 Y58.965 E60.32738
G1 X78.944 Y59.388 E60.34949
G1 X70.609 Y59.388 E60.78498
G1 X70.609 Y59.811 E60.80709
G1 X78.944 Y59.811 E61.24258
G1 X78.944 Y60.234 E61.26469
G1 X70.609 Y60.234 E61.70018
G1 X70.609 Y60.658 E61.72229
G1 X78.944 Y60.658 E62.15778
G1 X78.944 Y61.081 E62.17989
G1 X70.609 Y61.081 E62.61538
G1 X70.609 Y61.504 E62.63749
G1 X78.944 Y61.504 E63.07298
G1 X78.944 Y61.927 E63.09509
G1 X70.609 Y61.927 E63.53058
G1 X70.609 Y62.350 E63.55269
G1 X78.944 Y62.350 E63.98818
G1 X78.944 Y62.773 E64.01029
G1 X70.609 Y62.773 E64.44578
G1 Z2.700 F15000.000
G1 F1272.65
G1 X78.944 Y62.773 E64.88128
G1 X78.944 Y62.350 E64.90338
G1 X70.609 Y62.350 E65.33888
G1 X70.609 Y61.927 E65.36098
G1 X78.944 Y61.927 E65.79648
G1 X78.944 Y61.504 E65.81858
G1 X70.609 Y61.504 E66.25408
G1 X70.609 Y61.081 E66.27618
G1 X78.944 Y61.081 E66.71168
G1 X78.944 Y60.658 E66.73378
G1 X70.609 Y60.658 E67.16928
G1 X70.609 Y60.234 E67.19138
G1 X78.944 Y60.234 E67.62688
G1 X78.944 Y59.811 E67.64898
G1 X70.609 Y59.811 E68.08448
G1 X70.609 Y59.388 E68.10658
G1 X78.944 Y59.388 E68.54208
G1 X78.944 Y58.965 E68.56418
G1 X70.609 Y58.965 E68.99968
G1 X70.609 Y58.542 E69.02178
G1 X78.944 Y58.542 E69.45728
G1 X78.944 Y58.119 E69.47938
G1 X70.609 Y58.119 E69.91488
G1 X70.609 Y57.696 E69.93698
G1 X78.944 Y57.696 E70.37248
G1 X78.944 Y57.273 E70.39458
G1 X70.609 Y57.273 E70.83008
G1 X70.609 Y56.850 E70.85218
G1 X78.944 Y56.850 E71.28768
G1 X78.944 Y56.426 E71.30978
G1 X70.609 Y56.426 E71.74528
G1 X70.609 Y56.003 E71.76738
G1 X78.944 Y56.003 E72.20288
G1 Z3.000 F15000.000
G1 F1272.65
G1 X70.609 Y56.003 E72.63837
G1 X70.609 Y56.426 E72.66048
G1 X78.944 Y56.426 E73.09597
G1 X78.944 Y56.850 E73.11808
G1 X70.609 Y56.850 E73.55357
G1 X70.609 Y57.273 E73.57568
G1 X78.944 Y57.273 E74.01117
G1 X78.944 Y57.696 E74.03328
G1 X70.609 Y57.696 E74.46877
G1 X70.609 Y58.119 E74.49088
G1 X78.944 Y58.119 E74.92637
G1 X78.944 Y58.542 E74.94848
G1 X70.609 Y58.542 E75.38397
G1 X70.609 Y58.965 E75.40608
G1 X78.944 Y58.965 E75.84157
G1 X78.944 Y59.388 E75.86368
G1 X70.609 Y59.388 E76.29917
G1 X70.609 Y59.811 E76.32128
G1 X78.944 Y59.811 E76.75677
G1 X78.944 Y60.234 E76.77888
G1 X70.609 Y60.234 E77.21437
G1 X70.609 Y60.658 E77.23648
G1 X78.944 Y60.658 E77.67197
G1 X78.944 Y61.081 E77.69408
G1 X70.609 Y61.081 E78.12957
G1 X70.609 Y61.504 E78.15168
G1 X78.944 Y61.504 E78.58717
G1 X78.944 Y61.927 E78.60928
G1 X70.609 Y61.927 E79.04477
G1 X70.609 Y62.350 E79.06688
G1 X78.944 Y62.350 E79.50237
G1 X78.944 Y62.773 E79.52448
G1 X70.609 Y62.773 E79.95997
G1 Z3.300 F15000.000
G1 F1272.65
G1 X78.944 Y62.773 E80.39547
G1 X78.944 Y62.350 E80.41757
G1 X70.609 Y62.350 E80.85307
G1 X70.609 Y61.927 E80.87517
G1 X78.944 Y61.927 E81.31067
G1 X78.944 Y61.504 E81.33277
G1 X70.609 Y61.504 E81.76827
G1 X70.609 Y61.081 E81.79037
G1 X78.944 Y61.081 E82.22587
G1 X78.944 Y60.658 E82.24797
G1 X70.609 Y60.658 E82.68347
G1 X70.609 Y60.234 E82.70557
G1 X78.944 Y60.234 E83.14107
G1 X78.944 Y59.811 E83.16317
G1 X70.609 Y59.811 E83.59867
G1 X70.609 Y59.388 E83.62077
G1 X78.944 Y59.388 E84.05627
G1 X78.944 Y58.965 E84.07837
G1 X70.609 Y58.965 E84.51387
G1 X70.609 Y58.542 E84.53597
G1 X78.944 Y58.542 E84.97147
G1 X78.944 Y58.119 E84.99357
G1 X70.609 Y58.119 E85.42907
G1 X70.609 Y57.696 E85.45117
G1 X78.944 Y57.696 E85.88667
G1 X78.944 Y57.273 E85.90877
G1 X70.609 Y57.273 E86.34427
G1 X70.609 Y56.850 E86.36637
G1 X78.944 Y56.850 E86.80187
G1 X78.944 Y56.426 E86.82397
G1 X70.609 Y56.426 E87.25947
G1 X70.609 Y56.003 E87.28157
G1 X78.944 Y56.003 E87.71707
G1 Z3.600 F15000.000
G1 F1272.65
G1 X70.609 Y56.003 E88.15256
G1 X70.609 Y56.426 E88.17467
G1 X78.944 Y56.426 E88.61016
G1 X78.944 Y56.850 E88.63227
G1 X70.609 Y56.850 E89.06776
G1 X70.609 Y57.273 E89.08987
G1 X78.944 Y57.273 E89.52536
G1 X78.944 Y57.696 E89.54747
G1 X70.609 Y57.696 E89.98296
G1 X70.609 Y58.119 E90.00507
G1 X78.944 Y58.119 E90.44056
G1 X78.944 Y58.542 E90.46267
G1 X70.609 Y58.542 E90.89816
G1 X70.609 Y58.965 E90.92027
G1 X78.944 Y58.965 E91.35576
G1 X78.944 Y59.388 E91.37787
G1 X70.609 Y59.388 E91.81336
G1 X70.609 Y59.811 E91.83547
G1 X78.944 Y59.811 E92.27096
G1 X78.944 Y60.234 E92.29307
G1 X70.609 Y60.234 E92.72856
G1 X70.609 Y60.658 E92.75067
G1 X78.944 Y60.658 E93.18616
G1 X78.944 Y61.081 E93.20827
G1 X70.609 Y61.081 E93.64376
G1 X70.609 Y61.504 E93.66587
G1 X78.944 Y61.504 E94.10136
G1 X78.944 Y61.927 E94.12347
G1 X70.609 Y61.927 E94.55896
G1 X70.609 Y62.350 E94.58107
G1 X78.944 Y62.350 E95.01656
G1 X78.944 Y62.773 E95.03867
G1 X70.609 Y62.773 E95.47416
G1 Z3.900 F15000.000
G1 F1272.65
G1 X78.944 Y62.773 E95.90966
G1 X78.944 Y62.350 E95.93176
G1 X70.609 Y62.350 E96.36726
G1 X70.609 Y61.927 E96.38936
G1 X78.944 Y61.927 E96.82486
G1 X78.944 Y61.504 E96.84696
G1 X70.609 Y61.504 E97.28246
G1 X70.609 Y61.081 E97.30456
G1 X78.944 Y61.081 E97.74006
G1 X78.944 Y60.658 E97.76216
G1 X70.609 Y60.658 E98.19766
G1 X70.609 Y60.234 E98.21976
G1 X78.944 Y60.234 E98.65526
G1 X78.944 Y59.811 E98.67736
G1 X70.609 Y59.811 E99.11286
G1 X70.609 Y59.388 E99.13496
G1 X78.944 Y59.388 E99.57046
G1 X78.944 Y58.965 E99.59256
G1 X70.609 Y58.965 E100.02806
G1 X70.609 Y58.542 E100.05016
G1 X78.944 Y58.542 E100.48566
G1 X78.944 Y58.119 E100.50776
G1 X70.609 Y58.119 E100.94326
G1 X70.609 Y57.696 E100.96536
G1 X78.944 Y57.696 E101.40086
G1 X78.944 Y57.273 E101.42296
G1 X70.609 Y57.273 E101.85846
G1 X70.609 Y56.850 E101.88056
G1 X78.944 Y56.850 E102.31606
G1 X78.944 Y56.426 E102.33816
G1 X70.609 Y56.426 E102.77366
G1 X70.609 Y56.003 E102.79576
G1 X78.944 Y56.003 E103.23126
G1 Z4.200 F15000.000
G1 F1272.65
G1 X70.609 Y56.003 E103.66675
G1 X70.609 Y56.426 E103.68886
G1 X78.944 Y56.426 E104.12435
G1 X78.944 Y56.850 E104.14646
G1 X70.609 Y56.850 E104.58195
G1 X70.609 Y57.273 E104.60406
G1 X78.944 Y57.273 E105.03955
G1 X78.944 Y57.696 E105.06166
G1 X70.609 Y57.696 E105.49715
G1 X70.609 Y58.119 E105.51926
G1 X78.944 Y58.119 E105.95475
G1 X78.944 Y58.542 E105.97686
G1 X70.609 Y58.542 E106.41235
G1 X70.609 Y58.965 E106.43446
G1 X78.944 Y58.965 E106.86995
G1 X78.944 Y59.388 E106.89206
G1 X70.609 Y59.388 E107.32755
G1 X70.609 Y59.811 E107.34966
G1 X78.944 Y59.811 E107.78515
G1 X78.944 Y60.234 E107.80726
G1 X70.609 Y60.234 E108.24275
G1 X70.609 Y60.658 E108.26486
G1 X78.944 Y60.658 E108.70035
G1 X78.944 Y61.081 E108.72246
G1 X70.609 Y61.081 E109.15795
G1 X70.609 Y61.504 E109.18006
G1 X78.944 Y61.504 E109.61555
G1 X78.944 Y61.927 E109.63766
G1 X70.609 Y61.927 E110.07315
G1 X70.609 Y62.350 E110.09526
G1 X78.944 Y62.350 E110.53075
G1 X78.944 Y62.773 E110.55286
G1 X70.609 Y62.773 E110.98835
G1 Z4.500 F15000.000
G1 F1272.65
G1 X78.944 Y62.773 E111.42385
G1 X78.944 Y62.350 E111.44595
G1 X70.609 Y62.350 E111.88145
G1 X70.609 Y61.927 E111.90355
G1 X78.944 Y61.927 E112.33905
G1 X78.944 Y61.504 E112.36115
G1 X70.609 Y61.504 E112.79665
G1 X70.609 Y61.081 E112.81875
G1 X78.944 Y61.081 E113.25425
G1 X78.944 Y60.658 E113.27635
G1 X70.609 Y60.658 E113.71185
G1 X70.609 Y60.234 E113.73395
G1 X78.944 Y60.234 E114.16945
G1 X78.944 Y59.811 E114.19155
G1 X70.609 Y59.811 E114.62705
G1 X70.609 Y59.388 E114.64915
G1 X78.944 Y59.388 E115.08465
G1 X78.944 Y58.965 E115.10675
G1 X70.609 Y58.965 E115.54225
G1 X70.609 Y58.542 E115.56435
G1 X78.944 Y58.542 E115.99985
G1 X78.944 Y58.119 E116.02195
G1 X70.609 Y58.119 E116.45745
G1 X70.609 Y57.696 E116.47955
G1 X78.944 Y57.696 E116.91505
G1 X78.944 Y57.273 E116.93715
G1 X70.609 Y57.273 E117.37265
G1 X70.609 Y56.850 E117.39475
G1 X78.944 Y56.850 E117.83025
G1 X78.944 Y56.426 E117.85235
G1 X70.609 Y56.426 E118.28785
G1 X70.609 Y56.003 E118.30995
G1 X78.944 Y56.003 E118.74545
G1 Z4.800 F15000.000
G1 F1272.65
G1 X70.609 Y56.003 E119.18094
G1 X70.609 Y56.426 E119.20305
G1 X78.944 Y56.426 E119.63854
G1 X78.944 Y56.850 E119.66065
G1 X70.609 Y56.850 E120.09614
G1 X70.609 Y57.273 E120.11825
G1 X78.944 Y57.273 E120.55374
G1 X78.944 Y57.696 E120.57585
G1 X70.609 Y57.696 E121.01134
