; generated by Slic3r 1.3.1-dev on 2019-03-01 at 15:53:40

; external perimeters extrusion width = 0.88mm (4.52mm^3/s)
; perimeters extrusion width = 0.40mm (4.28mm^3/s)
; infill extrusion width = 1.00mm (15.31mm^3/s)
; solid infill extrusion width = 1.12mm (5.17mm^3/s)
; top infill extrusion width = 0.30mm (0.99mm^3/s)

M107
M190 S80 ; set bed temperature and wait for it to be reached
M104 S230 ; set temperature
G28 ; home all axes
G1 X150 Y150 Z50 F10000
; Filament gcode
; layer 1
M109 S230 ; set temperature and wait for it to be reached
G21 ; set units to millimeters
G90 ; use absolute coordinates
M82 ; use absolute distances for extrusion
G92 E0
G92 E0
G1 E-6.00000 F2400.00000
G92 E0
G1 Z1.000 F15000.000
G1 X33.386 Y56.673 F15000.000
G1 Z0.300 F15000.000
G1 E6.00000 F2400.00000
G1 F2336.21
G1 X41.715 Y56.673 E7.03874
G1 X42.842 Y56.948 E7.18351
G1 X43.841 Y57.126 E7.31005
G1 X44.868 Y57.235 E7.43888
G1 X45.924 Y57.273 E7.57064
G1 X57.305 Y57.273 E8.99014
G1 X58.351 Y57.235 E9.12074
G1 X59.378 Y57.126 E9.24958
G1 X60.377 Y56.948 E9.37611
G1 X61.505 Y56.673 E9.52088
G1 X69.833 Y56.673 E10.55963
G1 X70.149 Y56.989 E10.61536
G1 X70.149 Y61.236 E11.14505
G1 X69.833 Y61.552 E11.20078
G1 X61.505 Y61.552 E12.23952
G1 X60.377 Y61.277 E12.38429
G1 X59.378 Y61.099 E12.51082
G1 X58.333 Y60.988 E12.64197
G1 X57.296 Y60.952 E12.77142
G1 X45.924 Y60.952 E14.18976
G1 X44.868 Y60.989 E14.32152
G1 X43.841 Y61.099 E14.45036
G1 X42.842 Y61.277 E14.57689
G1 X41.715 Y61.552 E14.72166
G1 X33.386 Y61.552 E15.76040
G1 X33.070 Y61.236 E15.81614
G1 X33.070 Y56.989 E16.34583
G1 X33.301 Y56.758 E16.38659
G1 E10.38659 F2400.00000
G92 E0
G1 Z1.300 F15000.000
G1 X69.310 Y60.712 F15000.000
G1 Z0.300 F15000.000
G1 E6.00000 F2400.00000
G1 F3600
G1 X61.575 Y60.712 E6.51670
G1 X60.563 Y60.457 E6.58647
G1 X59.487 Y60.266 E6.65943
G1 X58.401 Y60.151 E6.73240
G1 X57.315 Y60.112 E6.80501
G1 X45.904 Y60.112 E7.56729
G1 X44.818 Y60.151 E7.63990
G1 X43.732 Y60.266 E7.71287
G1 X42.657 Y60.457 E7.78583
G1 X41.644 Y60.712 E7.85560
G1 X33.910 Y60.712 E8.37230
G1 X33.910 Y57.512 E8.58608
G1 X41.644 Y57.512 E9.10277
G1 X42.657 Y57.767 E9.17255
G1 X43.732 Y57.959 E9.24551
G1 X44.818 Y58.074 E9.31847
G1 X45.904 Y58.112 E9.39108
G1 X57.315 Y58.112 E10.15337
G1 X58.401 Y58.074 E10.22598
G1 X59.487 Y57.959 E10.29894
G1 X60.563 Y57.767 E10.37191
G1 X61.575 Y57.512 E10.44168
G1 X69.310 Y57.512 E10.95838
G1 X69.310 Y60.592 E11.16414
G1 X68.517 Y60.608 F15000.000
G1 X68.774 Y60.177 F15000.000
G1 F2336.21
G1 X61.642 Y60.177 E11.64061
G1 X60.675 Y59.933 E11.70721
G1 X59.563 Y59.735 E11.78270
G1 X58.439 Y59.616 E11.85819
G1 X57.324 Y59.577 E11.93269
G1 X45.895 Y59.577 E12.69624
G1 X44.780 Y59.616 E12.77074
G1 X43.657 Y59.735 E12.84623
G1 X42.544 Y59.933 E12.92171
G1 X41.578 Y60.177 E12.98831
G1 X34.445 Y60.177 E13.46479
G1 X34.445 Y58.048 E13.60700
G1 X41.578 Y58.048 E14.08348
G1 X42.544 Y58.291 E14.15008
G1 X43.657 Y58.489 E14.22556
G1 X44.780 Y58.609 E14.30105
G1 X45.895 Y58.648 E14.37555
G1 X57.324 Y58.648 E15.13910
G1 X58.439 Y58.609 E15.21360
G1 X59.563 Y58.489 E15.28909
G1 X60.675 Y58.291 E15.36458
G1 X61.642 Y58.048 E15.43118
G1 X68.774 Y58.048 E15.90765
G1 X68.774 Y60.057 E16.04185
G1 E10.04185 F2400.00000
G92 E0
G1 Z1.300 F15000.000
G1 X43.344 Y59.247 F15000.000
G1 Z0.300 F15000.000
G1 E6.00000 F2400.00000
G1 F2336.21
G1 X42.432 Y59.409 E6.06187
G1 X41.511 Y59.641 E6.12530
G1 X34.981 Y59.641 E6.56156
G1 X34.981 Y58.584 E6.63221
G1 X41.511 Y58.584 E7.06847
G1 X42.432 Y58.815 E7.13189
G1 X43.344 Y58.978 E7.19376
G1 X43.344 Y59.127 E7.20373
G1 E1.20373 F2400.00000
G92 E0
G1 Z1.300 F15000.000
G1 X59.876 Y58.978 F15000.000
G1 Z0.300 F15000.000
G1 E6.00000 F2400.00000
G1 F2336.21
G1 X60.788 Y58.815 E6.06187
G1 X61.708 Y58.584 E6.12530
G1 X68.238 Y58.584 E6.56156
G1 X68.238 Y59.641 E6.63221
G1 X61.708 Y59.641 E7.06847
G1 X60.788 Y59.409 E7.13189
G1 X59.876 Y59.247 E7.19376
G1 X59.876 Y59.098 E7.20373
G1 X59.608 Y59.112 F15000.000
G1 F2336.21
G1 X59.045 Y59.112 E7.24445
G1 F2336.21
G1 X58.483 Y59.112 E7.27922
G1 X58.483 Y59.112 F15000.000
G1 F2336.21
G1 X57.336 Y59.112 E7.33801
G1 X57.336 Y59.112 F15000.000
G1 F2336.21
G1 X45.318 Y59.112 E7.83116
G1 F2336.21
G1 X44.455 Y59.112 E7.87515
G1 F2336.21
G1 X43.893 Y59.112 E7.90992
G1 F2336.21
G1 X43.612 Y59.112 E7.93028
G1 X42.403 Y59.112 F15000.000
G1 F2336.21
G1 X35.249 Y59.112 E8.33853
G1 E2.33853 F2400.00000
G92 E0
G1 Z1.300 F15000.000
G1 X61.060 Y59.023 F15000.000
G1 Z0.300 F15000.000
G1 E6.00000 F2400.00000
G1 F2336.21
G1 X61.774 Y59.112 E6.04107
G1 X67.971 Y59.112 E6.39470
M104 S205 ; set temperature
M140 S55 ; set bed temperature
G1 E0.39470 F2400.00000
G92 E0
G1 Z1.300 F15000.000
G1 X59.754 Y59.023 F15000.000
G1 Z0.500 F15000.000
G1 E6.00000 F2400.00000
G1 F1056.99
G1 X60.792 Y58.838 E6.03130
G1 X61.711 Y58.606 E6.05943
G1 X68.216 Y58.606 E6.25256
G1 X68.216 Y59.618 E6.28260
G1 X61.711 Y59.618 E6.47572
G1 X60.792 Y59.387 E6.50385
G1 X59.754 Y59.202 E6.53515
G1 X59.754 Y59.143 E6.53692
G1 E0.53692 F2400.00000
G92 E0
G1 Z1.500 F15000.000
G1 X43.465 Y59.202 F15000.000
G1 Z0.500 F15000.000
G1 E6.00000 F2400.00000
G1 F1056.99
G1 X42.427 Y59.387 E6.03130
G1 X41.508 Y59.618 E6.05943
G1 X35.004 Y59.618 E6.25256
G1 X35.004 Y58.606 E6.28260
G1 X41.508 Y58.606 E6.47572
G1 X42.427 Y58.838 E6.50385
G1 X43.465 Y59.023 E6.53515
G1 X43.465 Y59.082 E6.53692
G1 E0.53692 F2400.00000
G92 E0
G1 Z1.500 F15000.000
G1 X34.647 Y59.975 F15000.000
G1 Z0.500 F15000.000
G1 E6.00000 F2400.00000
G1 F3523.29
G1 X34.647 Y58.249 E6.05124
G1 X41.553 Y58.249 E6.25629
G1 X42.502 Y58.488 E6.28536
G1 X43.629 Y58.689 E6.31933
G1 X44.766 Y58.810 E6.35330
G1 X45.891 Y58.849 E6.38673
G1 X57.328 Y58.849 E6.72629
G1 X58.453 Y58.810 E6.75972
G1 X59.591 Y58.689 E6.79369
G1 X60.717 Y58.488 E6.82766
G1 X61.667 Y58.249 E6.85673
G1 X68.573 Y58.249 E7.06178
G1 X68.573 Y59.975 E7.11302
G1 X61.667 Y59.975 E7.31806
G1 X60.717 Y59.736 E7.34713
G1 X59.591 Y59.536 E7.38110
G1 X58.453 Y59.415 E7.41508
G1 X57.328 Y59.375 E7.44850
G1 X45.891 Y59.375 E7.78807
G1 X44.766 Y59.415 E7.82150
G1 X43.629 Y59.536 E7.85547
G1 X42.502 Y59.736 E7.88944
G1 X41.553 Y59.975 E7.91851
G1 X34.767 Y59.975 E8.11999
G1 X34.050 Y60.572 F15000.000
G1 F1620
G1 X34.050 Y57.652 E8.32323
G1 X41.627 Y57.652 E8.85062
G1 X42.627 Y57.904 E8.92245
G1 X43.712 Y58.097 E8.99915
G1 X44.808 Y58.214 E9.07586
G1 X45.902 Y58.252 E9.15203
G1 X57.317 Y58.252 E9.94659
G1 X58.411 Y58.214 E10.02275
G1 X59.507 Y58.097 E10.09946
G1 X60.592 Y57.904 E10.17617
G1 X61.593 Y57.652 E10.24800
G1 X69.170 Y57.652 E10.77538
G1 X69.170 Y60.572 E10.97862
G1 X61.593 Y60.572 E11.50601
G1 X60.592 Y60.320 E11.57784
G1 X59.507 Y60.127 E11.65455
G1 X58.411 Y60.011 E11.73125
G1 X57.317 Y59.972 E11.80742
G1 X45.902 Y59.972 E12.60198
G1 X44.808 Y60.011 E12.67814
G1 X43.712 Y60.127 E12.75485
G1 X42.627 Y60.320 E12.83156
G1 X41.627 Y60.572 E12.90339
G1 X34.170 Y60.572 E13.42242
G1 X34.443 Y59.876 F15000.000
G1 E7.42242 F2400.00000
G92 E0
G1 Z1.500 F15000.000
G1 X41.902 Y59.112 F15000.000
G1 Z0.500 F15000.000
G1 E6.00000 F2400.00000
G1 F1174.43
G1 X42.605 Y59.112 E6.00708
G1 F1174.43
G1 X42.838 Y59.112 E6.00793
G1 X43.644 Y59.112 F15000.000
G1 F1174.43
G1 X43.918 Y59.112 E6.01689
G1 F1174.43
G1 X44.466 Y59.112 E6.03057
G1 F1174.43
G1 X45.317 Y59.112 E6.04515
G1 F1174.43
G1 X57.334 Y59.112 E6.17099
G1 X57.334 Y59.112 F15000.000
G1 F1174.43
G1 X58.479 Y59.112 E6.19072
G1 X58.479 Y59.112 F15000.000
G1 F1174.43
G1 X59.027 Y59.112 E6.20440
G1 F1174.43
G1 X59.576 Y59.112 E6.22231
G1 X60.382 Y59.112 F15000.000
G1 F1174.43
G1 X60.615 Y59.112 E6.22391
G1 F1174.43
G1 X61.317 Y59.112 E6.23344
G1 E0.23344 F2400.00000
G92 E0
G1 Z1.500 F15000.000
G1 X59.754 Y59.023 F15000.000
G1 Z0.700 F15000.000
G1 E6.00000 F2400.00000
G1 F1080
G1 X60.792 Y58.838 E6.03130
G1 X61.711 Y58.606 E6.05943
G1 X68.216 Y58.606 E6.25256
G1 X68.216 Y59.618 E6.28260
G1 X61.711 Y59.618 E6.47572
G1 X60.792 Y59.387 E6.50385
G1 X59.754 Y59.202 E6.53515
G1 X59.754 Y59.143 E6.53692
G1 E0.53692 F2400.00000
G92 E0
G1 Z1.700 F15000.000
G1 X43.465 Y59.202 F15000.000
G1 Z0.700 F15000.000
G1 E6.00000 F2400.00000
G1 F1080
G1 X42.427 Y59.387 E6.03130
G1 X41.508 Y59.618 E6.05943
G1 X35.004 Y59.618 E6.25256
G1 X35.004 Y58.606 E6.28260
G1 X41.508 Y58.606 E6.47572
G1 X42.427 Y58.838 E6.50385
G1 X43.465 Y59.023 E6.53515
G1 X43.465 Y59.082 E6.53692
G1 E0.53692 F2400.00000
G92 E0
G1 Z1.700 F15000.000
G1 X34.647 Y59.975 F15000.000
G1 Z0.700 F15000.000
G1 E6.00000 F2400.00000
G1 F3600
G1 X34.647 Y58.249 E6.05124
G1 X41.553 Y58.249 E6.25629
G1 X42.502 Y58.488 E6.28536
G1 X43.628 Y58.689 E6.31933
G1 X44.766 Y58.810 E6.35330
G1 X45.891 Y58.849 E6.38673
G1 X57.328 Y58.849 E6.72629
G1 X58.453 Y58.810 E6.75972
G1 X59.591 Y58.689 E6.79369
G1 X60.717 Y58.488 E6.82766
G1 X61.667 Y58.249 E6.85673
G1 X68.573 Y58.249 E7.06178
G1 X68.573 Y59.975 E7.11302
G1 X61.667 Y59.975 E7.31806
G1 X60.717 Y59.736 E7.34713
G1 X59.591 Y59.536 E7.38110
G1 X58.453 Y59.415 E7.41508
G1 X57.328 Y59.375 E7.44850
G1 X45.891 Y59.375 E7.78807
G1 X44.766 Y59.415 E7.82150
G1 X43.629 Y59.536 E7.85547
G1 X42.502 Y59.736 E7.88944
G1 X41.553 Y59.975 E7.91851
G1 X34.767 Y59.975 E8.11999
G1 X34.050 Y60.572 F15000.000
G1 F1620
G1 X34.050 Y57.652 E8.32323
G1 X41.627 Y57.652 E8.85062
G1 X42.627 Y57.904 E8.92245
G1 X43.712 Y58.097 E8.99915
G1 X44.808 Y58.214 E9.07586
G1 X45.902 Y58.252 E9.15203
G1 X57.317 Y58.252 E9.94659
G1 X58.411 Y58.214 E10.02275
G1 X59.507 Y58.097 E10.09946
G1 X60.592 Y57.904 E10.17617
G1 X61.593 Y57.652 E10.24800
G1 X69.170 Y57.652 E10.77538
G1 X69.170 Y60.572 E10.97862
G1 X61.593 Y60.572 E11.50601
G1 X60.592 Y60.320 E11.57784
G1 X59.507 Y60.127 E11.65455
G1 X58.411 Y60.011 E11.73125
G1 X57.317 Y59.972 E11.80742
G1 X45.902 Y59.972 E12.60198
G1 X44.808 Y60.011 E12.67814
G1 X43.712 Y60.127 E12.75485
G1 X42.627 Y60.320 E12.83156
G1 X41.627 Y60.572 E12.90339
G1 X34.170 Y60.572 E13.42242
G1 X34.443 Y59.876 F15000.000
G1 E7.42242 F2400.00000
G92 E0
G1 Z1.700 F15000.000
G1 X35.344 Y58.881 F15000.000
G1 Z0.700 F15000.000
G1 E6.00000 F2400.00000
G1 F1152
G1 X35.278 Y58.946 E6.00201
G1 X35.278 Y59.317 E6.01012
G1 X35.715 Y58.881 E6.02359
G1 X36.086 Y58.881 E6.03169
G1 X35.623 Y59.344 E6.04597
G1 X35.994 Y59.344 E6.05407
G1 X36.457 Y58.881 E6.06835
G1 X36.828 Y58.881 E6.07645
G1 X36.366 Y59.344 E6.09073
G1 X36.737 Y59.344 E6.09883
G1 X37.200 Y58.881 E6.11311
G1 X37.571 Y58.881 E6.12121
G1 X37.108 Y59.344 E6.13549
G1 X37.479 Y59.344 E6.14359
G1 X37.942 Y58.881 E6.15787
G1 X38.313 Y58.881 E6.16598
G1 X37.850 Y59.344 E6.18026
G1 X38.222 Y59.344 E6.18836
G1 X38.684 Y58.881 E6.20264
G1 X39.055 Y58.881 E6.21074
G1 X38.593 Y59.344 E6.22502
G1 X38.964 Y59.344 E6.23312
G1 X39.427 Y58.881 E6.24740
G1 X39.798 Y58.881 E6.25550
G1 X39.335 Y59.344 E6.26978
G1 X39.706 Y59.344 E6.27788
G1 X40.169 Y58.881 E6.29216
G1 X40.540 Y58.881 E6.30026
G1 X40.077 Y59.344 E6.31455
G1 X40.449 Y59.344 E6.32265
G1 X40.911 Y58.881 E6.33693
G1 X41.282 Y58.881 E6.34503
G1 X40.820 Y59.344 E6.35931
G1 X41.191 Y59.344 E6.36741
G1 X41.627 Y58.907 E6.38088
G1 X41.627 Y59.278 E6.38898
G1 X41.562 Y59.344 E6.39099
G1 X41.902 Y59.112 F15000.000
G1 F1200
G1 X42.605 Y59.112 E6.39808
G1 F1200
G1 X42.838 Y59.112 E6.39893
G1 X43.644 Y59.112 F15000.000
G1 F1200
G1 X43.918 Y59.112 E6.40788
G1 F1200
G1 X44.466 Y59.112 E6.42156
G1 F1200
G1 X45.317 Y59.112 E6.43614
G1 F1200
G1 X57.334 Y59.112 E6.56199
G1 X57.334 Y59.112 F15000.000
G1 F1200
G1 X58.479 Y59.112 E6.58171
G1 X58.479 Y59.112 F15000.000
G1 F1200
G1 X59.027 Y59.112 E6.59540
G1 F1200
G1 X59.576 Y59.112 E6.61331
G1 X60.382 Y59.112 F15000.000
G1 F1200
G1 X60.615 Y59.112 E6.61491
G1 F1200
G1 X61.317 Y59.112 E6.62443
G1 X61.657 Y58.881 F15000.000
G1 F1152
G1 X61.592 Y58.946 E6.62645
G1 X61.592 Y59.317 E6.63455
G1 X62.028 Y58.881 E6.64802
G1 X62.400 Y58.881 E6.65612
G1 X61.937 Y59.344 E6.67040
G1 X62.308 Y59.344 E6.67850
G1 X62.771 Y58.881 E6.69278
G1 X63.142 Y58.881 E6.70088
G1 X62.679 Y59.344 E6.71516
G1 X63.050 Y59.344 E6.72326
G1 X63.513 Y58.881 E6.73754
G1 X63.884 Y58.881 E6.74564
G1 X63.422 Y59.344 E6.75993
G1 X63.793 Y59.344 E6.76803
G1 X64.256 Y58.881 E6.78231
G1 X64.627 Y58.881 E6.79041
G1 X64.164 Y59.344 E6.80469
G1 X64.535 Y59.344 E6.81279
G1 X64.998 Y58.881 E6.82707
G1 X65.369 Y58.881 E6.83517
G1 X64.906 Y59.344 E6.84945
G1 X65.278 Y59.344 E6.85755
G1 X65.740 Y58.881 E6.87183
G1 X66.111 Y58.881 E6.87993
G1 X65.649 Y59.344 E6.89421
G1 X66.020 Y59.344 E6.90231
G1 X66.483 Y58.881 E6.91660
G1 X66.854 Y58.881 E6.92470
G1 X66.391 Y59.344 E6.93898
G1 X66.762 Y59.344 E6.94708
G1 X67.225 Y58.881 E6.96136
G1 X67.596 Y58.881 E6.96946
G1 X67.133 Y59.344 E6.98374
G1 X67.505 Y59.344 E6.99184
G1 X67.941 Y58.907 E7.00531
G1 X67.941 Y59.278 E7.01341
G1 X67.876 Y59.344 E7.01543
G1 E1.01543 F2400.00000
G92 E0
G1 Z1.700 F15000.000
; Filament-specific end gcode 
;END gcode for filament

G92 E0
G1 E-15 F9000
M104 S0 T0 ; turn off temperature
M140 S0 ; turn off bed
G1 X320 Y290 F10000 ; lower bed
M84 ; disable motors
; filament used = 42.6mm (0.1cm3)
; total filament cost = 0.0

; avoid_crossing_perimeters = 1
; bed_shape = 0x0,300x0,300x300,0x300
; bed_temperature = 55
; before_layer_gcode = 
; between_objects_gcode = 
; bridge_acceleration = 0
; bridge_fan_speed = 100
; brim_connections_width = 0
; brim_width = 1
; complete_objects = 0
; cooling = 1
; default_acceleration = 0
; disable_fan_first_layers = 3
; duplicate_distance = 6
; end_filament_gcode = "; Filament-specific end gcode \n;END gcode for filament\n"
; end_gcode = G92 E0\nG1 E-15 F9000\nM104 S0 T0 ; turn off temperature\nM140 S0 ; turn off bed\nG1 X320 Y290 F10000 ; lower bed\nM84 ; disable motors
; extruder_clearance_height = 20
; extruder_clearance_radius = 20
; extruder_offset = 0x0
; extrusion_axis = E
; extrusion_multiplier = 1
; fan_always_on = 1
; fan_below_layer_time = 60
; filament_colour = #FFFFFF
; filament_cost = 0
; filament_density = 0
; filament_diameter = 1.75
; filament_max_volumetric_speed = 0
; filament_notes = ""
; first_layer_acceleration = 0
; first_layer_bed_temperature = 80
; first_layer_extrusion_width = 200%
; first_layer_speed = 60
; first_layer_temperature = 230
; gcode_arcs = 0
; gcode_comments = 0
; gcode_flavor = reprap
; has_heatbed = 1
; infill_acceleration = 0
; infill_first = 0
; interior_brim_width = 0
; label_printed_objects = 0
; layer_gcode = 
; max_fan_speed = 100
; max_layer_height = 0.3
; max_print_speed = 200
; max_volumetric_speed = 0
; min_fan_speed = 100
; min_layer_height = 0.15
; min_print_speed = 10
; min_skirt_length = 0
; notes = 
; nozzle_diameter = 0.8
; only_retract_when_crossing_perimeters = 0
; ooze_prevention = 0
; output_filename_format = [input_filename_base].gcode
; perimeter_acceleration = 0
; post_process = 
; pressure_advance = 0
; printer_notes = 
; resolution = 0
; retract_before_travel = 2
; retract_layer_change = 1
; retract_length = 6
; retract_length_toolchange = 10
; retract_lift = 1
; retract_lift_above = 0
; retract_lift_below = 0
; retract_restart_extra = 0
; retract_restart_extra_toolchange = 0
; retract_speed = 40
; skirt_distance = 3
; skirt_height = 1
; skirts = 0
; slowdown_below_layer_time = 7
; spiral_vase = 0
; standby_temperature_delta = 0
; start_filament_gcode = "; Filament gcode\n"
; start_gcode = G28 ; home all axes\nG1 X150 Y150 Z50 F10000
; temperature = 205
; threads = 4
; toolchange_gcode = 
; travel_speed = 250
; use_firmware_retraction = 0
; use_relative_e_distances = 0
; use_set_and_wait_bed = 0
; use_set_and_wait_extruder = 0
; use_volumetric_e = 0
; vibration_limit = 0
; wipe = 0
; z_offset = 0
; z_steps_per_mm = 0
; adaptive_slicing = 0
; adaptive_slicing_quality = 75%
; dont_support_bridges = 1
; extrusion_width = 0
; first_layer_height = 0.3
; infill_only_where_needed = 0
; interface_shells = 0
; layer_height = 0.2
; match_horizontal_surfaces = 0
; raft_layers = 0
; regions_overlap = 0
; seam_position = aligned
; sequential_print_priority = 0
; support_material = 0
; support_material_angle = 0
; support_material_buildplate_only = 0
; support_material_contact_distance = 0.2
