; generated by Slic3r 1.3.1-dev on 2019-03-08 at 15:04:20

; external perimeters extrusion width = 1.10mm (10.95mm^3/s)
; perimeters extrusion width = 0.40mm (7.54mm^3/s)
; infill extrusion width = 1.25mm (37.25mm^3/s)
; solid infill extrusion width = 1.40mm (12.62mm^3/s)
; top infill extrusion width = 0.60mm (3.95mm^3/s)

M190 S80 ; set bed temperature and wait for it to be reached
M104 S230 ; set temperature
G28 ; home all axes
G1 X150 Y150 Z50 F10000
; Filament gcode

M109 S230 ; set temperature and wait for it to be reached
G21 ; set units to millimeters
G90 ; use absolute coordinates
M82 ; use absolute distances for extrusion
G92 E0
G92 E0
G1 E-6.00000 F2400.00000
G92 E0
G1 Z1.000 F15000.000
G1 X48.475 Y68.960 F15000.000
; layer 1
G1 Z0.300 F15000.000
G1 E6.00000 F2400.00000

G1 F3600
G1 X48.475 Y63.342 E6.70066
G1 X48.503 Y62.984 E6.74547
G1 X48.576 Y62.494 E6.80733
G1 X48.635 Y62.232 E6.84074
G1 X48.784 Y61.745 E6.90424
G1 X48.974 Y61.287 E6.96609
G1 X49.094 Y61.048 E6.99950
G1 X49.349 Y60.623 E7.06135
G1 X49.504 Y60.404 E7.09475
G1 X49.818 Y60.020 E7.15660
G1 X50.169 Y59.667 E7.21875
G1 X50.543 Y59.356 E7.27947
G1 X50.945 Y59.081 E7.34020
G1 X51.371 Y58.844 E7.40093
G1 X51.829 Y58.644 E7.46322
G1 X52.282 Y58.495 E7.52276
G1 X55.297 Y57.656 E7.91313
G1 X55.743 Y57.561 E7.96998
G1 X55.988 Y57.530 E8.00082
G1 X56.453 Y57.510 E8.05881
G1 X56.917 Y57.541 E8.11678
G1 X57.520 Y57.660 E8.19348
G1 X58.011 Y57.824 E8.25806
G1 X58.439 Y58.026 E8.31712
G1 X58.830 Y58.267 E8.37438
G1 X59.194 Y58.547 E8.43164
G1 X59.524 Y58.866 E8.48890
G1 X59.810 Y59.206 E8.54435
G1 X59.952 Y59.405 E8.57480
G1 X60.180 Y59.787 E8.63025
G1 X60.372 Y60.204 E8.68749
G1 X60.455 Y60.433 E8.71794
G1 X60.573 Y60.861 E8.77338
G1 X60.640 Y61.256 E8.82328
G1 X60.668 Y61.558 E8.86106
G1 X60.675 Y80.322 E11.20150
G1 X60.648 Y80.538 E11.22866
G1 X60.586 Y80.706 E11.25097
G1 X60.535 Y80.795 E11.26379
G1 X60.398 Y80.956 E11.29014
G1 X60.184 Y81.096 E11.32202
G1 X55.928 Y82.903 E11.89866
G1 X55.711 Y82.961 E11.92666
G1 X55.459 Y82.956 E11.95821
G1 X55.243 Y82.888 E11.98637
G1 X55.030 Y82.742 E12.01865
G1 X54.858 Y82.517 E12.05391
G1 X54.794 Y82.360 E12.07510
G1 X54.764 Y82.185 E12.09720
G1 X54.761 Y80.564 E12.29944
G1 X54.290 Y80.253 E12.36988
G1 X49.913 Y82.122 E12.96345
G1 X49.740 Y82.385 E13.00280
G1 X49.736 Y85.077 E13.33849
G1 X49.699 Y85.252 E13.36086
G1 X49.651 Y85.369 E13.37654
G1 X49.600 Y85.458 E13.38936
G1 X49.463 Y85.618 E13.41568
G1 X49.234 Y85.766 E13.44964
G1 X44.986 Y87.569 E14.02523
G1 X44.777 Y87.624 E14.05222
G1 X44.524 Y87.619 E14.08378
G1 X44.309 Y87.550 E14.11193
G1 X44.160 Y87.461 E14.13359
G1 X44.050 Y87.361 E14.15207
G1 X43.949 Y87.227 E14.17304
G1 X43.877 Y87.074 E14.19422
G1 X43.828 Y86.832 E14.22491
G1 X43.828 Y71.668 E16.11622
G1 X43.843 Y71.518 E16.13513
G1 X43.920 Y71.295 E16.16446
G1 X43.995 Y71.176 E16.18197
G1 X44.088 Y71.071 E16.19948
G1 X44.235 Y70.959 E16.22258
G1 X48.301 Y69.224 E16.77397
G1 X48.393 Y69.085 E16.79470
G1 E10.79470 F2400.00000
G92 E0
G1 Z1.300 F15000.000
G1 X55.601 Y78.780 F15000.000
G1 Z0.300 F15000.000
G1 E6.00000 F2400.00000
G1 F3600
G1 X48.900 Y81.642 E6.48677
G1 X48.901 Y84.995 E6.71076
G1 X44.667 Y86.792 E7.01801
G1 X44.667 Y71.679 E8.02768
G1 X49.315 Y69.705 E8.36501
G1 X49.315 Y63.511 E8.77879
G1 X49.364 Y62.862 E8.82228
G1 X49.505 Y62.238 E8.86504
G1 X49.736 Y61.641 E8.90780
G1 X50.052 Y61.084 E8.95056
G1 X50.448 Y60.576 E8.99358
G1 X50.737 Y60.285 E9.02100
G1 X51.223 Y59.901 E9.06235
G1 X51.564 Y59.691 E9.08916
G1 X52.126 Y59.430 E9.13052
G1 X52.517 Y59.301 E9.15801
G1 X55.696 Y58.424 E9.37835
G1 X56.061 Y58.367 E9.40301
G1 X56.582 Y58.355 E9.43786
G1 X56.808 Y58.374 E9.45297
G1 X57.169 Y58.437 E9.47749
G1 X57.700 Y58.605 E9.51468
G1 X58.193 Y58.854 E9.55161
G1 X58.640 Y59.180 E9.58854
G1 X59.029 Y59.573 E9.62546
G1 X59.349 Y60.023 E9.66239
G1 X59.595 Y60.523 E9.69958
G1 X59.710 Y60.869 E9.72395
G1 X59.788 Y61.225 E9.74831
G1 X59.834 Y61.792 E9.78631
G1 X59.835 Y80.332 E11.02491
G1 X55.602 Y82.129 E11.33213
G1 X55.601 Y78.930 E11.54585
G1 X54.975 Y78.000 F15000.000
G1 X56.136 Y77.969 F15000.000
G1 F3600
G1 X48.364 Y81.289 E12.11042
G1 X48.365 Y84.641 E12.33436
G1 X45.203 Y85.983 E12.56386
G1 X45.203 Y72.033 E13.49578
G1 X49.851 Y70.060 E13.83311
G1 X49.851 Y63.532 E14.26923
G1 X49.895 Y62.942 E14.30873
G1 X50.019 Y62.394 E14.34623
G1 X50.221 Y61.871 E14.38373
G1 X50.498 Y61.382 E14.42123
G1 X50.850 Y60.931 E14.45945
G1 X51.094 Y60.686 E14.48259
G1 X51.530 Y60.341 E14.51973
G1 X51.819 Y60.163 E14.54234
G1 X52.323 Y59.929 E14.57952
G1 X52.672 Y59.814 E14.60404
G1 X55.809 Y58.948 E14.82143
G1 X56.108 Y58.902 E14.84166
G1 X56.567 Y58.891 E14.87232
G1 X57.042 Y58.958 E14.90437
G1 X57.497 Y59.102 E14.93626
G1 X57.913 Y59.313 E14.96740
G1 X58.290 Y59.587 E14.99854
G1 X58.617 Y59.919 E15.02968
G1 X58.888 Y60.299 E15.06082
G1 X59.098 Y60.727 E15.09271
G1 X59.193 Y61.011 E15.11274
G1 X59.257 Y61.304 E15.13277
G1 X59.298 Y61.814 E15.16692
G1 X59.300 Y79.978 E16.38039
G1 X56.137 Y81.320 E16.60989
G1 X56.136 Y78.119 E16.82374
G1 X56.671 Y77.158 F15000.000
G1 F3600
G1 X47.829 Y80.935 E17.46611
G1 X47.829 Y84.286 E17.68999
G1 X45.738 Y85.174 E17.84174
G1 X45.738 Y72.388 E18.69593
G1 X50.386 Y70.414 E19.03325
G1 X50.387 Y63.552 E19.49170
G1 X50.427 Y63.021 E19.52723
G1 X50.533 Y62.551 E19.55947
G1 X50.707 Y62.101 E19.59170
G1 X50.945 Y61.681 E19.62394
G1 X51.252 Y61.286 E19.65736
G1 X51.452 Y61.086 E19.67622
G1 X51.838 Y60.780 E19.70915
G1 X52.073 Y60.636 E19.72757
G1 X52.521 Y60.428 E19.76056
G1 X52.827 Y60.327 E19.78210
G1 X55.921 Y59.473 E19.99654
G1 X56.155 Y59.436 E20.01236
G1 X56.551 Y59.428 E20.03882
G1 X56.914 Y59.480 E20.06333
G1 X57.294 Y59.600 E20.08992
G1 X57.632 Y59.771 E20.11527
G1 X57.939 Y59.995 E20.14063
G1 X58.206 Y60.264 E20.16598
G1 X58.426 Y60.574 E20.19134
G1 X58.602 Y60.931 E20.21793
G1 X58.676 Y61.154 E20.23362
G1 X58.726 Y61.383 E20.24931
G1 X58.763 Y61.835 E20.27961
G1 X58.764 Y79.623 E21.46796
G1 X56.673 Y80.511 E21.61973
G1 X56.671 Y77.308 E21.83372
G1 E15.83372 F2400.00000
G92 E0
G1 Z1.300 F15000.000
G1 X58.171 Y79.326 F15000.000
G1 Z0.300 F15000.000
G1 E6.00000 F2400.00000
G1 F3600
G1 X58.285 Y79.212 E6.01109
G1 X58.285 Y78.431 E6.06484
G1 X57.151 Y79.565 E6.17526
G1 X57.151 Y78.785 E6.22899
G1 X58.285 Y77.651 E6.33944
G1 X58.285 Y76.870 E6.39319
G1 X57.150 Y78.005 E6.50367
G1 X57.150 Y77.224 E6.55740
G1 X58.285 Y76.089 E6.66790
G1 X58.285 Y75.309 E6.72165
G1 X57.150 Y76.444 E6.83218
G1 X57.150 Y76.404 E6.83495
G1 X55.857 Y76.956 E6.93172
G1 X58.285 Y74.528 E7.16811
G1 X58.285 Y73.747 E7.22186
G1 X54.494 Y77.538 E7.59095
G1 X53.131 Y78.120 E7.69298
G1 X58.285 Y72.967 E8.19476
G1 X58.285 Y72.186 E8.24851
G1 X51.769 Y78.702 E8.88298
G1 X50.406 Y79.284 E8.98502
G1 X58.285 Y71.406 E9.75219
G1 X58.285 Y70.625 E9.80594
G1 X49.043 Y79.866 E10.70580
G1 X47.680 Y80.449 E10.80784
G1 X58.285 Y69.844 E11.84040
G1 X58.284 Y69.064 E11.89415
G1 X46.217 Y81.131 E13.06917
G1 X46.217 Y80.350 E13.12292
G1 X58.284 Y68.283 E14.29794
G1 X58.284 Y67.502 E14.35169
G1 X46.217 Y79.570 E15.52671
G1 X46.217 Y78.789 E15.58046
G1 X58.284 Y66.722 E16.75547
G1 X58.284 Y65.941 E16.80922
G1 X46.217 Y78.008 E17.98422
G1 X46.217 Y77.228 E18.03798
G1 X58.284 Y65.160 E19.21298
G1 X58.284 Y64.380 E19.26673
G1 X46.217 Y76.447 E20.44172
G1 X46.217 Y75.666 E20.49547
G1 X58.284 Y63.599 E21.67047
G1 X58.284 Y62.818 E21.72422
G1 X50.865 Y70.238 E22.44664
G1 X50.865 Y69.457 E22.50039
G1 X58.284 Y62.038 E23.22280
G1 X58.284 Y61.800 E23.23917
G1 X58.231 Y61.310 E23.27311
G1 X50.865 Y68.676 E23.99038
G1 X50.865 Y67.895 E24.04413
G1 X57.999 Y60.761 E24.73880
G1 X57.851 Y60.553 E24.75636
G1 X57.639 Y60.341 E24.77705
G1 X50.865 Y67.115 E25.43665
G1 X50.865 Y66.334 E25.49041
G1 X57.155 Y60.044 E26.10285
G1 X56.844 Y59.944 E26.12536
G1 X56.682 Y59.916 E26.13663
G1 X56.503 Y59.916 E26.14900
G1 X50.865 Y65.553 E26.69792
G1 X50.865 Y64.772 E26.75168
G1 X55.547 Y60.090 E27.20758
G1 X54.469 Y60.388 E27.28460
G1 X50.865 Y63.992 E27.63549
G1 X50.865 Y63.629 E27.66047
G1 X50.899 Y63.177 E27.69167
G1 X53.391 Y60.686 E27.93425
G1 X52.775 Y60.870 E27.97851
G1 X52.384 Y61.051 E28.00819
G1 X52.203 Y61.163 E28.02285
G1 X51.866 Y61.429 E28.05238
G1 X51.706 Y61.590 E28.06802
G1 X51.753 Y61.543 E28.07260
G1 E22.07260 F2400.00000
G92 E0
G1 Z1.300 F15000.000
G1 X50.980 Y61.044 F15000.000
G1 X54.572 Y64.160 F15000.000
G1 X54.551 Y70.192 F15000.000
G1 X54.046 Y73.192 F15000.000
G1 X51.937 Y74.459 F15000.000
G1 X50.076 Y75.273 F15000.000
G1 X45.383 Y72.229 F15000.000
G1 X47.243 Y72.298 F15000.000
G1 Z0.300 F15000.000
G1 E6.00000 F2400.00000
G1 F3600
G1 X46.217 Y73.324 E6.09994
G1 X46.217 Y74.105 E6.15369
G1 X48.600 Y71.722 E6.38574
G1 X49.957 Y71.146 E6.48722
G1 X46.217 Y74.885 E6.85138
G1 E0.85138 F2400.00000
G92 E0
G1 Z1.300 F15000.000
G1 X46.217 Y81.131 F15000.000
G1 Z0.300 F15000.000
G1 E6.00000 F2400.00000
G1 F3600
G1 X46.217 Y81.912 E6.05375
G1 X47.350 Y80.779 E6.16405
G1 X47.350 Y81.559 E6.21779
G1 X46.217 Y82.692 E6.32810
G1 X46.217 Y83.473 E6.38185
G1 X47.350 Y82.340 E6.49217
G1 X47.350 Y83.121 E6.54592
G1 X46.217 Y84.254 E6.65625
M104 S205 ; set temperature
M140 S55 ; set bed temperature
G1 E0.65625 F2400.00000
G92 E0
G1 Z1.300 F15000.000
G1 X46.764 Y83.595 F15000.000
G1 X46.795 Y81.189 F15000.000
G1 X47.450 Y79.247 F15000.000
G1 X50.091 Y75.252 F15000.000
G1 X51.801 Y74.524 F15000.000
G1 X54.048 Y73.185 F15000.000
G1 X54.303 Y73.353 F15000.000
G1 X56.219 Y77.840 F15000.000
G1 X56.746 Y77.040 F15000.000
G1 Z0.700 F15000.000
G1 E6.00000 F2400.00000
G1 F3600
G1 X47.751 Y80.883 E6.51107
G1 X47.751 Y84.235 E6.68619
G1 X45.816 Y85.056 E6.79599
G1 X45.816 Y72.439 E7.45518
G1 X50.464 Y70.466 E7.71901
G1 X50.464 Y63.558 E8.07994
G1 X50.504 Y63.033 E8.10740
G1 X50.607 Y62.574 E8.13199
G1 X50.777 Y62.135 E8.15658
G1 X51.009 Y61.725 E8.18118
G1 X51.310 Y61.339 E8.20679
G1 X51.504 Y61.144 E8.22118
G1 X51.882 Y60.845 E8.24632
G1 X52.111 Y60.704 E8.26040
G1 X52.549 Y60.500 E8.28562
G1 X52.852 Y60.400 E8.30228
G1 X55.758 Y59.591 E8.45987
G1 X56.198 Y59.511 E8.48325
G1 X56.408 Y59.502 E8.49422
G1 X56.793 Y59.537 E8.51445
G1 X57.151 Y59.630 E8.53376
G1 X57.505 Y59.785 E8.55394
G1 X57.860 Y60.028 E8.57643
G1 X58.140 Y60.308 E8.59710
G1 X58.371 Y60.632 E8.61789
G1 X58.557 Y61.037 E8.64119
G1 X58.651 Y61.415 E8.66155
G1 X58.685 Y61.841 E8.68389
G1 X58.685 Y79.572 E9.61025
G1 X56.752 Y80.393 E9.71994
G1 X56.747 Y77.190 E9.88725
G1 X56.433 Y77.516 F15000.000
G1 F3600
G1 X48.065 Y81.091 E10.36267
G1 X48.065 Y84.443 E10.53782
G1 X45.502 Y85.531 E10.68328
G1 X45.502 Y72.231 E11.37813
G1 X50.150 Y70.258 E11.64196
G1 X50.150 Y63.546 E11.99264
G1 X50.192 Y62.987 E12.02194
G1 X50.306 Y62.483 E12.04894
G1 X50.492 Y62.000 E12.07594
G1 X50.747 Y61.551 E12.10295
G1 X51.074 Y61.131 E12.13076
G1 X51.295 Y60.909 E12.14712
G1 X51.701 Y60.587 E12.17419
G1 X51.962 Y60.427 E12.19020
G1 X52.433 Y60.208 E12.21733
G1 X52.761 Y60.100 E12.23534
G1 X55.687 Y59.285 E12.39406
G1 X56.163 Y59.198 E12.41931
G1 X56.415 Y59.187 E12.43252
G1 X56.847 Y59.226 E12.45519
G1 X57.255 Y59.332 E12.47717
G1 X57.651 Y59.506 E12.49978
G1 X57.876 Y59.644 E12.51356
G1 X58.068 Y59.791 E12.52620
G1 X58.381 Y60.104 E12.54932
G1 X58.639 Y60.466 E12.57258
G1 X58.761 Y60.697 E12.58620
G1 X58.857 Y60.941 E12.59990
G1 X58.962 Y61.365 E12.62270
G1 X58.999 Y61.829 E12.64703
G1 X58.999 Y79.780 E13.58491
G1 X56.439 Y80.867 E13.73022
G1 X56.433 Y77.666 E13.89747
G1 X55.771 Y78.521 F15000.000
G1 F1620
G1 X48.729 Y81.529 E15.18893
G1 X48.729 Y84.883 E15.75451
G1 X44.838 Y86.534 E16.46747
G1 X44.838 Y71.792 E18.95394
G1 X49.486 Y69.818 E19.80561
G1 X49.486 Y63.521 E20.86775
G1 X49.534 Y62.888 E20.97474
G1 X49.669 Y62.289 E21.07838
G1 X49.890 Y61.716 E21.18201
G1 X50.193 Y61.181 E21.28564
G1 X50.575 Y60.690 E21.39049
G1 X50.852 Y60.412 E21.45672
G1 X51.320 Y60.042 E21.55732
G1 X51.647 Y59.841 E21.62212
G1 X52.188 Y59.589 E21.72280
G1 X52.567 Y59.464 E21.79011
G1 X55.538 Y58.637 E22.31021
G1 X56.088 Y58.536 E22.40445
G1 X56.431 Y58.521 E22.46238
G1 X56.962 Y58.570 E22.55226
G1 X57.473 Y58.702 E22.64134
G1 X57.959 Y58.916 E22.73094
G1 X58.252 Y59.095 E22.78880
G1 X58.507 Y59.291 E22.84291
G1 X58.889 Y59.674 E22.93420
G1 X59.206 Y60.117 E23.02614
G1 X59.365 Y60.419 E23.08376
G1 X59.491 Y60.738 E23.14159
G1 X59.620 Y61.258 E23.23181
G1 X59.663 Y61.802 E23.32393
G1 X59.663 Y80.220 E26.43021
G1 X55.777 Y81.870 E27.14234
G1 X55.771 Y78.671 E27.68182
G1 X55.161 Y77.728 F15000.000
G1 E21.68182 F2400.00000
G92 E0
G1 Z1.700 F15000.000
G1 X57.648 Y77.906 F15000.000
G1 Z0.700 F15000.000
G1 E6.00000 F2400.00000
G1 F1440
G1 X57.651 Y79.250 E6.29751
G1 X57.957 Y79.120 E6.37125
G1 X57.957 Y78.215 E6.57153
G1 X57.476 Y77.733 E6.72234
G1 X57.472 Y75.848 E7.13962
G1 X57.957 Y76.333 E7.29150
G1 E1.29150 F2400.00000
G92 E0
G1 Z1.700 F15000.000
G1 X57.957 Y63.159 F15000.000
G1 Z0.700 F15000.000
G1 E6.00000 F2400.00000
G1 F1440
G1 X55.263 Y60.464 E6.84339
G1 X53.791 Y60.874 E7.18160
G1 X57.957 Y65.041 E8.48576
G1 X57.957 Y66.923 E8.90229
G1 X52.386 Y61.351 E10.64607
G1 X51.961 Y61.666 E10.76311
G1 X51.836 Y61.792 E10.80242
G1 X51.602 Y62.092 E10.88672
G1 X51.473 Y62.320 E10.94463
G1 X57.957 Y68.805 E12.97427
G1 X57.957 Y70.687 E13.39080
G1 X51.192 Y63.922 E15.50823
G1 X51.192 Y65.804 E15.92476
G1 X57.957 Y72.569 E18.04219
G1 X57.957 Y74.451 E18.45872
G1 X51.192 Y67.686 E20.57615
G1 X51.192 Y69.568 E20.99268
G1 X57.557 Y75.932 E22.98470
G1 X56.238 Y76.496 E23.30207
G1 X50.819 Y71.077 E24.99807
G1 X49.498 Y71.638 E25.31573
G1 X54.919 Y77.059 E27.01252
G1 X53.601 Y77.622 E27.32989
G1 X48.177 Y72.198 E29.02747
G1 X46.856 Y72.759 E29.34513
G1 X52.282 Y78.186 E31.04349
G1 X50.963 Y78.749 E31.36086
G1 X46.544 Y74.330 E32.74406
G1 X46.544 Y76.212 E33.16059
G1 X49.644 Y79.312 E34.13104
G1 X48.326 Y79.876 E34.44841
G1 X46.544 Y78.094 E35.00613
G1 X46.544 Y79.976 E35.42266
G1 X47.023 Y80.455 E35.57260
G1 X47.023 Y82.337 E35.98913
G1 X46.544 Y81.858 E36.13907
G1 X46.544 Y83.740 E36.55560
G1 X46.716 Y83.913 E36.60965
G1 E30.60965 F2400.00000
G92 E0
G1 Z1.700 F15000.000
G1 X57.532 Y60.851 F15000.000
G1 Z0.700 F15000.000
G1 E6.00000 F2400.00000
G1 F1440
G1 X57.252 Y60.571 E6.08779
G1 X57.359 Y60.678 E6.12152
G1 E0.12152 F2400.00000
G92 E0
G1 Z1.700 F15000.000
G1 X56.746 Y77.040 F15000.000
G1 Z1.100 F15000.000
G1 E6.00000 F2400.00000
G1 F3600
G1 X47.751 Y80.883 E6.51107
G1 X47.751 Y84.235 E6.68619
G1 X45.816 Y85.056 E6.79599
G1 X45.816 Y72.439 E7.45518
G1 X50.464 Y70.466 E7.71901
G1 X50.464 Y63.558 E8.07992
G1 X50.504 Y63.034 E8.10734
G1 X50.607 Y62.577 E8.13186
G1 X50.775 Y62.139 E8.15639
G1 X51.006 Y61.730 E8.18091
G1 X51.306 Y61.344 E8.20643
G1 X51.510 Y61.139 E8.22156
G1 X51.876 Y60.849 E8.24595
G1 X52.119 Y60.699 E8.26088
G1 X52.545 Y60.502 E8.28541
G1 X52.849 Y60.401 E8.30213
G1 X55.758 Y59.591 E8.45988
G1 X56.195 Y59.511 E8.48310
G1 X56.417 Y59.502 E8.49469
G1 X56.788 Y59.536 E8.51418
G1 X57.157 Y59.632 E8.53406
G1 X57.506 Y59.786 E8.55402
G1 X57.860 Y60.027 E8.57639
G1 X58.137 Y60.304 E8.59686
G1 X58.375 Y60.638 E8.61830
G1 X58.556 Y61.033 E8.64097
G1 X58.651 Y61.419 E8.66172
G1 X58.685 Y61.841 E8.68387
G1 X58.685 Y79.572 E9.61024
G1 X56.752 Y80.393 E9.71994
G1 X56.747 Y77.190 E9.88725
G1 X56.433 Y77.516 F15000.000
G1 F3600
G1 X48.065 Y81.091 E10.36267
G1 X48.065 Y84.443 E10.53781
G1 X45.502 Y85.531 E10.68328
G1 X45.502 Y72.231 E11.37813
G1 X50.150 Y70.258 E11.64196
G1 X50.150 Y63.546 E11.99262
G1 X50.192 Y62.988 E12.02186
G1 X50.305 Y62.485 E12.04879
G1 X50.490 Y62.004 E12.07572
G1 X50.744 Y61.555 E12.10265
G1 X51.069 Y61.136 E12.13038
G1 X51.301 Y60.904 E12.14750
G1 X51.696 Y60.591 E12.17382
G1 X51.970 Y60.422 E12.19068
G1 X52.429 Y60.209 E12.21711
G1 X52.758 Y60.100 E12.23518
G1 X55.687 Y59.285 E12.39407
G1 X56.160 Y59.198 E12.41917
G1 X56.425 Y59.187 E12.43300
G1 X56.843 Y59.226 E12.45493
G1 X57.260 Y59.334 E12.47747
G1 X57.652 Y59.507 E12.49986
G1 X57.875 Y59.644 E12.51353
G1 X58.067 Y59.790 E12.52615
G1 X58.377 Y60.101 E12.54907
G1 X58.643 Y60.473 E12.57299
G1 X58.759 Y60.693 E12.58594
G1 X58.856 Y60.937 E12.59966
