; generated by Slic3r 1.3.1-dev on 2019-01-29 at 13:32:07

; external perimeters extrusion width = 0.44mm (2.14mm^3/s)
; perimeters extrusion width = 0.40mm (4.28mm^3/s)
; infill extrusion width = 0.50mm (7.31mm^3/s)
; solid infill extrusion width = 0.56mm (2.48mm^3/s)
; top infill extrusion width = 0.30mm (0.99mm^3/s)

M107
M190 S80 ; set bed temperature and wait for it to be reached
M104 S230 ; set temperature
G28 ; home all axes
G1 X150 Y150 Z50 F10000
; Filament gcode

M109 S230 ; set temperature and wait for it to be reached
G21 ; set units to millimeters
G90 ; use absolute coordinates
M82 ; use absolute distances for extrusion
G92 E0
G92 E0
G1 E-6.00000 F2400.00000
; layer 1
G92 E0
G1 Z1.000 F15000.000
G1 X121.218 Y121.413 F15000.000
G1 Z0.300 F15000.000
G1 E6.00000 F2400.00000
G1 F1800
G1 X121.568 Y121.069 E6.03281
G1 X122.169 Y120.537 E6.08644
G1 X123.083 Y119.851 E6.16277
G1 X123.769 Y119.415 E6.21703
G1 X124.188 Y119.179 E6.24921
G1 X125.219 Y118.686 E6.32555
G1 X125.666 Y118.507 E6.35773
G1 X126.435 Y118.246 E6.41198
G1 X127.543 Y117.965 E6.48833
G1 X128.026 Y117.877 E6.52115
G1 X128.822 Y117.773 E6.57477
G1 X129.964 Y117.717 E6.65112
G1 X130.775 Y117.741 E6.70536
G1 X131.256 Y117.781 E6.73756
G1 X132.386 Y117.950 E6.81389
G1 X132.865 Y118.055 E6.84669
G1 X133.639 Y118.268 E6.90027
G1 X134.714 Y118.657 E6.97668
G1 X135.163 Y118.854 E7.00946
G1 X135.881 Y119.215 E7.06310
G1 X136.858 Y119.808 E7.13945
G1 X137.252 Y120.085 E7.17163
G1 X137.891 Y120.586 E7.22590
G1 X138.732 Y121.360 E7.30223
G1 X139.064 Y121.709 E7.33441
G1 X139.592 Y122.326 E7.38867
G1 X140.264 Y123.250 E7.46500
G1 X140.687 Y123.943 E7.51926
G1 X140.917 Y124.367 E7.55145
G1 X141.393 Y125.405 E7.62778
G1 X141.672 Y126.169 E7.68207
G1 X141.899 Y126.948 E7.73631
G1 X142.010 Y127.417 E7.76850
G1 X142.198 Y128.544 E7.84483
G1 X142.246 Y129.032 E7.87761
G1 X142.284 Y129.835 E7.93128
G1 X142.246 Y130.977 E8.00761
G1 X142.197 Y131.465 E8.04040
G1 X142.075 Y132.259 E8.09405
G1 X141.813 Y133.371 E8.17040
G1 X141.565 Y134.144 E8.22463
G1 X141.393 Y134.595 E8.25684
G1 X140.917 Y135.633 E8.33317
G1 X140.521 Y136.342 E8.38744
G1 X140.264 Y136.750 E8.41963
G1 X139.592 Y137.674 E8.49594
G1 X139.277 Y138.052 E8.52880
G1 X138.732 Y138.640 E8.58239
G1 X137.891 Y139.414 E8.65873
G1 X137.252 Y139.915 E8.71298
G1 X136.858 Y140.192 E8.74516
G1 X135.881 Y140.785 E8.82152
G1 X135.445 Y141.011 E8.85431
G1 X134.715 Y141.343 E8.90792
G1 X133.640 Y141.732 E8.98429
G1 X133.168 Y141.868 E9.01709
G1 X132.386 Y142.050 E9.07070
G1 X131.256 Y142.219 E9.14705
G1 X130.445 Y142.275 E9.20134
G1 X129.633 Y142.278 E9.25559
G1 X129.152 Y142.254 E9.28777
G1 X128.017 Y142.122 E9.36411
G1 X127.543 Y142.035 E9.39629
G1 X126.753 Y141.846 E9.45056
G1 X125.667 Y141.493 E9.52688
G1 X125.219 Y141.314 E9.55906
G1 X124.482 Y140.973 E9.61332
G1 X123.486 Y140.413 E9.68966
G1 X123.083 Y140.149 E9.72186
G1 X122.427 Y139.670 E9.77611
G1 X121.561 Y138.924 E9.85245
G1 X120.990 Y138.347 E9.90671
G1 X120.669 Y137.987 E9.93889
G1 X119.968 Y137.086 E10.01522
G1 X119.692 Y136.679 E10.04805
G1 X119.278 Y135.991 E10.10166
G1 X118.768 Y134.969 E10.17801
G1 X118.582 Y134.524 E10.21019
G1 X118.308 Y133.761 E10.26440
G1 X118.009 Y132.657 E10.34079
G1 X117.914 Y132.185 E10.37297
G1 X117.796 Y131.381 E10.42723
G1 X117.720 Y130.241 E10.50357
G1 X117.721 Y129.750 E10.53636
G1 X117.763 Y128.948 E10.58999
G1 X117.914 Y127.815 E10.66635
G1 X118.011 Y127.334 E10.69915
G1 X118.211 Y126.556 E10.75279
G1 X118.582 Y125.476 E10.82912
G1 X118.768 Y125.031 E10.86129
G1 X119.121 Y124.300 E10.91556
G1 X119.698 Y123.313 E10.99191
G1 X119.968 Y122.914 E11.02409
G1 X120.458 Y122.267 E11.07834
G1 X121.176 Y121.457 E11.15069
G1 X121.606 Y121.783 F15000.000
G1 F1800
G1 X121.931 Y121.463 E11.18114
G1 X122.505 Y120.955 E11.23239
G1 X123.390 Y120.289 E11.30636
G1 X124.046 Y119.873 E11.35825
G1 X124.435 Y119.654 E11.38807
G1 X125.434 Y119.176 E11.46204
G1 X125.849 Y119.011 E11.49186
G1 X126.584 Y118.760 E11.54374
G1 X127.657 Y118.488 E11.61772
G1 X128.106 Y118.406 E11.64818
G1 X128.867 Y118.307 E11.69943
G1 X129.973 Y118.252 E11.77341
G1 X130.749 Y118.276 E11.82529
G1 X131.194 Y118.313 E11.85512
G1 X132.289 Y118.477 E11.92909
G1 X132.724 Y118.572 E11.95886
G1 X133.473 Y118.777 E12.01074
G1 X134.515 Y119.154 E12.08477
G1 X134.932 Y119.337 E12.11520
G1 X135.618 Y119.682 E12.16647
G1 X136.565 Y120.257 E12.24045
G1 X137.194 Y120.712 E12.29235
G1 X137.542 Y120.992 E12.32217
G1 X138.356 Y121.741 E12.39613
G1 X138.664 Y122.065 E12.42595
G1 X139.170 Y122.655 E12.47784
G1 X139.820 Y123.550 E12.55181
G1 X140.225 Y124.213 E12.60370
G1 X140.438 Y124.606 E12.63352
G1 X140.899 Y125.612 E12.70748
G1 X141.165 Y126.343 E12.75941
G1 X141.382 Y127.088 E12.81128
G1 X141.485 Y127.523 E12.84111
G1 X141.667 Y128.615 E12.91507
G1 X141.712 Y129.068 E12.94549
G1 X141.748 Y129.835 E12.99678
G1 X141.711 Y130.941 E13.07075
G1 X141.666 Y131.394 E13.10118
G1 X141.550 Y132.153 E13.15246
G1 X141.296 Y133.231 E13.22644
G1 X141.058 Y133.970 E13.27831
G1 X140.899 Y134.388 E13.30816
G1 X140.438 Y135.394 E13.38211
G1 X140.225 Y135.787 E13.41193
G1 X139.820 Y136.450 E13.46384
G1 X139.170 Y137.345 E13.53779
G1 X138.884 Y137.688 E13.56759
G1 X138.356 Y138.258 E13.61950
G1 X137.542 Y139.008 E13.69348
G1 X136.930 Y139.487 E13.74536
G1 X136.565 Y139.743 E13.77518
G1 X135.618 Y140.318 E13.84917
G1 X135.214 Y140.528 E13.87960
G1 X134.516 Y140.846 E13.93084
G1 X133.474 Y141.223 E14.00484
G1 X133.046 Y141.346 E14.03462
G1 X132.289 Y141.523 E14.08652
G1 X131.194 Y141.687 E14.16051
G1 X130.419 Y141.740 E14.21243
G1 X129.642 Y141.742 E14.26431
G1 X129.196 Y141.720 E14.29413
G1 X128.096 Y141.592 E14.36810
G1 X127.334 Y141.441 E14.42000
G1 X126.902 Y141.331 E14.44982
G1 X125.849 Y140.989 E14.52377
G1 X125.434 Y140.824 E14.55359
G1 X124.729 Y140.498 E14.60548
G1 X123.764 Y139.955 E14.67946
G1 X123.390 Y139.711 E14.70928
G1 X122.763 Y139.253 E14.76117
G1 X121.924 Y138.530 E14.83515
G1 X121.378 Y137.978 E14.88704
G1 X121.081 Y137.644 E14.91686
G1 X120.401 Y136.771 E14.99082
G1 X120.145 Y136.393 E15.02130
G1 X119.749 Y135.736 E15.07252
G1 X119.255 Y134.745 E15.14651
G1 X119.082 Y134.334 E15.17633
G1 X118.820 Y133.603 E15.22817
G1 X118.530 Y132.534 E15.30219
G1 X118.442 Y132.096 E15.33200
G1 X118.329 Y131.328 E15.38390
G1 X118.256 Y130.223 E15.45787
G1 X118.256 Y129.768 E15.48830
G1 X118.296 Y129.001 E15.53956
G1 X118.442 Y127.903 E15.61355
G1 X118.532 Y127.457 E15.64399
G1 X118.723 Y126.713 E15.69526
G1 X119.082 Y125.666 E15.76923
G1 X119.259 Y125.246 E15.79970
G1 X119.592 Y124.555 E15.85094
G1 X120.151 Y123.599 E15.92491
G1 X120.401 Y123.229 E15.95473
G1 X120.869 Y122.610 E16.00662
G1 X121.565 Y121.826 E16.07660
G1 X121.994 Y122.152 F15000.000
G1 F1800
G1 X122.294 Y121.857 E16.10468
G1 X122.841 Y121.372 E16.15357
G1 X123.698 Y120.727 E16.22517
G1 X124.324 Y120.331 E16.27470
G1 X124.683 Y120.130 E16.30215
G1 X125.649 Y119.667 E16.37376
G1 X126.031 Y119.514 E16.40121
G1 X126.732 Y119.275 E16.45072
G1 X127.772 Y119.012 E16.52234
G1 X128.175 Y118.937 E16.54976
G1 X128.911 Y118.841 E16.59932
G1 X129.981 Y118.788 E16.67093
G1 X130.722 Y118.811 E16.72044
G1 X131.132 Y118.845 E16.74790
G1 X132.192 Y119.004 E16.81951
G1 X132.602 Y119.094 E16.84758
G1 X133.308 Y119.286 E16.89643
G1 X134.316 Y119.651 E16.96809
G1 X134.702 Y119.821 E16.99620
G1 X135.355 Y120.149 E17.04505
G1 X136.272 Y120.705 E17.11667
G1 X136.872 Y121.140 E17.16620
G1 X137.192 Y121.397 E17.19366
G1 X137.981 Y122.123 E17.26525
G1 X138.264 Y122.421 E17.29270
G1 X138.747 Y122.984 E17.34223
G1 X139.377 Y123.851 E17.41383
G1 X139.763 Y124.484 E17.46336
G1 X139.958 Y124.845 E17.49082
G1 X140.405 Y125.819 E17.56241
G1 X140.659 Y126.516 E17.61197
G1 X140.866 Y127.228 E17.66148
G1 X140.960 Y127.628 E17.68894
G1 X141.136 Y128.685 E17.76053
G1 X141.178 Y129.104 E17.78865
G1 X141.212 Y129.835 E17.83751
G1 X141.177 Y130.906 E17.90912
G1 X141.135 Y131.324 E17.93718
G1 X141.025 Y132.048 E17.98609
G1 X140.779 Y133.091 E18.05771
G1 X140.551 Y133.796 E18.10721
G1 X140.405 Y134.181 E18.13469
G1 X139.958 Y135.155 E18.20628
G1 X139.596 Y135.802 E18.25582
G1 X139.377 Y136.149 E18.28327
G1 X138.747 Y137.016 E18.35486
G1 X138.484 Y137.332 E18.38230
G1 X137.981 Y137.877 E18.43184
G1 X137.192 Y138.603 E18.50345
G1 X136.608 Y139.059 E18.55297
G1 X136.272 Y139.295 E18.58042
G1 X135.355 Y139.851 E18.65205
G1 X134.982 Y140.045 E18.68011
G1 X134.317 Y140.348 E18.72898
G1 X133.309 Y140.713 E18.80061
G1 X132.914 Y140.827 E18.82803
G1 X132.192 Y140.996 E18.87756
G1 X131.132 Y141.155 E18.94919
G1 X130.392 Y141.205 E18.99874
G1 X129.651 Y141.207 E19.04826
G1 X129.240 Y141.186 E19.07570
G1 X128.176 Y141.063 E19.14732
G1 X127.449 Y140.918 E19.19685
G1 X127.050 Y140.817 E19.22430
G1 X126.031 Y140.486 E19.29589
G1 X125.640 Y140.329 E19.32400
G1 X124.976 Y140.023 E19.37286
G1 X124.042 Y139.497 E19.44447
G1 X123.698 Y139.272 E19.47193
G1 X123.099 Y138.836 E19.52145
G1 X122.287 Y138.136 E19.59307
G1 X121.766 Y137.609 E19.64259
G1 X121.493 Y137.302 E19.67004
G1 X120.834 Y136.456 E19.74164
G1 X120.599 Y136.108 E19.76974
G1 X120.220 Y135.481 E19.81861
G1 X119.742 Y134.522 E19.89023
G1 X119.583 Y134.143 E19.91768
G1 X119.332 Y133.446 E19.96716
G1 X119.051 Y132.411 E20.03881
G1 X118.970 Y132.008 E20.06626
G1 X118.862 Y131.275 E20.11579
G1 X118.791 Y130.205 E20.18739
G1 X118.791 Y129.785 E20.21546
G1 X118.829 Y129.054 E20.26436
G1 X118.970 Y127.992 E20.33598
G1 X119.054 Y127.580 E20.36406
G1 X119.235 Y126.870 E20.41296
G1 X119.583 Y125.857 E20.48456
G1 X119.746 Y125.469 E20.51266
G1 X120.063 Y124.810 E20.56153
G1 X120.604 Y123.884 E20.63314
G1 X120.834 Y123.544 E20.66060
G1 X121.281 Y122.952 E20.71012
G1 X121.953 Y122.195 E20.77773
G1 X122.382 Y122.521 F15000.000
G1 F1800
G1 X123.177 Y121.789 E20.84995
G1 X124.006 Y121.166 E20.91918
G1 X124.930 Y120.605 E20.99141
G1 X125.865 Y120.157 E21.06065
G1 X126.881 Y119.790 E21.13286
G1 X127.886 Y119.535 E21.20211
G1 X128.955 Y119.375 E21.27434
G1 X129.990 Y119.323 E21.34358
G1 X131.070 Y119.377 E21.41581
G1 X132.095 Y119.531 E21.48504
G1 X133.142 Y119.796 E21.55722
G1 X134.118 Y120.149 E21.62651
G1 X135.093 Y120.615 E21.69872
G1 X135.979 Y121.153 E21.76797
G1 X136.843 Y121.803 E21.84020
G1 X137.605 Y122.505 E21.90943
G1 X138.324 Y123.313 E21.98166
G1 X138.933 Y124.151 E22.05089
G1 X139.479 Y125.084 E22.12312
G1 X139.911 Y126.026 E22.19235
G1 X140.152 Y126.690 E22.23954
G1 X140.435 Y127.734 E22.31176
G1 X140.605 Y128.756 E22.38099
G1 X140.677 Y129.835 E22.45322
G1 X140.642 Y130.870 E22.52245
G1 X140.500 Y131.942 E22.59467
G1 X140.262 Y132.951 E22.66392
G1 X139.911 Y133.974 E22.73615
G1 X139.479 Y134.916 E22.80538
G1 X138.933 Y135.849 E22.87762
G1 X138.324 Y136.687 E22.94684
G1 X137.605 Y137.495 E23.01907
G1 X136.843 Y138.197 E23.08831
G1 X135.979 Y138.847 E23.16053
G1 X135.093 Y139.385 E23.22978
G1 X134.118 Y139.851 E23.30197
G1 X133.143 Y140.204 E23.37123
G1 X132.095 Y140.469 E23.44343
G1 X131.070 Y140.623 E23.51269
G1 X130.365 Y140.670 E23.55987
G1 X129.285 Y140.653 E23.63209
G1 X128.255 Y140.533 E23.70133
G1 X127.199 Y140.302 E23.77356
G1 X126.213 Y139.982 E23.84278
G1 X125.223 Y139.548 E23.91501
G1 X124.320 Y139.039 E23.98425
G1 X123.435 Y138.419 E24.05648
G1 X122.649 Y137.742 E24.12572
G1 X121.904 Y136.959 E24.19795
G1 X121.268 Y136.141 E24.26718
G1 X120.691 Y135.226 E24.33940
G1 X120.228 Y134.299 E24.40865
G1 X119.844 Y133.289 E24.48083
G1 X119.573 Y132.288 E24.55011
G1 X119.395 Y131.222 E24.62234
G1 X119.326 Y130.188 E24.69158
G1 X119.362 Y129.107 E24.76379
G1 X119.499 Y128.080 E24.83304
G1 X119.747 Y127.027 E24.90527
G1 X120.083 Y126.047 E24.97450
G1 X120.534 Y125.065 E25.04672
G1 X121.057 Y124.170 E25.11597
G1 X121.693 Y123.295 E25.18819
G1 X122.341 Y122.565 E25.25343
G1 X122.770 Y122.890 F15000.000
G1 F1800
G1 X123.513 Y122.206 E25.32092
G1 X124.313 Y121.604 E25.38779
G1 X125.177 Y121.080 E25.45529
G1 X126.080 Y120.648 E25.52216
G1 X127.030 Y120.304 E25.58965
G1 X128.000 Y120.058 E25.65653
G1 X128.999 Y119.909 E25.72403
G1 X129.999 Y119.859 E25.79090
G1 X131.008 Y119.909 E25.85840
G1 X131.998 Y120.057 E25.92527
G1 X132.977 Y120.305 E25.99272
G1 X133.919 Y120.646 E26.05964
G1 X134.830 Y121.082 E26.12712
G1 X135.686 Y121.602 E26.19400
G1 X136.493 Y122.209 E26.26150
G1 X137.230 Y122.887 E26.32837
G1 X137.902 Y123.642 E26.39587
G1 X138.490 Y124.451 E26.46273
G1 X139.000 Y125.324 E26.53024
G1 X139.417 Y126.233 E26.59710
G1 X139.645 Y126.864 E26.64192
G1 X139.910 Y127.839 E26.70941
G1 X140.074 Y128.827 E26.77627
G1 X140.141 Y129.835 E26.84377
G1 X140.108 Y130.835 E26.91064
G1 X139.975 Y131.837 E26.97813
G1 X139.745 Y132.811 E27.04501
G1 X139.417 Y133.767 E27.11251
G1 X139.000 Y134.676 E27.17937
G1 X138.490 Y135.549 E27.24688
G1 X137.902 Y136.358 E27.31374
G1 X137.230 Y137.113 E27.38124
G1 X136.493 Y137.791 E27.44811
G1 X135.686 Y138.398 E27.51560
G1 X134.830 Y138.918 E27.58249
G1 X133.919 Y139.354 E27.64995
G1 X132.977 Y139.695 E27.71685
G1 X131.998 Y139.943 E27.78432
G1 X131.008 Y140.091 E27.85121
G1 X130.339 Y140.135 E27.89602
G1 X129.329 Y140.119 E27.96351
G1 X128.334 Y140.003 E28.03039
G1 X127.347 Y139.788 E28.09788
G1 X126.396 Y139.478 E28.16474
G1 X125.470 Y139.073 E28.23224
G1 X124.598 Y138.582 E28.29912
G1 X123.771 Y138.001 E28.36661
G1 X123.012 Y137.348 E28.43349
G1 X122.316 Y136.616 E28.50099
G1 X121.701 Y135.826 E28.56785
G1 X121.162 Y134.972 E28.63534
G1 X120.715 Y134.076 E28.70223
G1 X120.356 Y133.132 E28.76968
G1 X120.094 Y132.165 E28.83659
G1 X119.928 Y131.169 E28.90409
G1 X119.862 Y130.170 E28.97096
G1 X119.895 Y129.160 E29.03844
G1 X120.027 Y128.168 E29.10533
G1 X120.259 Y127.185 E29.17283
G1 X120.584 Y126.238 E29.23969
G1 X121.005 Y125.319 E29.30719
G1 X121.510 Y124.455 E29.37406
G1 X122.104 Y123.638 E29.44156
G1 X122.729 Y122.934 E29.50443
G1 X123.158 Y123.260 F15000.000
G1 F1800
G1 X123.849 Y122.623 E29.56719
G1 X124.621 Y122.043 E29.63170
G1 X125.424 Y121.555 E29.69446
G1 X126.295 Y121.138 E29.75897
G1 X127.178 Y120.819 E29.82173
G1 X128.114 Y120.582 E29.88624
G1 X129.043 Y120.442 E29.94901
G1 X130.008 Y120.394 E30.01352
G1 X130.946 Y120.441 E30.07629
G1 X131.901 Y120.584 E30.14079
G1 X132.811 Y120.815 E30.20352
G1 X133.720 Y121.143 E30.26806
G1 X134.567 Y121.549 E30.33082
G1 X135.393 Y122.050 E30.39533
G1 X136.144 Y122.615 E30.45810
G1 X136.854 Y123.269 E30.52260
G1 X137.479 Y123.971 E30.58537
G1 X138.046 Y124.752 E30.64987
G1 X138.521 Y125.563 E30.71264
G1 X138.923 Y126.440 E30.77714
G1 X139.139 Y127.038 E30.81959
G1 X139.384 Y127.945 E30.88235
G1 X139.543 Y128.897 E30.94685
G1 X139.605 Y129.835 E31.00962
G1 X139.574 Y130.800 E31.07412
G1 X139.450 Y131.731 E31.13689
G1 X139.228 Y132.671 E31.20140
G1 X138.923 Y133.560 E31.26417
G1 X138.521 Y134.437 E31.32867
G1 X138.046 Y135.248 E31.39144
G1 X137.479 Y136.029 E31.45594
G1 X136.854 Y136.731 E31.51871
G1 X136.144 Y137.385 E31.58321
G1 X135.393 Y137.950 E31.64598
G1 X134.567 Y138.451 E31.71050
G1 X133.720 Y138.856 E31.77323
G1 X132.812 Y139.185 E31.83776
G1 X131.901 Y139.416 E31.90050
G1 X130.946 Y139.559 E31.96502
G1 X130.312 Y139.601 E32.00747
G1 X129.373 Y139.585 E32.07023
G1 X128.414 Y139.473 E32.13474
G1 X127.496 Y139.273 E32.19751
G1 X126.578 Y138.975 E32.26200
G1 X125.717 Y138.597 E32.32477
G1 X124.876 Y138.124 E32.38928
G1 X124.107 Y137.584 E32.45204
G1 X123.375 Y136.954 E32.51656
G1 X122.727 Y136.273 E32.57932
G1 X122.134 Y135.511 E32.64382
G1 X121.634 Y134.717 E32.70658
G1 X121.202 Y133.853 E32.77110
G1 X120.868 Y132.975 E32.83383
G1 X120.615 Y132.043 E32.89837
G1 X120.461 Y131.116 E32.96114
G1 X120.397 Y130.152 E33.02564
G1 X120.428 Y129.213 E33.08840
G1 X120.555 Y128.256 E33.15291
G1 X120.771 Y127.342 E33.21568
G1 X121.084 Y126.428 E33.28018
G1 X121.476 Y125.574 E33.34295
G1 X121.963 Y124.741 E33.40746
G1 X122.516 Y123.981 E33.47022
G1 X123.117 Y123.303 E33.53073
G1 X123.546 Y123.629 F15000.000
G1 F1800
G1 X124.185 Y123.040 E33.58876
G1 X124.928 Y122.481 E33.65090
G1 X125.671 Y122.031 E33.70893
G1 X126.510 Y121.629 E33.77108
G1 X127.327 Y121.333 E33.82910
G1 X128.229 Y121.105 E33.89125
G1 X129.088 Y120.976 E33.94929
