; generated by Slic3r 1.3.1-dev on 2019-06-17 at 13:03:34

; external perimeters extrusion width = 0.44mm (3.04mm^3/s)
; perimeters extrusion width = 0.40mm (6.04mm^3/s)
; infill extrusion width = 0.48mm (10.05mm^3/s)
; solid infill extrusion width = 0.48mm (3.02mm^3/s)
; top infill extrusion width = 0.45mm (2.22mm^3/s)

M107
M190 S80 ; set bed temperature and wait for it to be reached
M104 S230 ; set temperature
G28 ; home all axes
G1 X150 Y150 Z50 F10000
; Filament gcode
; layer 1
M109 S230 ; set temperature and wait for it to be reached
G21 ; set units to millimeters
G90 ; use absolute coordinates
M82 ; use absolute distances for extrusion
G92 E0
G92 E0
G1 Z0.300 F15000.000
G1 X49.563 Y67.019 F15000.000
G1 F3600
G1 X68.916 Y67.019 E1.29284
G1 X70.033 Y66.596 E1.37266
G1 X49.563 Y66.596 E2.74015
G1 X49.563 Y66.173 E2.76842
G1 X71.150 Y66.173 E4.21056
G1 X72.268 Y65.750 E4.29038
G1 X49.563 Y65.750 E5.80716
G1 X49.563 Y65.327 E5.83543
G1 X73.385 Y65.327 E7.42687
G1 X74.240 Y65.003 E7.48796
G1 X74.560 Y64.904 E7.51028
G1 X49.563 Y64.904 E9.18017
G1 X49.563 Y64.480 E9.20844
G1 X76.059 Y64.480 E10.97846
G92 E0
G1 X68.916 Y58.557 F15000.000
G1 F3600
G1 X49.563 Y58.557 E1.29284
G1 X49.563 Y58.980 E1.32111
G1 X70.033 Y58.980 E2.68860
G1 X71.150 Y59.403 E2.76842
G1 X49.563 Y59.403 E4.21056
G1 X49.563 Y59.826 E4.23882
G1 X72.268 Y59.826 E5.75561
G1 X73.385 Y60.249 E5.83543
G1 X49.563 Y60.249 E7.42687
G1 X49.563 Y60.672 E7.45514
G1 X74.560 Y60.672 E9.12502
G1 X75.721 Y61.034 E9.20627
G1 X76.059 Y61.096 E9.22921
G1 X49.563 Y61.096 E10.99924
G1 X49.563 Y61.519 E11.02750
G1 X112.788 Y61.519 E15.25123
G1 X112.788 Y61.942 E15.27950
G1 X49.563 Y61.942 E19.50322
G1 X49.563 Y62.365 E19.53149
G1 X112.788 Y62.365 E23.75522
G1 X112.788 Y62.788 E23.78348
G1 X49.563 Y62.788 E28.00721
G1 X49.563 Y63.211 E28.03548
G1 X112.788 Y63.211 E32.25920
G1 X112.788 Y63.634 E32.28747
G1 X49.563 Y63.634 E36.51120
G1 X49.563 Y64.057 E36.53946
G1 X112.788 Y64.057 E40.76319
G1 X112.788 Y64.480 E40.79145
G1 X86.292 Y64.480 E42.56148
G1 X86.630 Y64.542 E42.58442
G1 X87.791 Y64.904 E42.66567
G1 X112.788 Y64.904 E44.33555
G1 X112.788 Y65.327 E44.36382
G1 X88.966 Y65.327 E45.95526
G1 X90.083 Y65.750 E46.03508
G1 X112.788 Y65.750 E47.55186
G1 X112.788 Y66.173 E47.58013
G1 X91.200 Y66.173 E49.02227
G1 X92.318 Y66.596 E49.10209
G1 X112.788 Y66.596 E50.46958
G1 X112.788 Y67.019 E50.49785
G1 X93.435 Y67.019 E51.79069
G92 E0
G1 X86.292 Y61.096 F15000.000
G1 F3600
G1 X112.788 Y61.096 E1.77003
G1 X112.788 Y60.672 E1.79830
G1 X87.791 Y60.672 E3.46819
G1 X88.111 Y60.573 E3.49052
G1 X88.966 Y60.249 E3.55160
G1 X112.788 Y60.249 E5.14304
G1 X112.788 Y59.826 E5.17131
G1 X90.083 Y59.826 E6.68810
G1 X91.200 Y59.403 E6.76792
G1 X112.788 Y59.403 E8.21006
G1 X112.788 Y58.980 E8.23832
G1 X92.318 Y58.980 E9.60581
G1 X93.435 Y58.557 E9.68564
G1 X112.788 Y58.557 E10.97848
M104 S205 ; set temperature
M140 S55 ; set bed temperature
G1 Z0.600 F15000.000
G1 X112.773 Y58.557 F15000.000
G1 F4800
G1 X93.450 Y58.557 E11.98797
G1 X92.333 Y58.980 E12.05040
G1 X112.773 Y58.980 E13.11827
G1 X112.773 Y59.403 E13.14037
G1 X91.215 Y59.403 E14.26663
G1 X90.098 Y59.826 E14.32905
G1 X112.773 Y59.826 E15.51368
G1 X112.773 Y60.249 E15.53579
G1 X88.981 Y60.249 E16.77880
G1 X88.126 Y60.573 E16.82657
G1 X87.806 Y60.672 E16.84403
G1 X112.773 Y60.672 E18.14840
G1 X112.773 Y61.096 E18.17050
G1 X86.307 Y61.096 E19.55318
G92 E0
G1 X93.450 Y67.019 F15000.000
G1 F4800
G1 X112.773 Y67.019 E1.00949
G1 X112.773 Y66.596 E1.03160
G1 X92.333 Y66.596 E2.09947
G1 X91.216 Y66.173 E2.16190
G1 X112.773 Y66.173 E3.28815
G1 X112.773 Y65.750 E3.31025
G1 X90.098 Y65.750 E4.49488
G1 X88.981 Y65.327 E4.55731
G1 X112.773 Y65.327 E5.80032
G1 X112.773 Y64.904 E5.82242
G1 X87.806 Y64.904 E7.12678
G1 X86.645 Y64.542 E7.19032
G1 X86.307 Y64.480 E7.20826
G1 X112.773 Y64.480 E8.59093
G1 X112.773 Y64.057 E8.61304
G1 X49.578 Y64.057 E11.91462
G1 X49.578 Y63.634 E11.93673
G1 X112.773 Y63.634 E15.23831
G1 X112.773 Y63.211 E15.26041
G1 X49.578 Y63.211 E18.56199
G1 X49.578 Y62.788 E18.58410
G1 X112.773 Y62.788 E21.88568
G1 X112.773 Y62.365 E21.90779
G1 X49.578 Y62.365 E25.20937
G1 X49.578 Y61.942 E25.23147
G1 X112.773 Y61.942 E28.53305
G1 X112.773 Y61.519 E28.55516
G1 X49.578 Y61.519 E31.85674
G1 X49.578 Y61.096 E31.87885
G1 X76.044 Y61.096 E33.26152
G1 X75.706 Y61.034 E33.27946
G1 X74.545 Y60.672 E33.34300
G1 X49.578 Y60.672 E34.64736
G1 X49.578 Y60.249 E34.66947
G1 X73.370 Y60.249 E35.91248
G1 X72.253 Y59.826 E35.97490
G1 X49.578 Y59.826 E37.15953
G1 X49.578 Y59.403 E37.18164
G1 X71.135 Y59.403 E38.30789
G1 X70.018 Y58.980 E38.37031
G1 X49.578 Y58.980 E39.43819
G1 X49.578 Y58.557 E39.46029
G1 X68.901 Y58.557 E40.46979
G92 E0
G1 X76.044 Y64.480 F15000.000
G1 F4800
G1 X49.578 Y64.480 E1.38268
G1 X49.578 Y64.904 E1.40478
G1 X74.545 Y64.904 E2.70914
G1 X74.224 Y65.004 E2.72671
G1 X73.370 Y65.327 E2.77438
G1 X49.578 Y65.327 E4.01739
G1 X49.578 Y65.750 E4.03949
G1 X72.253 Y65.750 E5.22412
G1 X71.135 Y66.173 E5.28655
G1 X49.578 Y66.173 E6.41280
G1 X49.578 Y66.596 E6.43490
G1 X70.018 Y66.596 E7.50277
G1 X68.901 Y67.019 E7.56520
G1 X49.578 Y67.019 E8.57469
G1 Z0.900 F15000.000
G1 F4800
G1 X68.901 Y67.019 E9.58418
G1 X70.018 Y66.596 E9.64661
G1 X49.578 Y66.596 E10.71448
G1 X49.578 Y66.173 E10.73659
G1 X71.135 Y66.173 E11.86284
G1 X72.253 Y65.750 E11.92526
G1 X49.578 Y65.750 E13.10989
G1 X49.578 Y65.327 E13.13200
G1 X73.370 Y65.327 E14.37501
G1 X74.225 Y65.003 E14.42278
G1 X74.545 Y64.904 E14.44024
G1 X49.578 Y64.904 E15.74460
G1 X49.578 Y64.480 E15.76671
G1 X76.044 Y64.480 E17.14938
G92 E0
G1 X68.901 Y58.557 F15000.000
G1 F4800
G1 X49.578 Y58.557 E1.00949
G1 X49.578 Y58.980 E1.03160
G1 X70.018 Y58.980 E2.09947
G1 X71.135 Y59.403 E2.16190
G1 X49.578 Y59.403 E3.28815
G1 X49.578 Y59.826 E3.31025
G1 X72.253 Y59.826 E4.49488
G1 X73.370 Y60.249 E4.55731
G1 X49.578 Y60.249 E5.80032
G1 X49.578 Y60.672 E5.82242
G1 X74.545 Y60.672 E7.12679
G1 X75.689 Y61.031 E7.18943
G1 X76.044 Y61.096 E7.20827
G1 X49.578 Y61.096 E8.59095
G1 X49.578 Y61.519 E8.61305
G1 X112.773 Y61.519 E11.91463
G1 X112.773 Y61.942 E11.93674
G1 X49.578 Y61.942 E15.23832
G1 X49.578 Y62.365 E15.26043
G1 X112.773 Y62.365 E18.56201
G1 X112.773 Y62.788 E18.58411
G1 X49.578 Y62.788 E21.88569
G1 X49.578 Y63.211 E21.90780
G1 X112.773 Y63.211 E25.20938
G1 X112.773 Y63.634 E25.23149
G1 X49.578 Y63.634 E28.53307
G1 X49.578 Y64.057 E28.55517
G1 X112.773 Y64.057 E31.85675
G1 X112.773 Y64.480 E31.87886
G1 X86.307 Y64.480 E33.26153
G1 X86.645 Y64.542 E33.27947
G1 X87.806 Y64.904 E33.34301
G1 X112.773 Y64.904 E34.64737
G1 X112.773 Y65.327 E34.66948
G1 X88.981 Y65.327 E35.91249
G1 X90.098 Y65.750 E35.97491
G1 X112.773 Y65.750 E37.15954
G1 X112.773 Y66.173 E37.18165
G1 X91.215 Y66.173 E38.30790
G1 X92.333 Y66.596 E38.37032
G1 X112.773 Y66.596 E39.43819
G1 X112.773 Y67.019 E39.46030
G1 X93.450 Y67.019 E40.46979
G92 E0
G1 X86.307 Y61.096 F15000.000
G1 F4800
G1 X112.773 Y61.096 E1.38268
G1 X112.773 Y60.672 E1.40478
G1 X87.806 Y60.672 E2.70915
G1 X88.125 Y60.573 E2.72661
G1 X88.981 Y60.249 E2.77438
G1 X112.773 Y60.249 E4.01739
G1 X112.773 Y59.826 E4.03950
G1 X90.098 Y59.826 E5.22413
G1 X91.215 Y59.403 E5.28655
G1 X112.773 Y59.403 E6.41281
G1 X112.773 Y58.980 E6.43491
G1 X92.333 Y58.980 E7.50278
G1 X93.450 Y58.557 E7.56521
G1 X112.773 Y58.557 E8.57470
M106 S255
G1 Z1.200 F15000.000
G1 F4800
G1 X93.450 Y58.557 E9.58420
G1 X92.333 Y58.980 E9.64662
G1 X112.773 Y58.980 E10.71449
G1 X112.773 Y59.403 E10.73660
G1 X91.215 Y59.403 E11.86285
G1 X90.098 Y59.826 E11.92528
G1 X112.773 Y59.826 E13.10991
G1 X112.773 Y60.249 E13.13201
G1 X88.981 Y60.249 E14.37502
G1 X88.126 Y60.573 E14.42280
G1 X87.806 Y60.672 E14.44026
G1 X112.773 Y60.672 E15.74462
G1 X112.773 Y61.096 E15.76673
G1 X86.307 Y61.096 E17.14941
G92 E0
G1 X93.450 Y67.019 F15000.000
G1 F4800
G1 X112.773 Y67.019 E1.00949
G1 X112.773 Y66.596 E1.03160
G1 X92.333 Y66.596 E2.09947
G1 X91.216 Y66.173 E2.16190
G1 X112.773 Y66.173 E3.28815
G1 X112.773 Y65.750 E3.31025
G1 X90.098 Y65.750 E4.49488
G1 X88.981 Y65.327 E4.55731
G1 X112.773 Y65.327 E5.80032
G1 X112.773 Y64.904 E5.82242
G1 X87.806 Y64.904 E7.12678
G1 X86.645 Y64.542 E7.19032
G1 X86.307 Y64.480 E7.20826
G1 X112.773 Y64.480 E8.59093
G1 X112.773 Y64.057 E8.61304
G1 X49.578 Y64.057 E11.91462
G1 X49.578 Y63.634 E11.93673
G1 X112.773 Y63.634 E15.23831
G1 X112.773 Y63.211 E15.26041
G1 X49.578 Y63.211 E18.56199
G1 X49.578 Y62.788 E18.58410
G1 X112.773 Y62.788 E21.88568
G1 X112.773 Y62.365 E21.90779
G1 X49.578 Y62.365 E25.20937
G1 X49.578 Y61.942 E25.23147
G1 X112.773 Y61.942 E28.53305
G1 X112.773 Y61.519 E28.55516
G1 X49.578 Y61.519 E31.85674
G1 X49.578 Y61.096 E31.87885
G1 X76.044 Y61.096 E33.26152
G1 X75.706 Y61.034 E33.27946
G1 X74.545 Y60.672 E33.34300
G1 X49.578 Y60.672 E34.64736
G1 X49.578 Y60.249 E34.66947
G1 X73.370 Y60.249 E35.91248
G1 X72.253 Y59.826 E35.97490
G1 X49.578 Y59.826 E37.15953
G1 X49.578 Y59.403 E37.18164
G1 X71.136 Y59.403 E38.30789
G1 X70.018 Y58.980 E38.37031
G1 X49.578 Y58.980 E39.43819
G1 X49.578 Y58.557 E39.46029
G1 X68.901 Y58.557 E40.46979
G92 E0
G1 X76.044 Y64.480 F15000.000
G1 F4800
G1 X49.578 Y64.480 E1.38268
G1 X49.578 Y64.904 E1.40478
G1 X74.545 Y64.904 E2.70914
G1 X74.225 Y65.003 E2.72660
G1 X73.370 Y65.327 E2.77438
G1 X49.578 Y65.327 E4.01739
G1 X49.578 Y65.750 E4.03949
G1 X72.253 Y65.750 E5.22412
G1 X71.135 Y66.173 E5.28655
G1 X49.578 Y66.173 E6.41280
G1 X49.578 Y66.596 E6.43490
G1 X70.018 Y66.596 E7.50277
G1 X68.901 Y67.019 E7.56520
G1 X49.578 Y67.019 E8.57469
G1 Z1.500 F15000.000
G1 F4800
G1 X68.901 Y67.019 E9.58418
G1 X70.018 Y66.596 E9.64661
G1 X49.578 Y66.596 E10.71448
G1 X49.578 Y66.173 E10.73659
G1 X71.135 Y66.173 E11.86284
G1 X72.253 Y65.750 E11.92526
G1 X49.578 Y65.750 E13.10989
G1 X49.578 Y65.327 E13.13200
G1 X73.370 Y65.327 E14.37501
G1 X74.225 Y65.003 E14.42278
G1 X74.545 Y64.904 E14.44024
G1 X49.578 Y64.904 E15.74460
G1 X49.578 Y64.480 E15.76671
G1 X76.044 Y64.480 E17.14938
G92 E0
G1 X68.901 Y58.557 F15000.000
G1 F4800
G1 X49.578 Y58.557 E1.00949
G1 X49.578 Y58.980 E1.03160
G1 X70.018 Y58.980 E2.09947
G1 X71.135 Y59.403 E2.16190
G1 X49.578 Y59.403 E3.28815
G1 X49.578 Y59.826 E3.31025
G1 X72.253 Y59.826 E4.49488
G1 X73.370 Y60.249 E4.55731
G1 X49.578 Y60.249 E5.80032
G1 X49.578 Y60.672 E5.82242
G1 X74.545 Y60.672 E7.12679
G1 X75.706 Y61.034 E7.19032
G1 X76.044 Y61.096 E7.20826
G1 X49.578 Y61.096 E8.59094
G1 X49.578 Y61.519 E8.61305
G1 X112.773 Y61.519 E11.91463
G1 X112.773 Y61.942 E11.93673
G1 X49.578 Y61.942 E15.23831
G1 X49.578 Y62.365 E15.26042
G1 X112.773 Y62.365 E18.56200
G1 X112.773 Y62.788 E18.58411
G1 X49.578 Y62.788 E21.88569
G1 X49.578 Y63.211 E21.90779
G1 X112.773 Y63.211 E25.20937
G1 X112.773 Y63.634 E25.23148
G1 X49.578 Y63.634 E28.53306
G1 X49.578 Y64.057 E28.55517
G1 X112.773 Y64.057 E31.85675
G1 X112.773 Y64.480 E31.87885
G1 X86.307 Y64.480 E33.26153
G1 X86.645 Y64.542 E33.27947
G1 X87.806 Y64.904 E33.34300
G1 X112.773 Y64.904 E34.64736
G1 X112.773 Y65.327 E34.66947
G1 X88.981 Y65.327 E35.91248
G1 X90.098 Y65.750 E35.97490
G1 X112.773 Y65.750 E37.15953
G1 X112.773 Y66.173 E37.18164
G1 X91.216 Y66.173 E38.30789
G1 X92.333 Y66.596 E38.37031
G1 X112.773 Y66.596 E39.43819
G1 X112.773 Y67.019 E39.46029
G1 X93.450 Y67.019 E40.46979
G92 E0
G1 X86.307 Y61.096 F15000.000
G1 F4800
G1 X112.773 Y61.096 E1.38268
G1 X112.773 Y60.672 E1.40478
G1 X87.806 Y60.672 E2.70915
G1 X88.126 Y60.573 E2.72661
G1 X88.981 Y60.249 E2.77438
G1 X112.773 Y60.249 E4.01739
G1 X112.773 Y59.826 E4.03950
G1 X90.098 Y59.826 E5.22413
G1 X91.215 Y59.403 E5.28655
G1 X112.773 Y59.403 E6.41281
G1 X112.773 Y58.980 E6.43491
G1 X92.333 Y58.980 E7.50278
G1 X93.450 Y58.557 E7.56521
G1 X112.773 Y58.557 E8.57470
G1 Z1.800 F15000.000
G1 F4800
G1 X93.450 Y58.557 E9.58420
G1 X92.333 Y58.980 E9.64662
G1 X112.773 Y58.980 E10.71449
G1 X112.773 Y59.403 E10.73660
G1 X91.215 Y59.403 E11.86285
G1 X90.098 Y59.826 E11.92528
G1 X112.773 Y59.826 E13.10991
G1 X112.773 Y60.249 E13.13201
G1 X88.981 Y60.249 E14.37502
G1 X88.125 Y60.573 E14.42280
G1 X87.806 Y60.672 E14.44026
G1 X112.773 Y60.672 E15.74462
G1 X112.773 Y61.096 E15.76673
G1 X86.307 Y61.096 E17.14941
G92 E0
G1 X93.450 Y67.019 F15000.000
G1 F4800
G1 X112.773 Y67.019 E1.00949
G1 X112.773 Y66.596 E1.03160
G1 X92.333 Y66.596 E2.09947
G1 X91.216 Y66.173 E2.16190
G1 X112.773 Y66.173 E3.28815
G1 X112.773 Y65.750 E3.31025
G1 X90.098 Y65.750 E4.49488
G1 X88.981 Y65.327 E4.55731
G1 X112.773 Y65.327 E5.80032
G1 X112.773 Y64.904 E5.82242
G1 X87.806 Y64.904 E7.12678
G1 X86.645 Y64.542 E7.19032
G1 X86.307 Y64.480 E7.20826
G1 X112.773 Y64.480 E8.59093
G1 X112.773 Y64.057 E8.61304
G1 X49.578 Y64.057 E11.91462
G1 X49.578 Y63.634 E11.93673
G1 X112.773 Y63.634 E15.23831
G1 X112.773 Y63.211 E15.26041
G1 X49.578 Y63.211 E18.56199
G1 X49.578 Y62.788 E18.58410
G1 X112.773 Y62.788 E21.88568
G1 X112.773 Y62.365 E21.90779
G1 X49.578 Y62.365 E25.20937
G1 X49.578 Y61.942 E25.23147
G1 X112.773 Y61.942 E28.53305
G1 X112.773 Y61.519 E28.55516
G1 X49.578 Y61.519 E31.85674
G1 X49.578 Y61.096 E31.87885
G1 X76.044 Y61.096 E33.26152
G1 X75.706 Y61.034 E33.27946
G1 X74.545 Y60.672 E33.34300
G1 X49.578 Y60.672 E34.64736
G1 X49.578 Y60.249 E34.66947
G1 X73.370 Y60.249 E35.91248
G1 X72.253 Y59.826 E35.97490
G1 X49.578 Y59.826 E37.15953
G1 X49.578 Y59.403 E37.18164
G1 X71.135 Y59.403 E38.30789
G1 X70.018 Y58.980 E38.37031
G1 X49.578 Y58.980 E39.43819
G1 X49.578 Y58.557 E39.46029
G1 X68.901 Y58.557 E40.46979
G92 E0
G1 X76.044 Y64.480 F15000.000
G1 F4800
G1 X49.578 Y64.480 E1.38268
G1 X49.578 Y64.904 E1.40478
G1 X74.545 Y64.904 E2.70914
G1 X74.225 Y65.003 E2.72660
G1 X73.370 Y65.327 E2.77438
G1 X49.578 Y65.327 E4.01739
G1 X49.578 Y65.750 E4.03949
G1 X72.253 Y65.750 E5.22412
G1 X71.135 Y66.173 E5.28655
G1 X49.578 Y66.173 E6.41280
G1 X49.578 Y66.596 E6.43490
G1 X70.018 Y66.596 E7.50277
G1 X68.901 Y67.019 E7.56520
G1 X49.578 Y67.019 E8.57469
G1 Z2.100 F15000.000
G1 F4800
G1 X68.901 Y67.019 E9.58419
G1 X70.018 Y66.596 E9.64661
G1 X49.578 Y66.596 E10.71448
G1 X49.578 Y66.173 E10.73659
G1 X71.135 Y66.173 E11.86284
G1 X72.253 Y65.750 E11.92526
G1 X49.578 Y65.750 E13.10989
G1 X49.578 Y65.327 E13.13200
G1 X73.370 Y65.327 E14.37501
G1 X74.225 Y65.003 E14.42278
G1 X74.545 Y64.904 E14.44024
G1 X49.578 Y64.904 E15.74460
G1 X49.578 Y64.480 E15.76671
G1 X76.044 Y64.480 E17.14938
G92 E0
G1 X68.901 Y58.557 F15000.000
G1 F4800
G1 X49.578 Y58.557 E1.00949
G1 X49.578 Y58.980 E1.03160
G1 X70.018 Y58.980 E2.09947
G1 X71.135 Y59.403 E2.16190
G1 X49.578 Y59.403 E3.28815
G1 X49.578 Y59.826 E3.31025
G1 X72.253 Y59.826 E4.49488
G1 X73.370 Y60.249 E4.55731
G1 X49.578 Y60.249 E5.80032
G1 X49.578 Y60.672 E5.82242
G1 X74.545 Y60.672 E7.12679
G1 X75.706 Y61.034 E7.19032
G1 X76.044 Y61.096 E7.20826
G1 X49.578 Y61.096 E8.59094
G1 X49.578 Y61.519 E8.61305
G1 X112.773 Y61.519 E11.91463
G1 X112.773 Y61.942 E11.93673
G1 X49.578 Y61.942 E15.23831
G1 X49.578 Y62.365 E15.26042
G1 X112.773 Y62.365 E18.56200
G1 X112.773 Y62.788 E18.58411
G1 X49.578 Y62.788 E21.88569
G1 X49.578 Y63.211 E21.90779
G1 X112.773 Y63.211 E25.20937
G1 X112.773 Y63.634 E25.23148
G1 X49.578 Y63.634 E28.53306
G1 X49.578 Y64.057 E28.55517
G1 X112.773 Y64.057 E31.85675
G1 X112.773 Y64.480 E31.87885
G1 X86.307 Y64.480 E33.26153
G1 X86.645 Y64.542 E33.27947
G1 X87.806 Y64.904 E33.34300
G1 X112.773 Y64.904 E34.64736
G1 X112.773 Y65.327 E34.66947
G1 X88.981 Y65.327 E35.91248
G1 X90.098 Y65.750 E35.97490
G1 X112.773 Y65.750 E37.15953
G1 X112.773 Y66.173 E37.18164
G1 X91.216 Y66.173 E38.30789
G1 X92.333 Y66.596 E38.37031
G1 X112.773 Y66.596 E39.43819
G1 X112.773 Y67.019 E39.46029
G1 X93.450 Y67.019 E40.46979
G92 E0
G1 X86.307 Y61.096 F15000.000
G1 F4800
G1 X112.773 Y61.096 E1.38268
G1 X112.773 Y60.672 E1.40478
G1 X87.806 Y60.672 E2.70915
G1 X88.126 Y60.573 E2.72661
G1 X88.981 Y60.249 E2.77438
G1 X112.773 Y60.249 E4.01739
G1 X112.773 Y59.826 E4.03950
G1 X90.098 Y59.826 E5.22413
G1 X91.215 Y59.403 E5.28655
G1 X112.773 Y59.403 E6.41281
G1 X112.773 Y58.980 E6.43491
G1 X92.333 Y58.980 E7.50278
G1 X93.450 Y58.557 E7.56521
G1 X112.773 Y58.557 E8.57470
