; generated by Slic3r 1.3.1-dev on 2019-06-25 at 13:34:27

; external perimeters extrusion width = 0.44mm (2.14mm^3/s)
; perimeters extrusion width = 0.40mm (4.28mm^3/s)
; infill extrusion width = 0.50mm (7.31mm^3/s)
; solid infill extrusion width = 0.56mm (2.48mm^3/s)
; top infill extrusion width = 0.30mm (0.99mm^3/s)

M107
M190 S80 ; set bed temperature and wait for it to be reached
M104 S230 ; set temperature
G28 ; home all axes
G1 X150 Y150 Z50 F10000
; Filament gcode
; layer 1
M109 S230 ; set temperature and wait for it to be reached
G21 ; set units to millimeters
G90 ; use absolute coordinates
M82 ; use absolute distances for extrusion
G92 E0
G92 E0
G1 Z0.000 F15000.000
G1 X49.732 Y58.996 F15000.000
G1 F3600
G1 X69.896 Y58.996 E1.34704
G1 X71.013 Y58.573 E1.42686
G1 X49.732 Y58.573 E2.84855
G1 X49.732 Y58.150 E2.87682
G1 X72.131 Y58.150 E4.37316
G1 X73.248 Y57.727 E4.45298
G1 X49.732 Y57.727 E6.02397
G1 X49.732 Y57.304 E6.05223
G1 X74.365 Y57.304 E7.69787
G1 X75.221 Y56.980 E7.75896
G1 X75.540 Y56.881 E7.78129
G1 X49.732 Y56.881 E9.50537
G1 X49.732 Y56.457 E9.53364
G1 X77.039 Y56.457 E11.35787
G92 E0
G1 X69.896 Y50.534 F15000.000
G1 F3600
G1 X49.732 Y50.534 E1.34704
G1 X49.732 Y50.957 E1.37531
G1 X71.013 Y50.957 E2.79700
G1 X72.131 Y51.380 E2.87682
G1 X49.732 Y51.380 E4.37316
G1 X49.732 Y51.803 E4.40142
G1 X73.248 Y51.803 E5.97241
G1 X74.365 Y52.226 E6.05224
G1 X49.732 Y52.226 E7.69787
G1 X49.732 Y52.649 E7.72614
G1 X75.540 Y52.649 E9.45023
G1 X76.701 Y53.011 E9.53147
G1 X77.039 Y53.073 E9.55441
G1 X49.732 Y53.073 E11.37865
G1 X49.732 Y53.496 E11.40691
G1 X113.768 Y53.496 E15.68484
G1 X113.768 Y53.919 E15.71310
G1 X49.732 Y53.919 E19.99103
G1 X49.732 Y54.342 E20.01930
G1 X113.768 Y54.342 E24.29723
G1 X113.768 Y54.765 E24.32549
G1 X49.732 Y54.765 E28.60342
G1 X49.732 Y55.188 E28.63169
G1 X113.768 Y55.188 E32.90961
G1 X113.768 Y55.611 E32.93788
G1 X49.732 Y55.611 E37.21581
G1 X49.732 Y56.034 E37.24407
G1 X113.768 Y56.034 E41.52200
G1 X113.768 Y56.457 E41.55027
G1 X86.461 Y56.457 E43.37450
G1 X86.799 Y56.519 E43.39744
G1 X87.960 Y56.881 E43.47868
G1 X113.768 Y56.881 E45.20277
G1 X113.768 Y57.304 E45.23104
G1 X89.135 Y57.304 E46.87667
G1 X90.252 Y57.727 E46.95649
G1 X113.768 Y57.727 E48.52748
G1 X113.768 Y58.150 E48.55575
G1 X91.369 Y58.150 E50.05209
G1 X92.487 Y58.573 E50.13191
G1 X113.768 Y58.573 E51.55360
G1 X113.768 Y58.996 E51.58186
G1 X93.604 Y58.996 E52.92891
G92 E0
G1 X86.461 Y53.073 F15000.000
G1 F3600
G1 X113.768 Y53.073 E1.82423
G1 X113.768 Y52.649 E1.85250
G1 X87.960 Y52.649 E3.57659
G1 X88.279 Y52.550 E3.59892
G1 X89.135 Y52.226 E3.66001
G1 X113.768 Y52.226 E5.30564
G1 X113.768 Y51.803 E5.33391
G1 X90.252 Y51.803 E6.90490
G1 X91.369 Y51.380 E6.98472
G1 X113.768 Y51.380 E8.48106
G1 X113.768 Y50.957 E8.50933
G1 X92.487 Y50.957 E9.93102
G1 X93.604 Y50.534 E10.01084
G1 X113.768 Y50.534 E11.35788
M104 S205 ; set temperature
M140 S55 ; set bed temperature
G1 Z0.200 F15000.000
G1 X113.679 Y50.610 F15000.000
G1 F4800
G1 X93.528 Y50.610 E12.12373
G1 X92.309 Y51.071 E12.17328
G1 X113.679 Y51.071 E12.98548
G1 X113.679 Y51.533 E13.00302
G1 X91.089 Y51.533 E13.86156
G1 X89.870 Y51.995 E13.91111
G1 X113.679 Y51.995 E14.81598
G1 X113.679 Y52.457 E14.83353
G1 X88.651 Y52.457 E15.78475
G1 X88.356 Y52.568 E15.79674
G1 X87.231 Y52.918 E15.84151
G1 X113.679 Y52.918 E16.84669
G1 X113.679 Y53.380 E16.86424
G1 X84.182 Y53.380 E17.98530
G92 E0
G1 X79.318 Y56.150 F15000.000
G1 F4800
G1 X49.821 Y56.150 E1.12106
G1 X49.821 Y56.612 E1.13861
G1 X76.269 Y56.612 E2.14379
G1 X75.144 Y56.962 E2.18856
G1 X74.849 Y57.073 E2.20055
G1 X49.821 Y57.073 E3.15177
G1 X49.821 Y57.535 E3.16931
G1 X73.630 Y57.535 E4.07419
G1 X72.411 Y57.997 E4.12374
G1 X49.821 Y57.997 E4.98227
G1 X49.821 Y58.459 E4.99982
G1 X71.191 Y58.459 E5.81201
G1 X69.972 Y58.920 E5.86156
G1 X49.821 Y58.920 E6.62741
G92 E0
G1 X69.972 Y50.610 F15000.000
G1 F4800
G1 X49.821 Y50.610 E0.76585
G1 X49.821 Y51.071 E0.78340
G1 X71.191 Y51.071 E1.59559
G1 X72.411 Y51.533 E1.64514
G1 X49.821 Y51.533 E2.50367
G1 X49.821 Y51.995 E2.52122
G1 X73.630 Y51.995 E3.42610
G1 X74.849 Y52.457 E3.47565
G1 X49.821 Y52.457 E4.42686
G1 X49.821 Y52.918 E4.44441
G1 X76.269 Y52.918 E5.44959
G1 X76.626 Y53.029 E5.46381
G1 X78.160 Y53.310 E5.52306
G1 X79.318 Y53.380 E5.56716
G1 X49.821 Y53.380 E6.68823
G1 X49.821 Y53.842 E6.70578
G1 X113.679 Y53.842 E9.13275
G1 X113.679 Y54.303 E9.15030
G1 X49.821 Y54.303 E11.57727
G1 X49.821 Y54.765 E11.59482
G1 X113.679 Y54.765 E14.02179
G1 X113.679 Y55.227 E14.03934
G1 X49.821 Y55.227 E16.46631
G1 X49.821 Y55.688 E16.48386
G1 X113.679 Y55.688 E18.91084
G1 X113.679 Y56.150 E18.92838
G1 X84.182 Y56.150 E20.04944
G1 X85.340 Y56.220 E20.09354
G1 X86.874 Y56.501 E20.15280
G1 X87.231 Y56.612 E20.16701
G1 X113.679 Y56.612 E21.17219
G1 X113.679 Y57.073 E21.18974
G1 X88.651 Y57.073 E22.14095
G1 X89.870 Y57.535 E22.19051
G1 X113.679 Y57.535 E23.09538
G1 X113.679 Y57.997 E23.11293
G1 X91.089 Y57.997 E23.97146
G1 X92.309 Y58.459 E24.02101
G1 X113.679 Y58.459 E24.83320
G1 X113.679 Y58.920 E24.85075
G1 X93.528 Y58.920 E25.61660
G1 Z0.400 F15000.000
G1 F4800
G1 X113.679 Y58.920 E26.38245
G1 X113.679 Y58.459 E26.40000
G1 X92.309 Y58.459 E27.21219
G1 X91.089 Y57.997 E27.26174
G1 X113.679 Y57.997 E28.12028
G1 X113.679 Y57.535 E28.13782
G1 X89.870 Y57.535 E29.04270
G1 X88.651 Y57.073 E29.09225
G1 X113.679 Y57.073 E30.04346
G1 X113.679 Y56.612 E30.06101
G1 X87.231 Y56.612 E31.06619
G1 X86.874 Y56.501 E31.08041
G1 X85.340 Y56.220 E31.13966
G1 X84.182 Y56.150 E31.18376
G1 X113.679 Y56.150 E32.30482
G1 X113.679 Y55.688 E32.32237
G1 X49.821 Y55.688 E34.74934
G1 X49.821 Y55.227 E34.76689
G1 X113.679 Y55.227 E37.19386
G1 X113.679 Y54.765 E37.21141
G1 X49.821 Y54.765 E39.63838
G1 X49.821 Y54.303 E39.65593
G1 X113.679 Y54.303 E42.08290
G1 X113.679 Y53.842 E42.10045
G1 X49.821 Y53.842 E44.52743
G1 X49.821 Y53.380 E44.54497
G1 X79.318 Y53.380 E45.66604
G1 X78.160 Y53.310 E45.71014
G1 X76.626 Y53.029 E45.76939
G1 X76.269 Y52.918 E45.78361
G1 X49.821 Y52.918 E46.78879
G1 X49.821 Y52.457 E46.80634
G1 X74.849 Y52.457 E47.75755
G1 X73.630 Y51.995 E47.80711
G1 X49.821 Y51.995 E48.71198
G1 X49.821 Y51.533 E48.72953
G1 X72.411 Y51.533 E49.58806
G1 X71.191 Y51.071 E49.63761
G1 X49.821 Y51.071 E50.44980
G1 X49.821 Y50.610 E50.46735
G1 X69.972 Y50.610 E51.23320
G92 E0
G1 X79.318 Y56.150 F15000.000
G1 F4800
G1 X49.821 Y56.150 E1.12106
G1 X49.821 Y56.612 E1.13861
G1 X76.269 Y56.612 E2.14379
G1 X75.144 Y56.962 E2.18856
G1 X74.849 Y57.073 E2.20055
G1 X49.821 Y57.073 E3.15177
G1 X49.821 Y57.535 E3.16931
G1 X73.630 Y57.535 E4.07419
G1 X72.411 Y57.997 E4.12374
G1 X49.821 Y57.997 E4.98227
G1 X49.821 Y58.459 E4.99982
G1 X71.191 Y58.459 E5.81201
G1 X69.972 Y58.920 E5.86156
G1 X49.821 Y58.920 E6.62741
G92 E0
G1 X84.182 Y53.380 F15000.000
G1 F4800
G1 X113.679 Y53.380 E1.12106
G1 X113.679 Y52.918 E1.13861
G1 X87.231 Y52.918 E2.14379
G1 X88.356 Y52.568 E2.18857
G1 X88.651 Y52.457 E2.20056
G1 X113.679 Y52.457 E3.15177
G1 X113.679 Y51.995 E3.16932
G1 X89.870 Y51.995 E4.07420
G1 X91.089 Y51.533 E4.12375
G1 X113.679 Y51.533 E4.98228
G1 X113.679 Y51.071 E4.99983
G1 X92.309 Y51.071 E5.81202
G1 X93.528 Y50.610 E5.86157
G1 X113.679 Y50.610 E6.62742
M106 S255
G1 Z0.600 F15000.000
G1 F4800
G1 X93.528 Y50.610 E7.39327
G1 X92.309 Y51.071 E7.44283
G1 X113.679 Y51.071 E8.25502
G1 X113.679 Y51.533 E8.27257
G1 X91.089 Y51.533 E9.13110
G1 X89.870 Y51.995 E9.18065
G1 X113.679 Y51.995 E10.08553
G1 X113.679 Y52.457 E10.10307
G1 X88.651 Y52.457 E11.05429
G1 X88.356 Y52.568 E11.06628
G1 X87.231 Y52.918 E11.11105
G1 X113.679 Y52.918 E12.11623
G1 X113.679 Y53.380 E12.13378
G1 X84.182 Y53.380 E13.25485
G92 E0
G1 X79.318 Y56.150 F15000.000
G1 F4800
G1 X49.821 Y56.150 E1.12106
G1 X49.821 Y56.612 E1.13861
G1 X76.269 Y56.612 E2.14379
G1 X75.144 Y56.962 E2.18856
G1 X74.849 Y57.073 E2.20055
G1 X49.821 Y57.073 E3.15177
G1 X49.821 Y57.535 E3.16931
G1 X73.630 Y57.535 E4.07419
G1 X72.411 Y57.997 E4.12374
G1 X49.821 Y57.997 E4.98227
G1 X49.821 Y58.459 E4.99982
G1 X71.191 Y58.459 E5.81201
G1 X69.972 Y58.920 E5.86156
G1 X49.821 Y58.920 E6.62741
G92 E0
G1 X69.972 Y50.610 F15000.000
G1 F4800
G1 X49.821 Y50.610 E0.76585
G1 X49.821 Y51.071 E0.78340
G1 X71.191 Y51.071 E1.59559
G1 X72.411 Y51.533 E1.64514
G1 X49.821 Y51.533 E2.50367
G1 X49.821 Y51.995 E2.52122
G1 X73.630 Y51.995 E3.42610
G1 X74.849 Y52.457 E3.47565
G1 X49.821 Y52.457 E4.42686
G1 X49.821 Y52.918 E4.44441
G1 X76.269 Y52.918 E5.44959
G1 X76.626 Y53.029 E5.46381
G1 X78.160 Y53.310 E5.52306
G1 X79.318 Y53.380 E5.56716
G1 X49.821 Y53.380 E6.68823
G1 X49.821 Y53.842 E6.70577
G1 X113.679 Y53.842 E9.13275
G1 X113.679 Y54.303 E9.15030
G1 X49.821 Y54.303 E11.57727
G1 X49.821 Y54.765 E11.59482
G1 X113.679 Y54.765 E14.02179
G1 X113.679 Y55.227 E14.03934
G1 X49.821 Y55.227 E16.46631
G1 X49.821 Y55.688 E16.48386
G1 X113.679 Y55.688 E18.91083
G1 X113.679 Y56.150 E18.92838
G1 X84.182 Y56.150 E20.04944
G1 X85.340 Y56.220 E20.09354
G1 X86.874 Y56.501 E20.15279
G1 X87.231 Y56.612 E20.16701
G1 X113.679 Y56.612 E21.17219
G1 X113.679 Y57.073 E21.18974
G1 X88.651 Y57.073 E22.14095
G1 X89.870 Y57.535 E22.19050
G1 X113.679 Y57.535 E23.09538
G1 X113.679 Y57.997 E23.11293
G1 X91.089 Y57.997 E23.97146
G1 X92.309 Y58.459 E24.02101
G1 X113.679 Y58.459 E24.83320
G1 X113.679 Y58.920 E24.85075
G1 X93.528 Y58.920 E25.61660
G1 Z0.800 F15000.000
G1 F4800
G1 X113.679 Y58.920 E26.38245
G1 X113.679 Y58.459 E26.40000
G1 X92.309 Y58.459 E27.21219
G1 X91.089 Y57.997 E27.26174
G1 X113.679 Y57.997 E28.12027
G1 X113.679 Y57.535 E28.13782
G1 X89.870 Y57.535 E29.04270
G1 X88.651 Y57.073 E29.09225
G1 X113.679 Y57.073 E30.04346
G1 X113.679 Y56.612 E30.06101
G1 X87.231 Y56.612 E31.06619
G1 X86.874 Y56.501 E31.08041
G1 X85.340 Y56.220 E31.13966
G1 X84.182 Y56.150 E31.18376
G1 X113.679 Y56.150 E32.30482
G1 X113.679 Y55.688 E32.32237
G1 X49.821 Y55.688 E34.74934
G1 X49.821 Y55.227 E34.76689
G1 X113.679 Y55.227 E37.19386
G1 X113.679 Y54.765 E37.21141
G1 X49.821 Y54.765 E39.63838
G1 X49.821 Y54.303 E39.65593
G1 X113.679 Y54.303 E42.08290
G1 X113.679 Y53.842 E42.10045
G1 X49.821 Y53.842 E44.52743
G1 X49.821 Y53.380 E44.54497
G1 X79.318 Y53.380 E45.66604
G1 X78.160 Y53.310 E45.71014
G1 X76.626 Y53.029 E45.76939
G1 X76.269 Y52.918 E45.78361
G1 X49.821 Y52.918 E46.78879
G1 X49.821 Y52.457 E46.80634
G1 X74.849 Y52.457 E47.75755
G1 X73.630 Y51.995 E47.80711
G1 X49.821 Y51.995 E48.71198
G1 X49.821 Y51.533 E48.72953
G1 X72.411 Y51.533 E49.58806
G1 X71.191 Y51.071 E49.63761
G1 X49.821 Y51.071 E50.44980
G1 X49.821 Y50.610 E50.46735
G1 X69.972 Y50.610 E51.23320
G92 E0
G1 X79.318 Y56.150 F15000.000
G1 F4800
G1 X49.821 Y56.150 E1.12106
G1 X49.821 Y56.612 E1.13861
G1 X76.269 Y56.612 E2.14379
G1 X75.144 Y56.962 E2.18856
G1 X74.849 Y57.073 E2.20055
G1 X49.821 Y57.073 E3.15177
G1 X49.821 Y57.535 E3.16931
G1 X73.630 Y57.535 E4.07419
G1 X72.411 Y57.997 E4.12374
G1 X49.821 Y57.997 E4.98227
G1 X49.821 Y58.459 E4.99982
G1 X71.191 Y58.459 E5.81201
G1 X69.972 Y58.920 E5.86156
G1 X49.821 Y58.920 E6.62741
G92 E0
G1 X84.182 Y53.380 F15000.000
G1 F4800
G1 X113.679 Y53.380 E1.12106
G1 X113.679 Y52.918 E1.13861
G1 X87.231 Y52.918 E2.14379
G1 X88.356 Y52.568 E2.18857
G1 X88.651 Y52.457 E2.20056
G1 X113.679 Y52.457 E3.15177
G1 X113.679 Y51.995 E3.16932
G1 X89.870 Y51.995 E4.07420
G1 X91.089 Y51.533 E4.12375
G1 X113.679 Y51.533 E4.98228
G1 X113.679 Y51.071 E4.99983
G1 X92.309 Y51.071 E5.81202
G1 X93.528 Y50.610 E5.86157
G1 X113.679 Y50.610 E6.62742
G1 Z1.000 F15000.000
G1 F4800
G1 X93.528 Y50.610 E7.39327
G1 X92.309 Y51.071 E7.44283
G1 X113.679 Y51.071 E8.25502
G1 X113.679 Y51.533 E8.27256
G1 X91.089 Y51.533 E9.13110
G1 X89.870 Y51.995 E9.18065
G1 X113.679 Y51.995 E10.08553
G1 X113.679 Y52.457 E10.10307
G1 X88.651 Y52.457 E11.05429
G1 X88.356 Y52.568 E11.06628
G1 X87.231 Y52.918 E11.11105
G1 X113.679 Y52.918 E12.11624
G1 X113.679 Y53.380 E12.13378
G1 X84.182 Y53.380 E13.25485
G92 E0
G1 X79.318 Y56.150 F15000.000
G1 F4800
G1 X49.821 Y56.150 E1.12106
G1 X49.821 Y56.612 E1.13861
G1 X76.269 Y56.612 E2.14379
G1 X75.144 Y56.962 E2.18856
G1 X74.849 Y57.073 E2.20055
G1 X49.821 Y57.073 E3.15177
G1 X49.821 Y57.535 E3.16931
G1 X73.630 Y57.535 E4.07419
G1 X72.411 Y57.997 E4.12374
G1 X49.821 Y57.997 E4.98227
G1 X49.821 Y58.459 E4.99982
G1 X71.191 Y58.459 E5.81201
G1 X69.972 Y58.920 E5.86156
G1 X49.821 Y58.920 E6.62741
G92 E0
G1 X69.972 Y50.610 F15000.000
G1 F4800
G1 X49.821 Y50.610 E0.76585
G1 X49.821 Y51.071 E0.78340
G1 X71.191 Y51.071 E1.59559
G1 X72.411 Y51.533 E1.64514
G1 X49.821 Y51.533 E2.50367
G1 X49.821 Y51.995 E2.52122
G1 X73.630 Y51.995 E3.42610
G1 X74.849 Y52.457 E3.47565
G1 X49.821 Y52.457 E4.42686
G1 X49.821 Y52.918 E4.44441
G1 X76.269 Y52.918 E5.44959
G1 X76.626 Y53.029 E5.46381
G1 X78.160 Y53.310 E5.52306
G1 X79.318 Y53.380 E5.56716
G1 X49.821 Y53.380 E6.68823
G1 X49.821 Y53.842 E6.70577
G1 X113.679 Y53.842 E9.13275
G1 X113.679 Y54.303 E9.15030
G1 X49.821 Y54.303 E11.57727
G1 X49.821 Y54.765 E11.59482
G1 X113.679 Y54.765 E14.02179
G1 X113.679 Y55.227 E14.03934
G1 X49.821 Y55.227 E16.46631
G1 X49.821 Y55.688 E16.48386
G1 X113.679 Y55.688 E18.91083
G1 X113.679 Y56.150 E18.92838
G1 X84.182 Y56.150 E20.04944
G1 X85.340 Y56.220 E20.09354
G1 X86.874 Y56.501 E20.15279
G1 X87.231 Y56.612 E20.16701
G1 X113.679 Y56.612 E21.17219
G1 X113.679 Y57.073 E21.18974
G1 X88.651 Y57.073 E22.14095
G1 X89.870 Y57.535 E22.19051
G1 X113.679 Y57.535 E23.09538
G1 X113.679 Y57.997 E23.11293
G1 X91.089 Y57.997 E23.97146
G1 X92.309 Y58.459 E24.02101
G1 X113.679 Y58.459 E24.83320
G1 X113.679 Y58.920 E24.85075
G1 X93.528 Y58.920 E25.61660
G1 Z1.200 F15000.000
G1 F4800
G1 X113.679 Y58.920 E26.38245
G1 X113.679 Y58.459 E26.40000
G1 X92.309 Y58.459 E27.21219
G1 X91.089 Y57.997 E27.26174
G1 X113.679 Y57.997 E28.12028
G1 X113.679 Y57.535 E28.13782
G1 X89.870 Y57.535 E29.04270
G1 X88.651 Y57.073 E29.09225
G1 X113.679 Y57.073 E30.04346
G1 X113.679 Y56.612 E30.06101
G1 X87.231 Y56.612 E31.06619
G1 X86.874 Y56.501 E31.08041
G1 X85.340 Y56.220 E31.13966
G1 X84.182 Y56.150 E31.18376
G1 X113.679 Y56.150 E32.30482
G1 X113.679 Y55.688 E32.32237
G1 X49.821 Y55.688 E34.74934
G1 X49.821 Y55.227 E34.76689
G1 X113.679 Y55.227 E37.19386
G1 X113.679 Y54.765 E37.21141
G1 X49.821 Y54.765 E39.63839
G1 X49.821 Y54.303 E39.65593
G1 X113.679 Y54.303 E42.08291
G1 X113.679 Y53.842 E42.10045
G1 X49.821 Y53.842 E44.52743
G1 X49.821 Y53.380 E44.54498
G1 X79.318 Y53.380 E45.66604
G1 X78.160 Y53.310 E45.71014
G1 X76.608 Y53.026 E45.77011
G1 X76.269 Y52.918 E45.78362
G1 X49.821 Y52.918 E46.78880
G1 X49.821 Y52.457 E46.80634
G1 X74.849 Y52.457 E47.75756
G1 X73.630 Y51.995 E47.80711
G1 X49.821 Y51.995 E48.71199
G1 X49.821 Y51.533 E48.72953
G1 X72.411 Y51.533 E49.58807
G1 X71.191 Y51.071 E49.63762
G1 X49.821 Y51.071 E50.44981
G1 X49.821 Y50.610 E50.46736
G1 X69.972 Y50.610 E51.23321
G92 E0
G1 X79.318 Y56.150 F15000.000
G1 F4800
G1 X49.821 Y56.150 E1.12106
G1 X49.821 Y56.612 E1.13861
G1 X76.269 Y56.612 E2.14379
G1 X75.144 Y56.962 E2.18856
G1 X74.849 Y57.073 E2.20055
G1 X49.821 Y57.073 E3.15176
G1 X49.821 Y57.535 E3.16931
G1 X73.630 Y57.535 E4.07419
G1 X72.411 Y57.997 E4.12374
G1 X49.821 Y57.997 E4.98227
G1 X49.821 Y58.459 E4.99982
G1 X71.191 Y58.459 E5.81201
G1 X69.972 Y58.920 E5.86156
G1 X49.821 Y58.920 E6.62741
G92 E0
G1 X84.182 Y53.380 F15000.000
G1 F4800
G1 X113.679 Y53.380 E1.12106
G1 X113.679 Y52.918 E1.13861
G1 X87.231 Y52.918 E2.14379
G1 X88.356 Y52.568 E2.18857
G1 X88.651 Y52.457 E2.20056
G1 X113.679 Y52.457 E3.15177
G1 X113.679 Y51.995 E3.16932
G1 X89.870 Y51.995 E4.07420
G1 X91.089 Y51.533 E4.12375
G1 X113.679 Y51.533 E4.98228
G1 X113.679 Y51.071 E4.99983
G1 X92.309 Y51.071 E5.81202
G1 X93.528 Y50.610 E5.86157
G1 X113.679 Y50.610 E6.62742
G1 Z1.400 F15000.000
G1 F4800
G1 X93.528 Y50.610 E7.39327
G1 X92.309 Y51.071 E7.44283
G1 X113.679 Y51.071 E8.25502
G1 X113.679 Y51.533 E8.27257
G1 X91.089 Y51.533 E9.13110
G1 X89.870 Y51.995 E9.18065
G1 X113.679 Y51.995 E10.08553
G1 X113.679 Y52.457 E10.10307
G1 X88.651 Y52.457 E11.05429
G1 X88.356 Y52.568 E11.06628
G1 X87.231 Y52.918 E11.11105
G1 X113.679 Y52.918 E12.11624
