; generated by Slic3r 1.3.1-dev on 2019-07-08 at 14:16:20

; external perimeters extrusion width = 0.44mm (3.04mm^3/s)
; perimeters extrusion width = 0.40mm (6.04mm^3/s)
; infill extrusion width = 0.48mm (10.05mm^3/s)
; solid infill extrusion width = 0.48mm (3.02mm^3/s)
; top infill extrusion width = 0.45mm (2.22mm^3/s)

M107
M190 S80 ; set bed temperature and wait for it to be reached
M104 S230 ; set temperature
G28 ; home all axes
G1 X150 Y150 Z50 F10000
; Filament gcode
; layer 1
M109 S230 ; set temperature and wait for it to be reached
G21 ; set units to millimeters
G90 ; use absolute coordinates
M82 ; use absolute distances for extrusion
G92 E0
G92 E0
G1 Z0.300 F15000.000
G1 X70.258 Y74.200 F15000.000
G1 F3600
G1 X95.401 Y74.200 E1.67974
G1 X96.519 Y73.777 E1.75956
G1 X70.258 Y73.777 E3.51395
G1 X70.258 Y73.354 E3.54221
G1 X97.636 Y73.354 E5.37125
G1 X98.754 Y72.930 E5.45107
G1 X70.258 Y72.930 E7.35476
G1 X70.258 Y72.507 E7.38302
G1 X99.871 Y72.507 E9.36136
G1 X100.988 Y72.084 E9.44118
G1 X70.258 Y72.084 E11.49416
G1 X70.258 Y71.661 E11.52243
G1 X102.106 Y71.661 E13.65006
G1 X103.223 Y71.238 E13.72988
G1 X70.258 Y71.238 E15.93216
G1 X70.258 Y70.815 E15.96043
G1 X104.574 Y70.815 E18.25295
G1 X105.188 Y70.624 E18.29592
G1 X106.456 Y70.392 E18.38204
G1 X70.258 Y70.392 E20.80030
G1 X70.258 Y69.969 E20.82857
G1 X153.536 Y69.969 E26.39199
G1 X153.536 Y69.546 E26.42026
G1 X70.258 Y69.546 E31.98368
G1 X70.258 Y69.122 E32.01195
G1 X153.536 Y69.122 E37.57537
G1 X153.536 Y68.699 E37.60364
G1 X70.258 Y68.699 E43.16706
G1 X70.258 Y68.276 E43.19533
G1 X153.536 Y68.276 E48.75875
G1 X153.536 Y67.853 E48.78702
G1 X70.258 Y67.853 E54.35044
G1 X70.258 Y67.430 E54.37871
G1 X153.536 Y67.430 E59.94213
G1 X153.536 Y67.007 E59.97040
G1 X70.258 Y67.007 E65.53383
G1 X70.258 Y66.584 E65.56209
G1 X153.536 Y66.584 E71.12552
G1 X153.536 Y66.161 E71.15378
G1 X117.337 Y66.161 E73.57205
G1 X118.605 Y65.929 E73.65816
G1 X119.219 Y65.738 E73.70113
G1 X153.536 Y65.738 E75.99366
G1 X153.536 Y65.314 E76.02192
G1 X120.570 Y65.314 E78.22421
G1 X121.687 Y64.891 E78.30403
G1 X153.536 Y64.891 E80.43166
G1 X153.536 Y64.468 E80.45993
G1 X122.805 Y64.468 E82.51291
G1 X123.922 Y64.045 E82.59273
G1 X153.536 Y64.045 E84.57107
G1 X153.536 Y63.622 E84.59933
G1 X125.040 Y63.622 E86.50302
G1 X126.157 Y63.199 E86.58284
G1 X153.536 Y63.199 E88.41187
G1 X153.536 Y62.776 E88.44014
G1 X127.275 Y62.776 E90.19453
G1 X128.392 Y62.353 E90.27435
G1 X153.536 Y62.353 E91.95409
G92 E0
G1 X153.536 Y70.392 F15000.000
G1 F3600
G1 X117.337 Y70.392 E2.41826
G1 X118.357 Y70.578 E2.48755
G1 X118.357 Y70.547 E2.48967
G1 X119.219 Y70.815 E2.54998
G1 X153.536 Y70.815 E4.84250
G1 X153.536 Y71.238 E4.87077
G1 X120.570 Y71.238 E7.07305
G1 X121.687 Y71.661 E7.15287
G1 X153.536 Y71.661 E9.28050
G1 X153.536 Y72.084 E9.30877
G1 X122.805 Y72.084 E11.36175
G1 X123.922 Y72.507 E11.44157
G1 X153.536 Y72.507 E13.41991
G1 X153.536 Y72.930 E13.44817
G1 X125.040 Y72.930 E15.35186
G1 X126.157 Y73.354 E15.43168
G1 X153.536 Y73.354 E17.26071
G1 X153.536 Y73.777 E17.28898
G1 X127.275 Y73.777 E19.04337
G1 X128.392 Y74.200 E19.12319
G1 X153.536 Y74.200 E20.80293
G1 X153.536 Y74.276 E20.80800
G1 X129.547 Y74.276 E22.41057
G1 X129.346 Y74.200 E22.42490
G92 E0
G1 X118.292 Y66.161 F15000.000
G1 F3600
G1 X117.572 Y66.292 E0.04888
G1 X115.561 Y66.414 E0.18346
G1 X109.187 Y66.414 E0.60929
G1 X107.176 Y66.292 E0.74386
G1 X106.456 Y66.161 E0.79275
G1 X70.258 Y66.161 E3.21101
G1 X70.258 Y65.738 E3.23928
G1 X104.574 Y65.738 E5.53181
G1 X103.223 Y65.314 E5.62637
G1 X70.258 Y65.314 E7.82866
G1 X70.258 Y64.891 E7.85692
G1 X102.106 Y64.891 E9.98455
G1 X100.988 Y64.468 E10.06438
G1 X70.258 Y64.468 E12.11736
G1 X70.258 Y64.045 E12.14563
G1 X99.871 Y64.045 E14.12396
G1 X98.754 Y63.622 E14.20378
G1 X70.258 Y63.622 E16.10747
G1 X70.258 Y63.199 E16.13573
G1 X97.636 Y63.199 E17.96477
G1 X96.519 Y62.776 E18.04459
G1 X70.258 Y62.776 E19.79898
G1 X70.258 Y62.353 E19.82724
G1 X95.401 Y62.353 E21.50698
M104 S205 ; set temperature
M140 S55 ; set bed temperature
G1 Z0.600 F15000.000
G1 X95.301 Y62.353 F15000.000
G1 F4800
G1 X70.358 Y62.353 E22.81016
G1 X70.358 Y62.776 E22.83227
G1 X96.419 Y62.776 E24.19383
G1 X97.536 Y63.199 E24.25626
G1 X70.358 Y63.199 E25.67620
G1 X70.358 Y63.622 E25.69830
G1 X98.654 Y63.622 E27.17662
G1 X99.771 Y64.045 E27.23905
G1 X70.358 Y64.045 E28.77575
G1 X70.358 Y64.468 E28.79785
G1 X100.888 Y64.468 E30.39293
G1 X102.006 Y64.891 E30.45536
G1 X70.358 Y64.891 E32.10881
G1 X70.358 Y65.314 E32.13092
G1 X103.123 Y65.314 E33.84276
G1 X104.474 Y65.738 E33.91671
G1 X70.358 Y65.738 E35.69913
G1 X70.358 Y66.161 E35.72123
G1 X106.356 Y66.161 E37.60198
G1 X107.076 Y66.292 E37.64020
G1 X109.087 Y66.414 E37.74545
G1 X115.461 Y66.414 E38.07847
G1 X117.472 Y66.292 E38.18371
G1 X118.192 Y66.161 E38.22194
G92 E0
G1 X129.246 Y74.200 F15000.000
G1 F4800
G1 X129.447 Y74.276 E0.01121
G1 X153.436 Y74.276 E1.26449
G1 X153.436 Y74.200 E1.26846
G1 X128.492 Y74.200 E2.57164
G1 X127.375 Y73.777 E2.63407
G1 X153.436 Y73.777 E3.99563
G1 X153.436 Y73.354 E4.01773
G1 X126.257 Y73.354 E5.43768
G1 X125.140 Y72.930 E5.50010
G1 X153.436 Y72.930 E6.97842
G1 X153.436 Y72.507 E7.00052
G1 X124.022 Y72.507 E8.53722
G1 X122.905 Y72.084 E8.59965
G1 X153.436 Y72.084 E10.19473
G1 X153.436 Y71.661 E10.21683
G1 X121.787 Y71.661 E11.87029
G1 X120.670 Y71.238 E11.93271
G1 X153.436 Y71.238 E13.64455
G1 X153.436 Y70.815 E13.66665
G1 X119.319 Y70.815 E15.44907
G1 X118.705 Y70.624 E15.48267
G1 X117.437 Y70.392 E15.55001
G1 X153.436 Y70.392 E17.43076
G92 E0
G1 X153.436 Y62.353 F15000.000
G1 F4800
G1 X128.492 Y62.353 E1.30318
G1 X127.375 Y62.776 E1.36561
G1 X153.436 Y62.776 E2.72717
G1 X153.436 Y63.199 E2.74927
G1 X126.257 Y63.199 E4.16922
G1 X125.140 Y63.622 E4.23164
G1 X153.436 Y63.622 E5.70996
G1 X153.436 Y64.045 E5.73207
G1 X124.022 Y64.045 E7.26877
G1 X122.905 Y64.468 E7.33119
G1 X153.436 Y64.468 E8.92627
G1 X153.436 Y64.891 E8.94837
G1 X121.787 Y64.891 E10.60183
G1 X120.670 Y65.314 E10.66426
G1 X153.436 Y65.314 E12.37609
G1 X153.436 Y65.738 E12.39820
G1 X119.319 Y65.738 E14.18061
G1 X118.705 Y65.929 E14.21421
G1 X117.437 Y66.161 E14.28156
G1 X153.436 Y66.161 E16.16231
G1 X153.436 Y66.584 E16.18441
G1 X70.358 Y66.584 E20.52482
G1 X70.358 Y67.007 E20.54692
G1 X153.436 Y67.007 E24.88733
G1 X153.436 Y67.430 E24.90943
G1 X70.358 Y67.430 E29.24984
G1 X70.358 Y67.853 E29.27194
G1 X153.436 Y67.853 E33.61235
G1 X153.436 Y68.276 E33.63445
G1 X70.358 Y68.276 E37.97486
G1 X70.358 Y68.699 E37.99696
G1 X153.436 Y68.699 E42.33737
G1 X153.436 Y69.122 E42.35947
G1 X70.358 Y69.122 E46.69988
G1 X70.358 Y69.546 E46.72198
G1 X153.436 Y69.546 E51.06239
G1 X153.436 Y69.969 E51.08449
G1 X70.358 Y69.969 E55.42490
G1 X70.358 Y70.392 E55.44700
G1 X106.356 Y70.392 E57.32775
G1 X105.088 Y70.624 E57.39509
G1 X104.474 Y70.815 E57.42869
G1 X70.358 Y70.815 E59.21111
G1 X70.358 Y71.238 E59.23321
G1 X103.123 Y71.238 E60.94505
G1 X102.006 Y71.661 E61.00747
G1 X70.358 Y71.661 E62.66093
G1 X70.358 Y72.084 E62.68303
G1 X100.888 Y72.084 E64.27811
G1 X99.771 Y72.507 E64.34054
G1 X70.358 Y72.507 E65.87724
G1 X70.358 Y72.930 E65.89934
G1 X98.654 Y72.930 E67.37766
G1 X97.536 Y73.354 E67.44009
G1 X70.358 Y73.354 E68.86003
G1 X70.358 Y73.777 E68.88213
G1 X96.419 Y73.777 E70.24370
G1 X95.301 Y74.200 E70.30612
G1 X70.358 Y74.200 E71.60930
G1 Z0.900 F15000.000
G1 F4800
G1 X95.301 Y74.200 E72.91249
G1 X96.419 Y73.777 E72.97491
G1 X70.358 Y73.777 E74.33647
G1 X70.358 Y73.354 E74.35858
G1 X97.536 Y73.354 E75.77852
G1 X98.654 Y72.930 E75.84094
G1 X70.358 Y72.930 E77.31926
G1 X70.358 Y72.507 E77.34137
G1 X99.771 Y72.507 E78.87807
G1 X100.888 Y72.084 E78.94049
G1 X70.358 Y72.084 E80.53557
G1 X70.358 Y71.661 E80.55768
G1 X102.006 Y71.661 E82.21113
G1 X103.123 Y71.238 E82.27356
G1 X70.358 Y71.238 E83.98539
G1 X70.358 Y70.815 E84.00750
G1 X104.474 Y70.815 E85.78991
G1 X105.088 Y70.624 E85.82352
G1 X106.356 Y70.392 E85.89086
G1 X70.358 Y70.392 E87.77161
G1 X70.358 Y69.969 E87.79371
G1 X153.436 Y69.969 E92.13412
G1 X153.436 Y69.546 E92.15622
G1 X70.358 Y69.546 E96.49663
G1 X70.358 Y69.122 E96.51873
G1 X153.436 Y69.122 E100.85914
G1 X153.436 Y68.699 E100.88124
G1 X70.358 Y68.699 E105.22165
G1 X70.358 Y68.276 E105.24375
G1 X153.436 Y68.276 E109.58416
G1 X153.436 Y67.853 E109.60626
G1 X70.358 Y67.853 E113.94667
G1 X70.358 Y67.430 E113.96877
G1 X153.436 Y67.430 E118.30918
G1 X153.436 Y67.007 E118.33128
G1 X70.358 Y67.007 E122.67169
G1 X70.358 Y66.584 E122.69379
G1 X153.436 Y66.584 E127.03420
G1 X153.436 Y66.161 E127.05630
G1 X117.437 Y66.161 E128.93705
G1 X118.705 Y65.929 E129.00439
G1 X119.319 Y65.738 E129.03800
G1 X153.436 Y65.738 E130.82041
G1 X153.436 Y65.314 E130.84251
G1 X120.670 Y65.314 E132.55435
G1 X121.787 Y64.891 E132.61678
G1 X153.436 Y64.891 E134.27023
G1 X153.436 Y64.468 E134.29234
G1 X122.905 Y64.468 E135.88742
G1 X124.022 Y64.045 E135.94984
G1 X153.436 Y64.045 E137.48654
G1 X153.436 Y63.622 E137.50865
G1 X125.140 Y63.622 E138.98697
G1 X126.257 Y63.199 E139.04939
G1 X153.436 Y63.199 E140.46933
G1 X153.436 Y62.776 E140.49144
G1 X127.375 Y62.776 E141.85300
G1 X128.492 Y62.353 E141.91542
G1 X153.436 Y62.353 E143.21861
G92 E0
G1 X153.436 Y70.392 F15000.000
G1 F4800
G1 X117.437 Y70.392 E1.88074
G1 X118.705 Y70.624 E1.94809
G1 X119.319 Y70.815 E1.98169
G1 X153.436 Y70.815 E3.76410
G1 X153.436 Y71.238 E3.78621
G1 X120.670 Y71.238 E5.49805
G1 X121.787 Y71.661 E5.56047
G1 X153.436 Y71.661 E7.21393
G1 X153.436 Y72.084 E7.23603
G1 X122.905 Y72.084 E8.83111
G1 X124.022 Y72.507 E8.89353
G1 X153.436 Y72.507 E10.43023
G1 X153.436 Y72.930 E10.45234
G1 X125.140 Y72.930 E11.93066
G1 X126.257 Y73.354 E11.99308
G1 X153.436 Y73.354 E13.41302
G1 X153.436 Y73.777 E13.43513
G1 X127.375 Y73.777 E14.79669
G1 X128.492 Y74.200 E14.85911
G1 X153.436 Y74.200 E16.16230
G1 X153.436 Y74.276 E16.16627
G1 X129.447 Y74.276 E17.41955
G1 X129.246 Y74.200 E17.43076
G92 E0
G1 X118.192 Y66.161 F15000.000
G1 F4800
G1 X117.472 Y66.292 E0.03823
G1 X115.461 Y66.414 E0.14347
G1 X109.087 Y66.414 E0.47649
G1 X107.076 Y66.292 E0.58174
G1 X106.356 Y66.161 E0.61996
G1 X70.358 Y66.161 E2.50071
G1 X70.358 Y65.738 E2.52282
G1 X104.474 Y65.738 E4.30523
G1 X103.123 Y65.314 E4.37918
G1 X70.358 Y65.314 E6.09102
G1 X70.358 Y64.891 E6.11313
G1 X102.006 Y64.891 E7.76658
G1 X100.888 Y64.468 E7.82901
G1 X70.358 Y64.468 E9.42409
G1 X70.358 Y64.045 E9.44619
G1 X99.771 Y64.045 E10.98289
G1 X98.654 Y63.622 E11.04532
G1 X70.358 Y63.622 E12.52364
G1 X70.358 Y63.199 E12.54574
G1 X97.536 Y63.199 E13.96568
G1 X96.419 Y62.776 E14.02811
G1 X70.358 Y62.776 E15.38967
G1 X70.358 Y62.353 E15.41178
G1 X95.301 Y62.353 E16.71496
M106 S255
G1 Z1.200 F15000.000
G1 X95.301 Y62.353 F15000.000
G1 F4800
G1 X70.358 Y62.353 E18.01814
G1 X70.358 Y62.776 E18.04025
G1 X96.419 Y62.776 E19.40181
G1 X97.536 Y63.199 E19.46423
G1 X70.358 Y63.199 E20.88418
G1 X70.358 Y63.622 E20.90628
G1 X98.654 Y63.622 E22.38460
G1 X99.771 Y64.045 E22.44703
G1 X70.358 Y64.045 E23.98373
G1 X70.358 Y64.468 E24.00583
G1 X100.888 Y64.468 E25.60091
G1 X102.006 Y64.891 E25.66333
G1 X70.358 Y64.891 E27.31679
G1 X70.358 Y65.314 E27.33890
G1 X103.123 Y65.314 E29.05073
G1 X104.474 Y65.738 E29.12469
G1 X70.358 Y65.738 E30.90710
G1 X70.358 Y66.161 E30.92921
G1 X106.356 Y66.161 E32.80995
G1 X107.076 Y66.292 E32.84818
G1 X109.087 Y66.414 E32.95343
G1 X115.461 Y66.414 E33.28645
G1 X117.472 Y66.292 E33.39169
G1 X118.192 Y66.161 E33.42992
G92 E0
G1 X129.246 Y74.200 F15000.000
G1 F4800
G1 X129.447 Y74.276 E0.01121
G1 X153.436 Y74.276 E1.26449
G1 X153.436 Y74.200 E1.26846
G1 X128.492 Y74.200 E2.57164
G1 X127.375 Y73.777 E2.63407
G1 X153.436 Y73.777 E3.99563
G1 X153.436 Y73.354 E4.01773
G1 X126.257 Y73.354 E5.43768
G1 X125.140 Y72.930 E5.50010
G1 X153.436 Y72.930 E6.97842
G1 X153.436 Y72.507 E7.00053
G1 X124.022 Y72.507 E8.53722
G1 X122.905 Y72.084 E8.59965
G1 X153.436 Y72.084 E10.19473
G1 X153.436 Y71.661 E10.21683
G1 X121.787 Y71.661 E11.87029
G1 X120.670 Y71.238 E11.93271
G1 X153.436 Y71.238 E13.64455
G1 X153.436 Y70.815 E13.66665
G1 X119.319 Y70.815 E15.44907
G1 X118.705 Y70.624 E15.48267
G1 X117.437 Y70.392 E15.55001
G1 X153.436 Y70.392 E17.43076
G92 E0
G1 X153.436 Y62.353 F15000.000
G1 F4800
G1 X128.492 Y62.353 E1.30318
G1 X127.375 Y62.776 E1.36561
G1 X153.436 Y62.776 E2.72717
G1 X153.436 Y63.199 E2.74927
G1 X126.257 Y63.199 E4.16922
G1 X125.140 Y63.622 E4.23164
G1 X153.436 Y63.622 E5.70996
G1 X153.436 Y64.045 E5.73207
G1 X124.022 Y64.045 E7.26877
G1 X122.905 Y64.468 E7.33119
G1 X153.436 Y64.468 E8.92627
G1 X153.436 Y64.891 E8.94837
G1 X121.787 Y64.891 E10.60183
G1 X120.670 Y65.314 E10.66426
G1 X153.436 Y65.314 E12.37609
G1 X153.436 Y65.738 E12.39820
G1 X119.319 Y65.738 E14.18061
G1 X118.705 Y65.929 E14.21421
G1 X117.437 Y66.161 E14.28156
G1 X153.436 Y66.161 E16.16231
G1 X153.436 Y66.584 E16.18441
G1 X70.358 Y66.584 E20.52482
G1 X70.358 Y67.007 E20.54692
G1 X153.436 Y67.007 E24.88733
G1 X153.436 Y67.430 E24.90943
G1 X70.358 Y67.430 E29.24984
G1 X70.358 Y67.853 E29.27194
G1 X153.436 Y67.853 E33.61235
G1 X153.436 Y68.276 E33.63445
G1 X70.358 Y68.276 E37.97486
G1 X70.358 Y68.699 E37.99696
G1 X153.436 Y68.699 E42.33737
G1 X153.436 Y69.122 E42.35947
G1 X70.358 Y69.122 E46.69988
G1 X70.358 Y69.546 E46.72198
G1 X153.436 Y69.546 E51.06239
G1 X153.436 Y69.969 E51.08449
G1 X70.358 Y69.969 E55.42490
G1 X70.358 Y70.392 E55.44700
G1 X106.356 Y70.392 E57.32775
G1 X105.088 Y70.624 E57.39509
G1 X104.474 Y70.815 E57.42869
G1 X70.358 Y70.815 E59.21111
G1 X70.358 Y71.238 E59.23321
G1 X103.123 Y71.238 E60.94505
G1 X102.006 Y71.661 E61.00747
G1 X70.358 Y71.661 E62.66093
G1 X70.358 Y72.084 E62.68303
G1 X100.888 Y72.084 E64.27811
G1 X99.771 Y72.507 E64.34054
G1 X70.358 Y72.507 E65.87724
G1 X70.358 Y72.930 E65.89934
G1 X98.654 Y72.930 E67.37766
G1 X97.536 Y73.354 E67.44009
G1 X70.358 Y73.354 E68.86003
G1 X70.358 Y73.777 E68.88213
G1 X96.419 Y73.777 E70.24370
G1 X95.301 Y74.200 E70.30612
G1 X70.358 Y74.200 E71.60930
G1 Z1.500 F15000.000
G1 F4800
G1 X95.301 Y74.200 E72.91249
G1 X96.419 Y73.777 E72.97491
G1 X70.358 Y73.777 E74.33647
G1 X70.358 Y73.354 E74.35858
G1 X97.536 Y73.354 E75.77852
G1 X98.654 Y72.930 E75.84094
G1 X70.358 Y72.930 E77.31926
G1 X70.358 Y72.507 E77.34137
G1 X99.771 Y72.507 E78.87807
G1 X100.888 Y72.084 E78.94049
G1 X70.358 Y72.084 E80.53557
G1 X70.358 Y71.661 E80.55768
G1 X102.006 Y71.661 E82.21113
G1 X103.123 Y71.238 E82.27356
G1 X70.358 Y71.238 E83.98539
G1 X70.358 Y70.815 E84.00750
G1 X104.474 Y70.815 E85.78991
G1 X105.088 Y70.624 E85.82351
G1 X106.356 Y70.392 E85.89086
G1 X70.358 Y70.392 E87.77160
G1 X70.358 Y69.969 E87.79371
G1 X153.436 Y69.969 E92.13411
G1 X153.436 Y69.546 E92.15622
G1 X70.358 Y69.546 E96.49662
G1 X70.358 Y69.122 E96.51873
G1 X153.436 Y69.122 E100.85913
G1 X153.436 Y68.699 E100.88124
G1 X70.358 Y68.699 E105.22164
G1 X70.358 Y68.276 E105.24375
G1 X153.436 Y68.276 E109.58415
G1 X153.436 Y67.853 E109.60626
G1 X70.358 Y67.853 E113.94666
G1 X70.358 Y67.430 E113.96877
G1 X153.436 Y67.430 E118.30917
G1 X153.436 Y67.007 E118.33128
G1 X70.358 Y67.007 E122.67168
G1 X70.358 Y66.584 E122.69379
G1 X153.436 Y66.584 E127.03419
G1 X153.436 Y66.161 E127.05630
G1 X117.437 Y66.161 E128.93704
G1 X118.705 Y65.929 E129.00439
G1 X119.319 Y65.738 E129.03799
G1 X153.436 Y65.738 E130.82041
G1 X153.436 Y65.314 E130.84251
G1 X120.670 Y65.314 E132.55435
G1 X121.787 Y64.891 E132.61677
G1 X153.436 Y64.891 E134.27023
G1 X153.436 Y64.468 E134.29234
G1 X122.905 Y64.468 E135.88742
G1 X124.022 Y64.045 E135.94984
G1 X153.436 Y64.045 E137.48654
G1 X153.436 Y63.622 E137.50864
G1 X125.140 Y63.622 E138.98696
G1 X126.257 Y63.199 E139.04939
G1 X153.436 Y63.199 E140.46933
G1 X153.436 Y62.776 E140.49144
G1 X127.375 Y62.776 E141.85300
G1 X128.492 Y62.353 E141.91542
G1 X153.436 Y62.353 E143.21861
G92 E0
G1 X153.436 Y70.392 F15000.000
G1 F4800
G1 X117.437 Y70.392 E1.88074
G1 X118.705 Y70.624 E1.94809
G1 X119.319 Y70.815 E1.98169
G1 X153.436 Y70.815 E3.76411
G1 X153.436 Y71.238 E3.78621
G1 X120.670 Y71.238 E5.49805
G1 X121.787 Y71.661 E5.56047
G1 X153.436 Y71.661 E7.21393
G1 X153.436 Y72.084 E7.23603
G1 X122.905 Y72.084 E8.83111
