; generated by Slic3r 1.3.1-dev on 2019-07-10 at 11:22:26

; external perimeters extrusion width = 0.44mm (3.04mm^3/s)
; perimeters extrusion width = 0.40mm (6.04mm^3/s)
; infill extrusion width = 0.48mm (10.05mm^3/s)
; solid infill extrusion width = 0.48mm (3.02mm^3/s)
; top infill extrusion width = 0.45mm (2.22mm^3/s)

M107
M190 S80 ; set bed temperature and wait for it to be reached
M104 S230 ; set temperature
G28 ; home all axes
G1 X150 Y150 Z50 F10000
; Filament gcode
; layer 1
M109 S230 ; set temperature and wait for it to be reached
G21 ; set units to millimeters
G90 ; use absolute coordinates
M82 ; use absolute distances for extrusion
G92 E0
G92 E0
G1 Z0.300 F15000.000
G1 X45.856 Y54.450 F15000.000
G1 F3600
G1 X45.856 Y67.403 E0.86537
G1 X46.279 Y67.403 E0.89363
G1 X46.279 Y54.450 E1.75900
G1 X46.702 Y54.450 E1.78726
G1 X46.702 Y67.403 E2.65263
G1 X47.125 Y67.403 E2.68089
G1 X47.125 Y54.450 E3.54626
G1 X47.548 Y54.450 E3.57453
G1 X47.548 Y67.403 E4.43989
G1 X47.971 Y67.403 E4.46816
G1 X47.971 Y54.450 E5.33352
G1 X48.394 Y54.450 E5.36179
G1 X48.394 Y67.403 E6.22715
G1 X48.818 Y67.403 E6.25542
G1 X48.818 Y54.450 E7.12078
G1 X49.241 Y54.450 E7.14905
G1 X49.241 Y67.403 E8.01442
G1 X49.664 Y67.403 E8.04268
G1 X49.664 Y54.450 E8.90805
G1 X50.087 Y54.450 E8.93631
G1 X50.087 Y67.403 E9.80168
G1 X50.510 Y67.403 E9.82994
G1 X50.510 Y54.450 E10.69531
G1 X50.933 Y54.450 E10.72358
G1 X50.933 Y67.403 E11.58894
G1 X51.356 Y67.403 E11.61721
G1 X51.356 Y54.450 E12.48257
G1 X51.779 Y54.450 E12.51084
G1 X51.779 Y67.403 E13.37620
G1 X52.202 Y67.403 E13.40447
G1 X52.202 Y54.450 E14.26983
G1 X52.626 Y54.450 E14.29810
G1 X52.626 Y67.403 E15.16347
G1 X53.049 Y67.403 E15.19173
G1 X53.049 Y54.450 E16.05710
G1 X53.472 Y54.450 E16.08536
G1 X53.472 Y67.403 E16.95073
G1 X53.895 Y67.403 E16.97899
G1 X53.895 Y54.450 E17.84436
G1 X54.318 Y54.450 E17.87263
G1 X54.318 Y67.403 E18.73799
G1 X54.741 Y67.403 E18.76626
G1 X54.741 Y54.450 E19.63162
G1 X55.164 Y54.450 E19.65989
G1 X55.164 Y67.403 E20.52525
G1 X55.587 Y67.403 E20.55352
G1 X55.587 Y54.450 E21.41889
G1 X56.010 Y54.450 E21.44715
G1 X56.010 Y67.403 E22.31252
G1 X56.434 Y67.403 E22.34078
G1 X56.434 Y54.450 E23.20615
G1 X56.857 Y54.450 E23.23441
G1 X56.857 Y67.403 E24.09978
G1 X57.280 Y67.403 E24.12805
G1 X57.280 Y54.450 E24.99341
G1 X57.703 Y54.450 E25.02168
G1 X57.703 Y67.403 E25.88704
G1 X58.126 Y67.403 E25.91531
G1 X58.126 Y54.450 E26.78067
G1 X58.549 Y54.450 E26.80894
G1 X58.549 Y67.403 E27.67430
G1 X58.972 Y67.403 E27.70257
G1 X58.972 Y54.450 E28.56794
G1 X59.395 Y54.450 E28.59620
G1 X59.395 Y67.403 E29.46157
G1 X59.818 Y67.403 E29.48983
G1 X59.818 Y54.450 E30.35520
G1 X60.242 Y54.450 E30.38346
G1 X60.242 Y67.403 E31.24883
G1 X60.665 Y67.403 E31.27710
G1 X60.665 Y54.450 E32.14246
G1 X61.088 Y54.450 E32.17073
G1 X61.088 Y67.403 E33.03609
G1 X61.511 Y67.403 E33.06436
G1 X61.511 Y54.450 E33.92972
G1 X61.934 Y54.450 E33.95799
G1 X61.934 Y67.403 E34.82336
G1 X62.357 Y67.403 E34.85162
G1 X62.357 Y54.450 E35.71699
G1 X62.780 Y54.450 E35.74525
G1 X62.780 Y67.403 E36.61062
G1 X63.203 Y67.403 E36.63888
G1 X63.203 Y54.450 E37.50425
G1 X63.626 Y54.450 E37.53252
G1 X63.626 Y67.403 E38.39788
G1 X64.050 Y67.403 E38.42615
G1 X64.050 Y54.450 E39.29151
G1 X64.473 Y54.450 E39.31978
G1 X64.473 Y67.403 E40.18514
G1 X64.896 Y67.403 E40.21341
G1 X64.896 Y54.450 E41.07877
G1 X65.319 Y54.450 E41.10704
G1 X65.319 Y67.403 E41.97241
G1 X65.742 Y67.403 E42.00067
G1 X65.742 Y54.450 E42.86604
G1 X66.165 Y54.450 E42.89430
G1 X66.165 Y67.403 E43.75967
G1 X66.588 Y67.403 E43.78793
G1 X66.588 Y54.450 E44.65330
G1 X67.011 Y54.450 E44.68157
G1 X67.011 Y67.403 E45.54693
G1 X67.434 Y67.403 E45.57520
G1 X67.434 Y54.450 E46.44056
G1 X67.858 Y54.450 E46.46883
G1 X67.858 Y67.403 E47.33419
G1 X68.281 Y67.403 E47.36246
G1 X68.281 Y54.450 E48.22782
G1 X68.704 Y54.450 E48.25609
G1 X68.704 Y67.403 E49.12146
G1 X69.127 Y67.403 E49.14972
G1 X69.127 Y54.450 E50.01509
G1 X69.550 Y54.450 E50.04335
G1 X69.550 Y67.403 E50.90872
G1 X69.724 Y67.403 E50.92037
G1 X69.973 Y67.309 E50.93814
G1 X69.973 Y54.544 E51.79092
G1 X70.396 Y54.704 E51.82114
G1 X70.396 Y67.149 E52.65251
G1 X70.819 Y66.989 E52.68274
G1 X70.819 Y54.864 E53.49271
G1 X71.242 Y55.025 E53.52293
G1 X71.242 Y66.828 E54.31149
G1 X71.666 Y66.668 E54.34172
G1 X71.666 Y55.185 E55.10887
G1 X72.089 Y55.345 E55.13910
G1 X72.089 Y66.508 E55.88484
G1 X72.512 Y66.348 E55.91507
G1 X72.512 Y55.505 E56.63941
G1 X72.935 Y55.665 E56.66964
G1 X72.935 Y66.188 E57.37257
G1 X73.358 Y66.027 E57.40280
G1 X73.358 Y55.826 E58.08433
G1 X73.781 Y55.986 E58.11455
G1 X73.781 Y65.867 E58.77468
G1 X74.204 Y65.707 E58.80490
G1 X74.204 Y56.146 E59.44362
G1 X74.627 Y56.306 E59.47385
G1 X74.627 Y65.547 E60.09116
G1 X75.050 Y65.386 E60.12139
G1 X75.050 Y56.466 E60.71729
G1 X75.474 Y56.627 E60.74752
G1 X75.474 Y65.226 E61.32202
G1 X75.897 Y65.066 E61.35224
G1 X75.897 Y56.787 E61.90534
G1 X76.320 Y56.947 E61.93556
G1 X76.320 Y64.906 E62.46725
G1 X76.743 Y64.746 E62.49748
G1 X76.743 Y57.107 E63.00776
G1 X77.166 Y57.267 E63.03798
G1 X77.166 Y64.585 E63.52686
G1 X77.589 Y64.425 E63.55709
G1 X77.589 Y57.428 E64.02456
G1 X78.012 Y57.573 E64.05444
G1 X78.012 Y64.280 E64.50252
G1 X78.435 Y64.148 E64.53213
G1 X78.435 Y57.704 E64.96262
G1 X78.858 Y57.836 E64.99222
G1 X78.858 Y64.017 E65.40513
G1 X79.282 Y63.885 E65.43473
G1 X79.282 Y57.968 E65.83005
G1 X79.705 Y58.099 E65.85965
G1 X79.705 Y63.754 E66.23738
G1 X80.128 Y63.675 E66.26613
G1 X80.128 Y58.178 E66.63339
G1 X80.551 Y58.255 E66.66212
G1 X80.551 Y63.598 E67.01904
G1 X80.974 Y63.520 E67.04777
G1 X80.974 Y58.333 E67.39434
G1 X81.397 Y58.410 E67.42308
G1 X81.397 Y63.443 E67.75930
G1 X81.820 Y63.380 E67.78788
G1 X81.820 Y58.473 E68.11573
G1 X82.243 Y58.498 E68.14405
G1 X82.243 Y63.355 E68.46849
G1 X82.666 Y63.329 E68.49681
G1 X82.666 Y58.524 E68.81783
G1 X83.089 Y58.549 E68.84615
G1 X83.089 Y63.304 E69.16376
G1 X83.513 Y63.278 E69.19208
G1 X83.513 Y58.575 E69.50628
G1 X83.936 Y58.587 E69.53455
G1 X83.936 Y63.266 E69.84716
G1 X84.359 Y63.266 E69.87542
G1 X84.359 Y58.587 E70.18802
G1 X84.782 Y58.587 E70.21629
G1 X84.782 Y63.266 E70.52889
G1 X85.205 Y63.266 E70.55716
G1 X85.205 Y58.587 E70.86976
G1 X85.628 Y58.587 E70.89802
G1 X85.628 Y63.266 E71.21062
G1 X86.051 Y63.266 E71.23889
G1 X86.051 Y58.587 E71.55149
G1 X86.474 Y58.587 E71.57976
G1 X86.474 Y63.266 E71.89236
G1 X86.897 Y63.266 E71.92062
G1 X86.897 Y58.587 E72.23323
G1 X87.321 Y58.587 E72.26149
G1 X87.321 Y63.266 E72.57409
G1 X87.744 Y63.266 E72.60236
G1 X87.744 Y58.587 E72.91496
G1 X88.167 Y58.587 E72.94323
G1 X88.167 Y63.266 E73.25583
G1 X88.590 Y63.266 E73.28409
G1 X88.590 Y58.587 E73.59669
G1 X89.013 Y58.587 E73.62496
G1 X89.013 Y63.266 E73.93756
G1 X89.436 Y63.266 E73.96583
G1 X89.436 Y58.587 E74.27843
G1 X89.859 Y58.587 E74.30670
G1 X89.859 Y63.266 E74.61930
G1 X90.282 Y63.278 E74.64757
G1 X90.282 Y58.575 E74.96177
G1 X90.705 Y58.549 E74.99009
G1 X90.705 Y63.304 E75.30770
G1 X91.129 Y63.329 E75.33602
G1 X91.129 Y58.524 E75.65704
G1 X91.552 Y58.498 E75.68536
G1 X91.552 Y63.355 E76.00980
G1 X91.975 Y63.380 E76.03812
G1 X91.975 Y58.473 E76.36598
G1 X92.398 Y58.410 E76.39455
G1 X92.398 Y63.443 E76.73077
G1 X92.821 Y63.520 E76.75951
G1 X92.821 Y58.333 E77.10608
G1 X93.244 Y58.255 E77.13482
G1 X93.244 Y63.598 E77.49173
G1 X93.667 Y63.675 E77.52047
G1 X93.667 Y58.178 E77.88772
G1 X94.090 Y58.099 E77.91647
G1 X94.090 Y63.754 E78.29420
G1 X94.513 Y63.885 E78.32380
G1 X94.513 Y57.968 E78.71912
G1 X94.937 Y57.836 E78.74872
G1 X94.937 Y64.017 E79.16163
G1 X95.360 Y64.148 E79.19123
G1 X95.360 Y57.704 E79.62173
G1 X95.783 Y57.573 E79.65133
G1 X95.783 Y64.280 E80.09941
G1 X96.206 Y64.425 E80.12929
G1 X96.206 Y57.428 E80.59677
G1 X96.629 Y57.267 E80.62699
G1 X96.629 Y64.585 E81.11587
G1 X97.052 Y64.746 E81.14609
G1 X97.052 Y57.107 E81.65638
G1 X97.475 Y56.947 E81.68660
G1 X97.475 Y64.906 E82.21829
G1 X97.898 Y65.066 E82.24851
G1 X97.898 Y56.787 E82.80161
G1 X98.321 Y56.627 E82.83183
G1 X98.321 Y65.226 E83.40634
G1 X98.745 Y65.386 E83.43656
G1 X98.745 Y56.466 E84.03247
G1 X99.168 Y56.306 E84.06269
G1 X99.168 Y65.547 E84.68001
G1 X99.591 Y65.707 E84.71023
G1 X99.591 Y56.146 E85.34895
G1 X100.014 Y55.986 E85.37918
G1 X100.014 Y65.867 E86.03930
G1 X100.437 Y66.027 E86.06953
G1 X100.437 Y55.826 E86.75106
G1 X100.860 Y55.665 E86.78128
G1 X100.860 Y66.188 E87.48422
G1 X101.283 Y66.348 E87.51444
G1 X101.283 Y55.505 E88.23879
G1 X101.706 Y55.345 E88.26901
G1 X101.706 Y66.508 E89.01476
G1 X102.129 Y66.668 E89.04499
G1 X102.129 Y55.185 E89.81214
G1 X102.553 Y55.025 E89.84237
G1 X102.553 Y66.828 E90.63093
G1 X102.976 Y66.989 E90.66115
G1 X102.976 Y54.864 E91.47112
G1 X103.399 Y54.704 E91.50134
G1 X103.399 Y67.149 E92.33272
G1 X103.822 Y67.309 E92.36294
G1 X103.822 Y54.544 E93.21572
G1 X104.071 Y54.450 E93.23349
G1 X104.245 Y54.450 E93.24514
G1 X104.245 Y67.403 E94.11051
G1 X104.668 Y67.403 E94.13877
G1 X104.668 Y54.450 E95.00414
G1 X105.091 Y54.450 E95.03240
G1 X105.091 Y67.403 E95.89777
G1 X105.514 Y67.403 E95.92603
G1 X105.514 Y54.450 E96.79140
G1 X105.937 Y54.450 E96.81967
G1 X105.937 Y67.403 E97.68503
G1 X106.361 Y67.403 E97.71330
G1 X106.361 Y54.450 E98.57866
G1 X106.784 Y54.450 E98.60693
G1 X106.784 Y67.403 E99.47229
G1 X107.207 Y67.403 E99.50056
G1 X107.207 Y54.450 E100.36593
G1 X107.630 Y54.450 E100.39419
G1 X107.630 Y67.403 E101.25956
G1 X108.053 Y67.403 E101.28782
G1 X108.053 Y54.450 E102.15319
G1 X108.476 Y54.450 E102.18145
G1 X108.476 Y67.403 E103.04682
G1 X108.899 Y67.403 E103.07509
G1 X108.899 Y54.450 E103.94045
G1 X109.322 Y54.450 E103.96872
G1 X109.322 Y67.403 E104.83408
G1 X109.745 Y67.403 E104.86235
G1 X109.745 Y54.450 E105.72771
G1 X110.169 Y54.450 E105.75598
G1 X110.169 Y67.403 E106.62134
G1 X110.592 Y67.403 E106.64961
G1 X110.592 Y54.450 E107.51498
G1 X111.015 Y54.450 E107.54324
G1 X111.015 Y67.403 E108.40861
G1 X111.438 Y67.403 E108.43687
G1 X111.438 Y54.450 E109.30224
G1 X111.861 Y54.450 E109.33050
G1 X111.861 Y67.403 E110.19587
G1 X112.284 Y67.403 E110.22414
G1 X112.284 Y54.450 E111.08950
G1 X112.707 Y54.450 E111.11777
G1 X112.707 Y67.403 E111.98313
G1 X113.130 Y67.403 E112.01140
G1 X113.130 Y54.450 E112.87676
G1 X113.553 Y54.450 E112.90503
G1 X113.553 Y67.403 E113.77039
G1 X113.977 Y67.403 E113.79866
G1 X113.977 Y54.450 E114.66403
G1 X114.400 Y54.450 E114.69229
G1 X114.400 Y67.403 E115.55766
G1 X114.823 Y67.403 E115.58592
G1 X114.823 Y54.450 E116.45129
G1 X115.246 Y54.450 E116.47955
G1 X115.246 Y67.403 E117.34492
G1 X115.669 Y67.403 E117.37319
G1 X115.669 Y54.450 E118.23855
G1 X116.092 Y54.450 E118.26682
G1 X116.092 Y67.403 E119.13218
G1 X116.515 Y67.403 E119.16045
G1 X116.515 Y54.450 E120.02581
G1 X116.938 Y54.450 E120.05408
G1 X116.938 Y67.403 E120.91945
G1 X117.361 Y67.403 E120.94771
G1 X117.361 Y54.450 E121.81308
G1 X117.785 Y54.450 E121.84134
G1 X117.785 Y67.403 E122.70671
G1 X118.208 Y67.403 E122.73497
G1 X118.208 Y54.450 E123.60034
G1 X118.631 Y54.450 E123.62861
G1 X118.631 Y67.403 E124.49397
G1 X119.054 Y67.403 E124.52224
G1 X119.054 Y54.450 E125.38760
G1 X119.477 Y54.450 E125.41587
G1 X119.477 Y67.403 E126.28123
G1 X119.900 Y67.403 E126.30950
G1 X119.900 Y54.450 E127.17486
G1 X120.323 Y54.450 E127.20313
G1 X120.323 Y67.403 E128.06850
G1 X120.746 Y67.403 E128.09676
G1 X120.746 Y54.450 E128.96213
G1 X121.169 Y54.450 E128.99039
G1 X121.169 Y67.403 E129.85576
G1 X121.593 Y67.403 E129.88402
G1 X121.593 Y54.450 E130.74939
G1 X122.016 Y54.450 E130.77766
G1 X122.016 Y67.403 E131.64302
G1 X122.439 Y67.403 E131.67129
G1 X122.439 Y54.450 E132.53665
G1 X122.862 Y54.450 E132.56492
G1 X122.862 Y67.403 E133.43028
G1 X123.285 Y67.403 E133.45855
G1 X123.285 Y54.450 E134.32391
G1 X123.708 Y54.450 E134.35218
G1 X123.708 Y67.403 E135.21755
G1 X124.131 Y67.403 E135.24581
G1 X124.131 Y54.450 E136.11118
G1 X124.554 Y54.450 E136.13944
G1 X124.554 Y67.403 E137.00481
G1 X124.977 Y67.403 E137.03307
G1 X124.977 Y54.450 E137.89844
G1 X125.400 Y54.450 E137.92671
G1 X125.400 Y67.403 E138.79207
G1 X125.824 Y67.403 E138.82034
G1 X125.824 Y54.450 E139.68570
G1 X126.247 Y54.450 E139.71397
G1 X126.247 Y67.403 E140.57933
G1 X126.670 Y67.403 E140.60760
G1 X126.670 Y54.450 E141.47297
G1 X127.093 Y54.450 E141.50123
G1 X127.093 Y67.403 E142.36660
G1 X127.516 Y67.403 E142.39486
G1 X127.516 Y54.450 E143.26023
G1 X127.939 Y54.450 E143.28849
G1 X127.939 Y67.403 E144.15386
M104 S205 ; set temperature
M140 S55 ; set bed temperature
G1 Z0.600 F15000.000
G1 X127.939 Y67.303 F15000.000
G1 F4800
G1 X127.939 Y54.550 E144.82017
G1 X127.516 Y54.550 E144.84227
G1 X127.516 Y67.303 E145.50858
G1 X127.093 Y67.303 E145.53068
G1 X127.093 Y54.550 E146.19699
G1 X126.670 Y54.550 E146.21909
G1 X126.670 Y67.303 E146.88540
G1 X126.247 Y67.303 E146.90751
G1 X126.247 Y54.550 E147.57381
G1 X125.824 Y54.550 E147.59592
G1 X125.824 Y67.303 E148.26222
G1 X125.400 Y67.303 E148.28433
G1 X125.400 Y54.550 E148.95064
G1 X124.977 Y54.550 E148.97274
G1 X124.977 Y67.303 E149.63905
G1 X124.554 Y67.303 E149.66115
G1 X124.554 Y54.550 E150.32746
G1 X124.131 Y54.550 E150.34957
G1 X124.131 Y67.303 E151.01587
G1 X123.708 Y67.303 E151.03798
G1 X123.708 Y54.550 E151.70428
G1 X123.285 Y54.550 E151.72639
G1 X123.285 Y67.303 E152.39270
G1 X122.862 Y67.303 E152.41480
G1 X122.862 Y54.550 E153.08111
G1 X122.439 Y54.550 E153.10321
G1 X122.439 Y67.303 E153.76952
G1 X122.016 Y67.303 E153.79162
G1 X122.016 Y54.550 E154.45793
G1 X121.593 Y54.550 E154.48004
G1 X121.593 Y67.303 E155.14634
G1 X121.169 Y67.303 E155.16845
G1 X121.169 Y54.550 E155.83475
G1 X120.746 Y54.550 E155.85686
G1 X120.746 Y67.303 E156.52317
G1 X120.323 Y67.303 E156.54527
G1 X120.323 Y54.550 E157.21158
G1 X119.900 Y54.550 E157.23368
G1 X119.900 Y67.303 E157.89999
G1 X119.477 Y67.303 E157.92210
G1 X119.477 Y54.550 E158.58840
G1 X119.054 Y54.550 E158.61051
G1 X119.054 Y67.303 E159.27681
G1 X118.631 Y67.303 E159.29892
G1 X118.631 Y54.550 E159.96523
G1 X118.208 Y54.550 E159.98733
G1 X118.208 Y67.303 E160.65364
G1 X117.785 Y67.303 E160.67574
G1 X117.785 Y54.550 E161.34205
G1 X117.361 Y54.550 E161.36415
G1 X117.361 Y67.303 E162.03046
G1 X116.938 Y67.303 E162.05257
G1 X116.938 Y54.550 E162.71887
G1 X116.515 Y54.550 E162.74098
G1 X116.515 Y67.303 E163.40728
G1 X116.092 Y67.303 E163.42939
G1 X116.092 Y54.550 E164.09570
G1 X115.669 Y54.550 E164.11780
G1 X115.669 Y67.303 E164.78411
G1 X115.246 Y67.303 E164.80621
G1 X115.246 Y54.550 E165.47252
G1 X114.823 Y54.550 E165.49463
G1 X114.823 Y67.303 E166.16093
G1 X114.400 Y67.303 E166.18304
G1 X114.400 Y54.550 E166.84934
G1 X113.977 Y54.550 E166.87145
G1 X113.977 Y67.303 E167.53776
G1 X113.553 Y67.303 E167.55986
G1 X113.553 Y54.550 E168.22617
G1 X113.130 Y54.550 E168.24827
G1 X113.130 Y67.303 E168.91458
G1 X112.707 Y67.303 E168.93668
G1 X112.707 Y54.550 E169.60299
G1 X112.284 Y54.550 E169.62510
G1 X112.284 Y67.303 E170.29140
G1 X111.861 Y67.303 E170.31351
G1 X111.861 Y54.550 E170.97981
G1 X111.438 Y54.550 E171.00192
G1 X111.438 Y67.303 E171.66823
G1 X111.015 Y67.303 E171.69033
G1 X111.015 Y54.550 E172.35664
G1 X110.592 Y54.550 E172.37874
G1 X110.592 Y67.303 E173.04505
G1 X110.169 Y67.303 E173.06715
G1 X110.169 Y54.550 E173.73346
G1 X109.745 Y54.550 E173.75557
G1 X109.745 Y67.303 E174.42187
G1 X109.322 Y67.303 E174.44398
G1 X109.322 Y54.550 E175.11029
G1 X108.899 Y54.550 E175.13239
G1 X108.899 Y67.303 E175.79870
G1 X108.476 Y67.303 E175.82080
G1 X108.476 Y54.550 E176.48711
G1 X108.053 Y54.550 E176.50921
G1 X108.053 Y67.303 E177.17552
G1 X107.630 Y67.303 E177.19763
G1 X107.630 Y54.550 E177.86393
G1 X107.207 Y54.550 E177.88604
G1 X107.207 Y67.303 E178.55234
G1 X106.784 Y67.303 E178.57445
G1 X106.784 Y54.550 E179.24076
G1 X106.361 Y54.550 E179.26286
G1 X106.361 Y67.303 E179.92917
G1 X105.937 Y67.303 E179.95127
G1 X105.937 Y54.550 E180.61758
G1 X105.514 Y54.550 E180.63968
G1 X105.514 Y67.303 E181.30599
G1 X105.091 Y67.303 E181.32810
G1 X105.091 Y54.550 E181.99440
G1 X104.668 Y54.550 E182.01651
G1 X104.668 Y67.303 E182.68281
G1 X104.245 Y67.303 E182.70492
G1 X104.245 Y54.550 E183.37123
G1 X104.071 Y54.550 E183.38034
G1 X103.822 Y54.644 E183.39423
G1 X103.822 Y67.209 E184.05070
