; generated by Slic3r 1.3.1-dev on 2019-07-15 at 09:24:57

; external perimeters extrusion width = 0.44mm (3.04mm^3/s)
; perimeters extrusion width = 0.40mm (6.04mm^3/s)
; infill extrusion width = 0.48mm (10.05mm^3/s)
; solid infill extrusion width = 0.48mm (3.02mm^3/s)
; top infill extrusion width = 0.45mm (2.22mm^3/s)

M107
M190 S80 ; set bed temperature and wait for it to be reached
M104 S230 ; set temperature
G28 ; home all axes
G1 X150 Y150 Z50 F10000
; Filament gcode
; layer 1
M109 S230 ; set temperature and wait for it to be reached
G21 ; set units to millimeters
G90 ; use absolute coordinates
M82 ; use absolute distances for extrusion
G92 E0
G92 E0
G1 Z0.300 F15000.000
G1 X42.222 Y39.363 F15000.000
G1 F3600
G1 X42.222 Y48.285 E0.59604
G1 X42.645 Y48.285 E0.62431
G1 X42.645 Y39.363 E1.22035
G1 X43.068 Y39.363 E1.24861
G1 X43.068 Y48.285 E1.84465
G1 X43.491 Y48.285 E1.87292
G1 X43.491 Y39.363 E2.46896
G1 X43.914 Y39.363 E2.49723
G1 X43.914 Y48.285 E3.09327
G1 X44.337 Y48.285 E3.12153
G1 X44.337 Y39.363 E3.71757
G1 X44.760 Y39.363 E3.74584
G1 X44.760 Y48.285 E4.34188
G1 X45.183 Y48.285 E4.37015
G1 X45.183 Y39.363 E4.96619
G1 X45.607 Y39.363 E4.99445
G1 X45.607 Y48.285 E5.59049
G1 X46.030 Y48.285 E5.61876
G1 X46.030 Y39.363 E6.21480
G1 X46.453 Y39.363 E6.24306
G1 X46.453 Y48.285 E6.83910
G1 X46.876 Y48.285 E6.86737
G1 X46.876 Y39.363 E7.46341
G1 X47.299 Y39.363 E7.49168
G1 X47.299 Y48.285 E8.08772
G1 X47.722 Y48.285 E8.11598
G1 X47.722 Y39.363 E8.71202
G1 X48.145 Y39.363 E8.74029
G1 X48.145 Y48.285 E9.33633
G1 X48.568 Y48.285 E9.36460
G1 X48.568 Y39.363 E9.96064
G1 X48.991 Y39.363 E9.98890
G1 X48.991 Y48.285 E10.58494
G1 X49.415 Y48.285 E10.61321
G1 X49.415 Y39.363 E11.20925
G1 X49.838 Y39.363 E11.23752
G1 X49.838 Y48.285 E11.83356
G1 X50.261 Y48.285 E11.86182
G1 X50.261 Y39.363 E12.45786
G1 X50.684 Y39.363 E12.48613
G1 X50.684 Y48.285 E13.08217
G1 X51.107 Y48.285 E13.11044
G1 X51.107 Y39.363 E13.70648
G1 X51.530 Y39.363 E13.73474
G1 X51.530 Y48.285 E14.33078
G1 X51.953 Y48.285 E14.35905
G1 X51.953 Y39.363 E14.95509
G1 X52.376 Y39.363 E14.98335
G1 X52.376 Y48.285 E15.57939
G1 X52.799 Y48.285 E15.60766
G1 X52.799 Y39.363 E16.20370
G1 X53.223 Y39.363 E16.23197
G1 X53.223 Y48.285 E16.82801
G1 X53.646 Y48.285 E16.85627
G1 X53.646 Y39.363 E17.45231
G1 X54.069 Y39.363 E17.48058
G1 X54.069 Y48.285 E18.07662
G1 X54.492 Y48.285 E18.10489
G1 X54.492 Y39.363 E18.70093
G1 X54.915 Y39.363 E18.72919
G1 X54.915 Y48.285 E19.32523
G1 X55.338 Y48.285 E19.35350
G1 X55.338 Y39.363 E19.94954
G1 X55.761 Y39.363 E19.97781
G1 X55.761 Y48.285 E20.57385
G1 X56.184 Y48.285 E20.60211
G1 X56.184 Y39.363 E21.19815
G1 X56.607 Y39.363 E21.22642
G1 X56.607 Y48.285 E21.82246
G1 X57.031 Y48.285 E21.85073
G1 X57.031 Y39.363 E22.44677
G1 X57.454 Y39.363 E22.47503
G1 X57.454 Y48.285 E23.07107
G1 X57.877 Y48.285 E23.09934
G1 X57.877 Y39.363 E23.69538
G1 X58.300 Y39.363 E23.72364
G1 X58.300 Y48.285 E24.31969
G1 X58.723 Y48.285 E24.34795
G1 X58.723 Y39.363 E24.94399
G1 X59.146 Y39.363 E24.97226
G1 X59.146 Y48.285 E25.56830
G1 X59.569 Y48.285 E25.59656
G1 X59.569 Y39.363 E26.19260
G1 X59.992 Y39.363 E26.22087
G1 X59.992 Y48.285 E26.81691
G1 X60.348 Y48.285 E26.84066
G1 X60.415 Y48.263 E26.84542
G1 X60.415 Y39.386 E27.43845
G1 X60.839 Y39.527 E27.46825
G1 X60.839 Y48.122 E28.04244
G1 X61.262 Y47.981 E28.07224
G1 X61.262 Y39.668 E28.62759
G1 X61.685 Y39.809 E28.65739
G1 X61.685 Y47.840 E29.19391
G1 X62.108 Y47.699 E29.22370
G1 X62.108 Y39.950 E29.74139
G1 X62.531 Y40.091 E29.77118
G1 X62.531 Y47.558 E30.27003
G1 X62.954 Y47.417 E30.29982
G1 X62.954 Y40.232 E30.77983
G1 X63.377 Y40.373 E30.80962
G1 X63.377 Y47.276 E31.27079
G1 X63.800 Y47.135 E31.30059
G1 X63.800 Y40.514 E31.74292
G1 X64.223 Y40.655 E31.77272
G1 X64.223 Y46.994 E32.19621
G1 X64.647 Y46.853 E32.22601
G1 X64.647 Y40.796 E32.63067
G1 X65.070 Y40.937 E32.66046
G1 X65.070 Y46.712 E33.04628
G1 X65.493 Y46.571 E33.07608
G1 X65.493 Y41.078 E33.44306
G1 X65.916 Y41.218 E33.47286
G1 X65.916 Y46.430 E33.82101
G1 X66.339 Y46.289 E33.85080
G1 X66.339 Y41.359 E34.18011
G1 X66.762 Y41.487 E34.20963
G1 X66.762 Y46.162 E34.52192
G1 X67.185 Y46.046 E34.55123
G1 X67.185 Y41.603 E34.84805
G1 X67.608 Y41.719 E34.87735
G1 X67.608 Y45.930 E35.15869
G1 X68.031 Y45.816 E35.18796
G1 X68.031 Y41.832 E35.45412
G1 X68.455 Y41.900 E35.48275
G1 X68.455 Y45.748 E35.73981
G1 X68.878 Y45.680 E35.76844
G1 X68.878 Y41.968 E36.01639
G1 X69.301 Y42.037 E36.04502
G1 X69.301 Y45.612 E36.28387
G1 X69.724 Y45.564 E36.31232
G1 X69.724 Y42.085 E36.54472
G1 X70.147 Y42.107 E36.57303
G1 X70.147 Y45.541 E36.80242
G1 X70.570 Y45.519 E36.83073
G1 X70.570 Y42.130 E37.05712
G1 X70.993 Y42.152 E37.08543
G1 X70.993 Y45.496 E37.30881
G1 X71.416 Y45.491 E37.33708
G1 X71.416 Y42.157 E37.55981
G1 X71.839 Y42.157 E37.58808
G1 X71.839 Y45.491 E37.81081
G1 X72.263 Y45.491 E37.83908
G1 X72.263 Y42.157 E38.06181
G1 X72.686 Y42.157 E38.09007
G1 X72.686 Y45.491 E38.31281
G1 X73.109 Y45.491 E38.34107
G1 X73.109 Y42.157 E38.56380
G1 X73.532 Y42.157 E38.59207
G1 X73.532 Y45.491 E38.81480
G1 X73.955 Y45.491 E38.84307
G1 X73.955 Y42.157 E39.06580
G1 X74.378 Y42.157 E39.09407
G1 X74.378 Y45.491 E39.31680
G1 X74.801 Y45.491 E39.34506
G1 X74.801 Y42.157 E39.56780
G1 X75.224 Y42.157 E39.59606
G1 X75.224 Y45.491 E39.81879
G1 X75.647 Y45.491 E39.84706
G1 X75.647 Y42.157 E40.06979
G1 X76.071 Y42.152 E40.09806
G1 X76.071 Y45.496 E40.32145
G1 X76.494 Y45.519 E40.34975
G1 X76.494 Y42.130 E40.57614
G1 X76.917 Y42.107 E40.60445
G1 X76.917 Y45.541 E40.83384
G1 X77.340 Y45.564 E40.86215
G1 X77.340 Y42.085 E41.09455
G1 X77.763 Y42.037 E41.12300
G1 X77.763 Y45.612 E41.36185
G1 X78.186 Y45.680 E41.39048
G1 X78.186 Y41.968 E41.63844
G1 X78.609 Y41.900 E41.66707
G1 X78.609 Y45.748 E41.92412
G1 X79.032 Y45.816 E41.95275
G1 X79.032 Y41.832 E42.21892
G1 X79.455 Y41.719 E42.24818
G1 X79.455 Y45.930 E42.52952
G1 X79.879 Y46.046 E42.55883
G1 X79.879 Y41.603 E42.85564
G1 X80.302 Y41.487 E42.88495
G1 X80.302 Y46.162 E43.19724
G1 X80.725 Y46.289 E43.22676
G1 X80.725 Y41.359 E43.55607
G1 X81.148 Y41.218 E43.58587
G1 X81.148 Y46.430 E43.93401
G1 X81.571 Y46.571 E43.96381
G1 X81.571 Y41.078 E44.33079
G1 X81.994 Y40.937 E44.36059
G1 X81.994 Y46.712 E44.74641
G1 X82.417 Y46.853 E44.77620
G1 X82.417 Y40.796 E45.18086
G1 X82.840 Y40.655 E45.21066
G1 X82.840 Y46.994 E45.63415
G1 X83.263 Y47.135 E45.66395
G1 X83.263 Y40.514 E46.10628
G1 X83.687 Y40.373 E46.13608
G1 X83.687 Y47.276 E46.59725
G1 X84.110 Y47.417 E46.62704
G1 X84.110 Y40.232 E47.10705
G1 X84.533 Y40.091 E47.13684
G1 X84.533 Y47.558 E47.63569
G1 X84.956 Y47.699 E47.66548
G1 X84.956 Y39.950 E48.18317
G1 X85.379 Y39.809 E48.21296
G1 X85.379 Y47.840 E48.74948
G1 X85.802 Y47.981 E48.77928
G1 X85.802 Y39.668 E49.33463
G1 X86.225 Y39.527 E49.36443
G1 X86.225 Y48.122 E49.93862
G1 X86.648 Y48.263 E49.96842
G1 X86.648 Y39.386 E50.56145
G1 X86.716 Y39.363 E50.56621
G1 X87.071 Y39.363 E50.58996
G1 X87.071 Y48.285 E51.18600
G1 X87.494 Y48.285 E51.21426
G1 X87.494 Y39.363 E51.81031
G1 X87.918 Y39.363 E51.83857
G1 X87.918 Y48.285 E52.43461
G1 X88.341 Y48.285 E52.46288
G1 X88.341 Y39.363 E53.05892
G1 X88.764 Y39.363 E53.08718
G1 X88.764 Y48.285 E53.68322
G1 X89.187 Y48.285 E53.71149
G1 X89.187 Y39.363 E54.30753
G1 X89.610 Y39.363 E54.33580
G1 X89.610 Y48.285 E54.93184
G1 X90.033 Y48.285 E54.96010
G1 X90.033 Y39.363 E55.55614
G1 X90.456 Y39.363 E55.58441
G1 X90.456 Y48.285 E56.18045
G1 X90.879 Y48.285 E56.20872
G1 X90.879 Y39.363 E56.80476
G1 X91.302 Y39.363 E56.83302
G1 X91.302 Y48.285 E57.42906
G1 X91.726 Y48.285 E57.45733
G1 X91.726 Y39.363 E58.05337
G1 X92.149 Y39.363 E58.08164
G1 X92.149 Y48.285 E58.67768
G1 X92.572 Y48.285 E58.70594
G1 X92.572 Y39.363 E59.30198
G1 X92.995 Y39.363 E59.33025
G1 X92.995 Y48.285 E59.92629
G1 X93.418 Y48.285 E59.95455
G1 X93.418 Y39.363 E60.55060
G1 X93.841 Y39.363 E60.57886
G1 X93.841 Y48.285 E61.17490
G1 X94.264 Y48.285 E61.20317
G1 X94.264 Y39.363 E61.79921
G1 X94.687 Y39.363 E61.82747
G1 X94.687 Y48.285 E62.42351
G1 X95.110 Y48.285 E62.45178
G1 X95.110 Y39.363 E63.04782
G1 X95.534 Y39.363 E63.07609
G1 X95.534 Y48.285 E63.67213
G1 X95.957 Y48.285 E63.70039
G1 X95.957 Y39.363 E64.29643
G1 X96.380 Y39.363 E64.32470
G1 X96.380 Y48.285 E64.92074
G1 X96.803 Y48.285 E64.94901
G1 X96.803 Y39.363 E65.54505
G1 X97.226 Y39.363 E65.57331
G1 X97.226 Y48.285 E66.16935
G1 X97.649 Y48.285 E66.19762
G1 X97.649 Y39.363 E66.79366
G1 X98.072 Y39.363 E66.82193
G1 X98.072 Y48.285 E67.41797
G1 X98.495 Y48.285 E67.44623
G1 X98.495 Y39.363 E68.04227
G1 X98.918 Y39.363 E68.07054
G1 X98.918 Y48.285 E68.66658
G1 X99.342 Y48.285 E68.69485
G1 X99.342 Y39.363 E69.29089
G1 X99.765 Y39.363 E69.31915
G1 X99.765 Y48.285 E69.91519
G1 X100.188 Y48.285 E69.94346
G1 X100.188 Y39.363 E70.53950
G1 X100.611 Y39.363 E70.56776
G1 X100.611 Y48.285 E71.16380
G1 X101.034 Y48.285 E71.19207
G1 X101.034 Y39.363 E71.78811
G1 X101.457 Y39.363 E71.81638
G1 X101.457 Y48.285 E72.41242
G1 X101.880 Y48.285 E72.44068
G1 X101.880 Y39.363 E73.03672
G1 X102.303 Y39.363 E73.06499
G1 X102.303 Y48.285 E73.66103
G1 X102.726 Y48.285 E73.68930
G1 X102.726 Y39.363 E74.28534
G1 X103.150 Y39.363 E74.31360
G1 X103.150 Y48.285 E74.90964
G1 X103.573 Y48.285 E74.93791
G1 X103.573 Y39.363 E75.53395
G1 X103.996 Y39.363 E75.56222
G1 X103.996 Y48.285 E76.15826
G1 X104.419 Y48.285 E76.18652
G1 X104.419 Y39.363 E76.78256
G1 X104.842 Y39.363 E76.81083
G1 X104.842 Y48.285 E77.40687
M104 S205 ; set temperature
M140 S55 ; set bed temperature
G1 Z0.600 F15000.000
G1 X104.842 Y48.185 F15000.000
G1 F4800
G1 X104.842 Y39.463 E77.86255
G1 X104.419 Y39.463 E77.88466
G1 X104.419 Y48.185 E78.34034
G1 X103.996 Y48.185 E78.36244
G1 X103.996 Y39.463 E78.81813
G1 X103.573 Y39.463 E78.84023
G1 X103.573 Y48.185 E79.29591
G1 X103.150 Y48.185 E79.31802
G1 X103.150 Y39.463 E79.77370
G1 X102.726 Y39.463 E79.79581
G1 X102.726 Y48.185 E80.25149
G1 X102.303 Y48.185 E80.27359
G1 X102.303 Y39.463 E80.72928
G1 X101.880 Y39.463 E80.75138
G1 X101.880 Y48.185 E81.20706
G1 X101.457 Y48.185 E81.22917
G1 X101.457 Y39.463 E81.68485
G1 X101.034 Y39.463 E81.70696
G1 X101.034 Y48.185 E82.16264
G1 X100.611 Y48.185 E82.18474
G1 X100.611 Y39.463 E82.64042
G1 X100.188 Y39.463 E82.66253
G1 X100.188 Y48.185 E83.11821
G1 X99.765 Y48.185 E83.14032
G1 X99.765 Y39.463 E83.59600
G1 X99.342 Y39.463 E83.61810
G1 X99.342 Y48.185 E84.07379
G1 X98.918 Y48.185 E84.09589
G1 X98.918 Y39.463 E84.55157
G1 X98.495 Y39.463 E84.57368
G1 X98.495 Y48.185 E85.02936
G1 X98.072 Y48.185 E85.05147
G1 X98.072 Y39.463 E85.50715
G1 X97.649 Y39.463 E85.52925
G1 X97.649 Y48.185 E85.98494
G1 X97.226 Y48.185 E86.00704
G1 X97.226 Y39.463 E86.46272
G1 X96.803 Y39.463 E86.48483
G1 X96.803 Y48.185 E86.94051
G1 X96.380 Y48.185 E86.96262
G1 X96.380 Y39.463 E87.41830
G1 X95.957 Y39.463 E87.44040
G1 X95.957 Y48.185 E87.89609
G1 X95.534 Y48.185 E87.91819
G1 X95.534 Y39.463 E88.37387
G1 X95.110 Y39.463 E88.39598
G1 X95.110 Y48.185 E88.85166
G1 X94.687 Y48.185 E88.87377
G1 X94.687 Y39.463 E89.32945
G1 X94.264 Y39.463 E89.35155
G1 X94.264 Y48.185 E89.80724
G1 X93.841 Y48.185 E89.82934
G1 X93.841 Y39.463 E90.28502
G1 X93.418 Y39.463 E90.30713
G1 X93.418 Y48.185 E90.76281
G1 X92.995 Y48.185 E90.78492
G1 X92.995 Y39.463 E91.24060
G1 X92.572 Y39.463 E91.26270
G1 X92.572 Y48.185 E91.71838
G1 X92.149 Y48.185 E91.74049
G1 X92.149 Y39.463 E92.19617
G1 X91.726 Y39.463 E92.21828
G1 X91.726 Y48.185 E92.67396
G1 X91.302 Y48.185 E92.69606
G1 X91.302 Y39.463 E93.15175
G1 X90.879 Y39.463 E93.17385
G1 X90.879 Y48.185 E93.62953
G1 X90.456 Y48.185 E93.65164
G1 X90.456 Y39.463 E94.10732
G1 X90.033 Y39.463 E94.12943
G1 X90.033 Y48.185 E94.58511
G1 X89.610 Y48.185 E94.60721
G1 X89.610 Y39.463 E95.06290
G1 X89.187 Y39.463 E95.08500
G1 X89.187 Y48.185 E95.54068
G1 X88.764 Y48.185 E95.56279
G1 X88.764 Y39.463 E96.01847
G1 X88.341 Y39.463 E96.04058
G1 X88.341 Y48.185 E96.49626
G1 X87.918 Y48.185 E96.51836
G1 X87.918 Y39.463 E96.97405
G1 X87.494 Y39.463 E96.99615
G1 X87.494 Y48.185 E97.45183
G1 X87.071 Y48.185 E97.47394
G1 X87.071 Y39.463 E97.92962
G1 X86.716 Y39.463 E97.94820
G1 X86.648 Y39.486 E97.95192
G1 X86.648 Y48.163 E98.40525
G1 X86.225 Y48.022 E98.42855
G1 X86.225 Y39.627 E98.86714
G1 X85.802 Y39.768 E98.89044
G1 X85.802 Y47.881 E99.31431
G1 X85.379 Y47.740 E99.33761
G1 X85.379 Y39.909 E99.74675
G1 X84.956 Y40.050 E99.77005
G1 X84.956 Y47.599 E100.16445
G1 X84.533 Y47.458 E100.18775
G1 X84.533 Y40.191 E100.56742
G1 X84.110 Y40.332 E100.59072
G1 X84.110 Y47.317 E100.95566
G1 X83.687 Y47.176 E100.97896
G1 X83.687 Y40.473 E101.32917
G1 X83.263 Y40.614 E101.35247
G1 X83.263 Y47.035 E101.68795
G1 X82.840 Y46.894 E101.71125
G1 X82.840 Y40.755 E102.03199
G1 X82.417 Y40.896 E102.05529
G1 X82.417 Y46.753 E102.36131
G1 X81.994 Y46.612 E102.38461
G1 X81.994 Y41.037 E102.67589
G1 X81.571 Y41.178 E102.69919
G1 X81.571 Y46.471 E102.97574
G1 X81.148 Y46.330 E102.99904
G1 X81.148 Y41.318 E103.26086
G1 X80.725 Y41.459 E103.28416
G1 X80.725 Y46.189 E103.53124
G1 X80.302 Y46.062 E103.55433
G1 X80.302 Y41.587 E103.78811
G1 X79.879 Y41.703 E103.81103
G1 X79.879 Y45.946 E104.03270
G1 X79.455 Y45.830 E104.05562
G1 X79.455 Y41.819 E104.26519
G1 X79.032 Y41.932 E104.28808
G1 X79.032 Y45.716 E104.48578
G1 X78.609 Y45.648 E104.50817
G1 X78.609 Y42.000 E104.69875
G1 X78.186 Y42.068 E104.72114
G1 X78.186 Y45.580 E104.90461
G1 X77.763 Y45.512 E104.92700
G1 X77.763 Y42.137 E105.10334
G1 X77.340 Y42.185 E105.12559
G1 X77.340 Y45.464 E105.29689
G1 X76.917 Y45.441 E105.31902
G1 X76.917 Y42.207 E105.48797
G1 X76.494 Y42.230 E105.51011
G1 X76.494 Y45.419 E105.67671
G1 X76.071 Y45.396 E105.69884
G1 X76.071 Y42.252 E105.86309
G1 X75.647 Y42.257 E105.88520
G1 X75.647 Y45.391 E106.04894
G1 X75.224 Y45.391 E106.07104
G1 X75.224 Y42.257 E106.23478
G1 X74.801 Y42.257 E106.25689
G1 X74.801 Y45.391 E106.42062
G1 X74.378 Y45.391 E106.44273
G1 X74.378 Y42.257 E106.60647
G1 X73.955 Y42.257 E106.62857
G1 X73.955 Y45.391 E106.79231
G1 X73.532 Y45.391 E106.81442
G1 X73.532 Y42.257 E106.97815
G1 X73.109 Y42.257 E107.00026
G1 X73.109 Y45.391 E107.16400
G1 X72.686 Y45.391 E107.18610
G1 X72.686 Y42.257 E107.34984
G1 X72.263 Y42.257 E107.37194
G1 X72.263 Y45.391 E107.53568
G1 X71.839 Y45.391 E107.55779
G1 X71.839 Y42.257 E107.72153
G1 X71.416 Y42.257 E107.74363
G1 X71.416 Y45.391 E107.90737
G1 X70.993 Y45.396 E107.92947
G1 X70.993 Y42.252 E108.09372
G1 X70.570 Y42.230 E108.11586
G1 X70.570 Y45.419 E108.28246
G1 X70.147 Y45.441 E108.30460
G1 X70.147 Y42.207 E108.47354
G1 X69.724 Y42.185 E108.49568
G1 X69.724 Y45.464 E108.66698
G1 X69.301 Y45.512 E108.68923
G1 X69.301 Y42.137 E108.86557
G1 X68.878 Y42.068 E108.88796
G1 X68.878 Y45.580 E109.07143
G1 X68.455 Y45.648 E109.09382
G1 X68.455 Y42.000 E109.28440
G1 X68.031 Y41.932 E109.30679
G1 X68.031 Y45.716 E109.50449
G1 X67.608 Y45.830 E109.52738
G1 X67.608 Y41.819 E109.73695
G1 X67.185 Y41.703 E109.75987
G1 X67.185 Y45.946 E109.98154
G1 X66.762 Y46.062 E110.00446
G1 X66.762 Y41.587 E110.23824
G1 X66.339 Y41.459 E110.26132
G1 X66.339 Y46.189 E110.50841
G1 X65.916 Y46.330 E110.53171
G1 X65.916 Y41.318 E110.79353
G1 X65.493 Y41.178 E110.81683
G1 X65.493 Y46.471 E111.09338
G1 X65.070 Y46.612 E111.11668
G1 X65.070 Y41.037 E111.40796
G1 X64.647 Y40.896 E111.43126
G1 X64.647 Y46.753 E111.73728
G1 X64.223 Y46.894 E111.76058
G1 X64.223 Y40.755 E112.08132
G1 X63.800 Y40.614 E112.10462
G1 X63.800 Y47.035 E112.44010
G1 X63.377 Y47.176 E112.46340
G1 X63.377 Y40.473 E112.81361
G1 X62.954 Y40.332 E112.83691
G1 X62.954 Y47.317 E113.20185
G1 X62.531 Y47.458 E113.22515
G1 X62.531 Y40.191 E113.60482
G1 X62.108 Y40.050 E113.62812
G1 X62.108 Y47.599 E114.02252
G1 X61.685 Y47.740 E114.04582
G1 X61.685 Y39.909 E114.45496
G1 X61.262 Y39.768 E114.47826
G1 X61.262 Y47.881 E114.90213
G1 X60.839 Y48.022 E114.92543
G1 X60.839 Y39.627 E115.36402
G1 X60.415 Y39.486 E115.38732
G1 X60.415 Y48.163 E115.84065
G1 X60.348 Y48.185 E115.84437
G1 X59.992 Y48.185 E115.86295
G1 X59.992 Y39.463 E116.31863
G1 X59.569 Y39.463 E116.34074
G1 X59.569 Y48.185 E116.79642
G1 X59.146 Y48.185 E116.81852
