; generated by Slic3r 1.3.1-dev on 2019-06-24 at 13:25:53

; external perimeters extrusion width = 0.44mm (3.04mm^3/s)
; perimeters extrusion width = 0.40mm (6.04mm^3/s)
; infill extrusion width = 0.48mm (10.05mm^3/s)
; solid infill extrusion width = 0.48mm (3.02mm^3/s)
; top infill extrusion width = 0.45mm (2.22mm^3/s)

M107
M190 S80 ; set bed temperature and wait for it to be reached
M104 S230 ; set temperature
G28 ; home all axes
G1 X150 Y150 Z50 F10000
; Filament gcode
; layer 1
M109 S230 ; set temperature and wait for it to be reached
G21 ; set units to millimeters
G90 ; use absolute coordinates
M82 ; use absolute distances for extrusion
G92 E0
G92 E0
G1 Z0.300 F15000.000
G1 X49.732 Y58.996 F15000.000
G1 F3600
G1 X69.896 Y58.996 E1.34704
G1 X71.013 Y58.573 E1.42686
G1 X49.732 Y58.573 E2.84855
G1 X49.732 Y58.150 E2.87682
G1 X72.131 Y58.150 E4.37316
G1 X73.248 Y57.727 E4.45298
G1 X49.732 Y57.727 E6.02397
G1 X49.732 Y57.304 E6.05223
G1 X74.365 Y57.304 E7.69787
G1 X75.221 Y56.980 E7.75896
G1 X75.540 Y56.881 E7.78129
G1 X49.732 Y56.881 E9.50537
G1 X49.732 Y56.457 E9.53364
G1 X77.039 Y56.457 E11.35787
G92 E0
G1 X69.896 Y50.534 F15000.000
G1 F3600
G1 X49.732 Y50.534 E1.34704
G1 X49.732 Y50.957 E1.37531
G1 X71.013 Y50.957 E2.79700
G1 X72.131 Y51.380 E2.87682
G1 X49.732 Y51.380 E4.37316
G1 X49.732 Y51.803 E4.40142
G1 X73.248 Y51.803 E5.97241
G1 X74.365 Y52.226 E6.05224
G1 X49.732 Y52.226 E7.69787
G1 X49.732 Y52.649 E7.72614
G1 X75.540 Y52.649 E9.45023
G1 X76.701 Y53.011 E9.53147
G1 X77.039 Y53.073 E9.55441
G1 X49.732 Y53.073 E11.37865
G1 X49.732 Y53.496 E11.40691
G1 X113.768 Y53.496 E15.68484
G1 X113.768 Y53.919 E15.71310
G1 X49.732 Y53.919 E19.99103
G1 X49.732 Y54.342 E20.01930
G1 X113.768 Y54.342 E24.29723
G1 X113.768 Y54.765 E24.32549
G1 X49.732 Y54.765 E28.60342
G1 X49.732 Y55.188 E28.63169
G1 X113.768 Y55.188 E32.90961
G1 X113.768 Y55.611 E32.93788
G1 X49.732 Y55.611 E37.21581
G1 X49.732 Y56.034 E37.24407
G1 X113.768 Y56.034 E41.52200
G1 X113.768 Y56.457 E41.55027
G1 X86.461 Y56.457 E43.37450
G1 X86.799 Y56.519 E43.39744
G1 X87.960 Y56.881 E43.47868
G1 X113.768 Y56.881 E45.20277
G1 X113.768 Y57.304 E45.23104
G1 X89.135 Y57.304 E46.87667
G1 X90.252 Y57.727 E46.95649
G1 X113.768 Y57.727 E48.52748
G1 X113.768 Y58.150 E48.55575
G1 X91.369 Y58.150 E50.05209
G1 X92.487 Y58.573 E50.13191
G1 X113.768 Y58.573 E51.55360
G1 X113.768 Y58.996 E51.58186
G1 X93.604 Y58.996 E52.92891
G92 E0
G1 X86.461 Y53.073 F15000.000
G1 F3600
G1 X113.768 Y53.073 E1.82423
G1 X113.768 Y52.649 E1.85250
G1 X87.960 Y52.649 E3.57659
G1 X88.279 Y52.550 E3.59892
G1 X89.135 Y52.226 E3.66001
G1 X113.768 Y52.226 E5.30564
G1 X113.768 Y51.803 E5.33391
G1 X90.252 Y51.803 E6.90490
G1 X91.369 Y51.380 E6.98472
G1 X113.768 Y51.380 E8.48106
G1 X113.768 Y50.957 E8.50933
G1 X92.487 Y50.957 E9.93102
G1 X93.604 Y50.534 E10.01084
G1 X113.768 Y50.534 E11.35788
M104 S205 ; set temperature
M140 S55 ; set bed temperature
G1 Z0.600 F15000.000
G1 X113.668 Y50.534 F15000.000
G1 F4800
G1 X93.704 Y50.534 E12.40088
G1 X92.587 Y50.957 E12.46331
G1 X113.668 Y50.957 E13.56468
G1 X113.668 Y51.380 E13.58679
G1 X91.469 Y51.380 E14.74655
G1 X90.352 Y51.803 E14.80897
G1 X113.668 Y51.803 E16.02711
G1 X113.668 Y52.226 E16.04921
G1 X89.235 Y52.226 E17.32573
G1 X88.379 Y52.550 E17.37350
G1 X88.060 Y52.649 E17.39097
G1 X113.668 Y52.649 E18.72883
G1 X113.668 Y53.073 E18.75094
G1 X86.561 Y53.073 E20.16712
G92 E0
G1 X93.704 Y58.996 F15000.000
G1 F4800
G1 X113.668 Y58.996 E1.04300
G1 X113.668 Y58.573 E1.06511
G1 X92.587 Y58.573 E2.16648
G1 X91.469 Y58.150 E2.22891
G1 X113.668 Y58.150 E3.38866
G1 X113.668 Y57.727 E3.41077
G1 X90.352 Y57.727 E4.62891
G1 X89.235 Y57.304 E4.69133
G1 X113.668 Y57.304 E5.96784
G1 X113.668 Y56.881 E5.98995
G1 X88.060 Y56.881 E7.32782
G1 X86.899 Y56.519 E7.39135
G1 X86.561 Y56.457 E7.40929
G1 X113.668 Y56.457 E8.82548
G1 X113.668 Y56.034 E8.84758
G1 X49.832 Y56.034 E12.18267
G1 X49.832 Y55.611 E12.20477
G1 X113.668 Y55.611 E15.53986
G1 X113.668 Y55.188 E15.56197
G1 X49.832 Y55.188 E18.89705
G1 X49.832 Y54.765 E18.91916
G1 X113.668 Y54.765 E22.25425
G1 X113.668 Y54.342 E22.27635
G1 X49.832 Y54.342 E25.61144
G1 X49.832 Y53.919 E25.63354
G1 X113.668 Y53.919 E28.96863
G1 X113.668 Y53.496 E28.99074
G1 X49.832 Y53.496 E32.32582
G1 X49.832 Y53.073 E32.34793
G1 X76.939 Y53.073 E33.76411
G1 X76.601 Y53.011 E33.78205
G1 X75.440 Y52.649 E33.84559
G1 X49.832 Y52.649 E35.18346
G1 X49.832 Y52.226 E35.20556
G1 X74.265 Y52.226 E36.48208
G1 X73.148 Y51.803 E36.54450
G1 X49.832 Y51.803 E37.76264
G1 X49.832 Y51.380 E37.78474
G1 X72.031 Y51.380 E38.94450
G1 X70.913 Y50.957 E39.00693
G1 X49.832 Y50.957 E40.10830
G1 X49.832 Y50.534 E40.13041
G1 X69.796 Y50.534 E41.17341
G92 E0
G1 X76.939 Y56.457 F15000.000
G1 F4800
G1 X49.832 Y56.457 E1.41618
G1 X49.832 Y56.881 E1.43829
G1 X75.440 Y56.881 E2.77615
G1 X75.121 Y56.980 E2.79361
G1 X74.265 Y57.304 E2.84139
G1 X49.832 Y57.304 E4.11790
G1 X49.832 Y57.727 E4.14001
G1 X73.148 Y57.727 E5.35815
G1 X72.031 Y58.150 E5.42057
G1 X49.832 Y58.150 E6.58033
G1 X49.832 Y58.573 E6.60243
G1 X70.913 Y58.573 E7.70381
G1 X69.796 Y58.996 E7.76623
G1 X49.832 Y58.996 E8.80923
G1 Z0.900 F15000.000
G1 F4800
G1 X69.796 Y58.996 E9.85223
G1 X70.913 Y58.573 E9.91466
G1 X49.832 Y58.573 E11.01603
G1 X49.832 Y58.150 E11.03814
G1 X72.031 Y58.150 E12.19790
G1 X73.148 Y57.727 E12.26032
G1 X49.832 Y57.727 E13.47846
G1 X49.832 Y57.304 E13.50056
G1 X74.265 Y57.304 E14.77708
G1 X75.121 Y56.980 E14.82485
G1 X75.440 Y56.881 E14.84231
G1 X49.832 Y56.881 E16.18018
G1 X49.832 Y56.457 E16.20228
G1 X76.939 Y56.457 E17.61846
G92 E0
G1 X69.796 Y50.534 F15000.000
G1 F4800
G1 X49.832 Y50.534 E1.04300
G1 X49.832 Y50.957 E1.06510
G1 X70.913 Y50.957 E2.16648
G1 X72.031 Y51.380 E2.22891
G1 X49.832 Y51.380 E3.38866
G1 X49.832 Y51.803 E3.41077
G1 X73.148 Y51.803 E4.62891
G1 X74.265 Y52.226 E4.69133
G1 X49.832 Y52.226 E5.96785
G1 X49.832 Y52.649 E5.98995
G1 X75.440 Y52.649 E7.32782
G1 X76.601 Y53.011 E7.39136
G1 X76.939 Y53.073 E7.40930
G1 X49.832 Y53.073 E8.82548
G1 X49.832 Y53.496 E8.84759
G1 X113.668 Y53.496 E12.18267
G1 X113.668 Y53.919 E12.20478
G1 X49.832 Y53.919 E15.53987
G1 X49.832 Y54.342 E15.56197
G1 X113.668 Y54.342 E18.89706
G1 X113.668 Y54.765 E18.91916
G1 X49.832 Y54.765 E22.25425
G1 X49.832 Y55.188 E22.27636
G1 X113.668 Y55.188 E25.61144
G1 X113.668 Y55.611 E25.63355
G1 X49.832 Y55.611 E28.96864
G1 X49.832 Y56.034 E28.99074
G1 X113.668 Y56.034 E32.32583
G1 X113.668 Y56.457 E32.34793
G1 X86.561 Y56.457 E33.76412
G1 X86.899 Y56.519 E33.78206
G1 X88.060 Y56.881 E33.84559
G1 X113.668 Y56.881 E35.18346
G1 X113.668 Y57.304 E35.20557
G1 X89.235 Y57.304 E36.48208
G1 X90.352 Y57.727 E36.54450
G1 X113.668 Y57.727 E37.76264
G1 X113.668 Y58.150 E37.78475
G1 X91.469 Y58.150 E38.94450
G1 X92.587 Y58.573 E39.00693
G1 X113.668 Y58.573 E40.10831
G1 X113.668 Y58.996 E40.13041
G1 X93.704 Y58.996 E41.17341
G92 E0
G1 X86.561 Y53.073 F15000.000
G1 F4800
G1 X113.668 Y53.073 E1.41618
G1 X113.668 Y52.649 E1.43829
G1 X88.060 Y52.649 E2.77616
G1 X88.379 Y52.550 E2.79362
G1 X89.235 Y52.226 E2.84139
G1 X113.668 Y52.226 E4.11791
G1 X113.668 Y51.803 E4.14002
G1 X90.352 Y51.803 E5.35815
G1 X91.469 Y51.380 E5.42058
G1 X113.668 Y51.380 E6.58034
G1 X113.668 Y50.957 E6.60244
G1 X92.587 Y50.957 E7.70382
G1 X93.704 Y50.534 E7.76624
G1 X113.668 Y50.534 E8.80924
M106 S255
G1 Z1.200 F15000.000
G1 F4800
G1 X93.704 Y50.534 E9.85224
G1 X92.587 Y50.957 E9.91467
G1 X113.668 Y50.957 E11.01605
G1 X113.668 Y51.380 E11.03815
G1 X91.469 Y51.380 E12.19791
G1 X90.352 Y51.803 E12.26033
G1 X113.668 Y51.803 E13.47847
G1 X113.668 Y52.226 E13.50058
G1 X89.235 Y52.226 E14.77709
G1 X88.379 Y52.550 E14.82487
G1 X88.060 Y52.649 E14.84233
G1 X113.668 Y52.649 E16.18020
G1 X113.668 Y53.073 E16.20230
G1 X86.561 Y53.073 E17.61849
G92 E0
G1 X93.704 Y58.996 F15000.000
G1 F4800
G1 X113.668 Y58.996 E1.04300
G1 X113.668 Y58.573 E1.06511
G1 X92.587 Y58.573 E2.16648
G1 X91.469 Y58.150 E2.22891
G1 X113.668 Y58.150 E3.38866
G1 X113.668 Y57.727 E3.41077
G1 X90.352 Y57.727 E4.62891
G1 X89.235 Y57.304 E4.69133
G1 X113.668 Y57.304 E5.96784
G1 X113.668 Y56.881 E5.98995
G1 X88.060 Y56.881 E7.32782
G1 X86.899 Y56.519 E7.39136
G1 X86.561 Y56.457 E7.40929
G1 X113.668 Y56.457 E8.82548
G1 X113.668 Y56.034 E8.84758
G1 X49.832 Y56.034 E12.18267
G1 X49.832 Y55.611 E12.20477
G1 X113.668 Y55.611 E15.53986
G1 X113.668 Y55.188 E15.56197
G1 X49.832 Y55.188 E18.89705
G1 X49.832 Y54.765 E18.91916
G1 X113.668 Y54.765 E22.25425
G1 X113.668 Y54.342 E22.27635
G1 X49.832 Y54.342 E25.61144
G1 X49.832 Y53.919 E25.63354
G1 X113.668 Y53.919 E28.96863
G1 X113.668 Y53.496 E28.99074
G1 X49.832 Y53.496 E32.32582
G1 X49.832 Y53.073 E32.34793
G1 X76.939 Y53.073 E33.76411
G1 X76.601 Y53.011 E33.78205
G1 X75.440 Y52.649 E33.84559
G1 X49.832 Y52.649 E35.18346
G1 X49.832 Y52.226 E35.20556
G1 X74.265 Y52.226 E36.48208
G1 X73.148 Y51.803 E36.54450
G1 X49.832 Y51.803 E37.76264
G1 X49.832 Y51.380 E37.78474
G1 X72.031 Y51.380 E38.94450
G1 X70.913 Y50.957 E39.00693
G1 X49.832 Y50.957 E40.10831
G1 X49.832 Y50.534 E40.13041
G1 X69.796 Y50.534 E41.17341
G92 E0
G1 X76.939 Y56.457 F15000.000
G1 F4800
G1 X49.832 Y56.457 E1.41618
G1 X49.832 Y56.881 E1.43829
G1 X75.440 Y56.881 E2.77615
G1 X75.121 Y56.980 E2.79361
G1 X74.265 Y57.304 E2.84139
G1 X49.832 Y57.304 E4.11790
G1 X49.832 Y57.727 E4.14001
G1 X73.148 Y57.727 E5.35815
G1 X72.031 Y58.150 E5.42057
G1 X49.832 Y58.150 E6.58033
G1 X49.832 Y58.573 E6.60243
G1 X70.913 Y58.573 E7.70381
G1 X69.796 Y58.996 E7.76623
G1 X49.832 Y58.996 E8.80923
G1 Z1.500 F15000.000
G1 F4800
G1 X69.796 Y58.996 E9.85223
G1 X70.913 Y58.573 E9.91466
G1 X49.832 Y58.573 E11.01603
G1 X49.832 Y58.150 E11.03814
G1 X72.031 Y58.150 E12.19790
G1 X73.148 Y57.727 E12.26032
G1 X49.832 Y57.727 E13.47846
G1 X49.832 Y57.304 E13.50056
G1 X74.265 Y57.304 E14.77708
G1 X75.121 Y56.980 E14.82485
G1 X75.440 Y56.881 E14.84231
G1 X49.832 Y56.881 E16.18018
G1 X49.832 Y56.457 E16.20228
G1 X76.939 Y56.457 E17.61846
G92 E0
G1 X69.796 Y50.534 F15000.000
G1 F4800
G1 X49.832 Y50.534 E1.04300
G1 X49.832 Y50.957 E1.06510
G1 X70.913 Y50.957 E2.16648
G1 X72.031 Y51.380 E2.22891
G1 X49.832 Y51.380 E3.38867
G1 X49.832 Y51.803 E3.41077
G1 X73.148 Y51.803 E4.62891
G1 X74.265 Y52.226 E4.69133
G1 X49.832 Y52.226 E5.96785
G1 X49.832 Y52.649 E5.98995
G1 X75.440 Y52.649 E7.32782
G1 X76.601 Y53.011 E7.39136
G1 X76.939 Y53.073 E7.40930
G1 X49.832 Y53.073 E8.82548
G1 X49.832 Y53.496 E8.84759
G1 X113.668 Y53.496 E12.18267
G1 X113.668 Y53.919 E12.20478
G1 X49.832 Y53.919 E15.53987
G1 X49.832 Y54.342 E15.56197
G1 X113.668 Y54.342 E18.89706
G1 X113.668 Y54.765 E18.91916
G1 X49.832 Y54.765 E22.25425
G1 X49.832 Y55.188 E22.27636
G1 X113.668 Y55.188 E25.61144
G1 X113.668 Y55.611 E25.63355
G1 X49.832 Y55.611 E28.96864
G1 X49.832 Y56.034 E28.99074
G1 X113.668 Y56.034 E32.32583
G1 X113.668 Y56.457 E32.34793
G1 X86.561 Y56.457 E33.76412
G1 X86.899 Y56.519 E33.78206
G1 X88.060 Y56.881 E33.84559
G1 X113.668 Y56.881 E35.18346
G1 X113.668 Y57.304 E35.20557
G1 X89.235 Y57.304 E36.48208
G1 X90.352 Y57.727 E36.54451
G1 X113.668 Y57.727 E37.76264
G1 X113.668 Y58.150 E37.78475
G1 X91.469 Y58.150 E38.94450
G1 X92.587 Y58.573 E39.00693
G1 X113.668 Y58.573 E40.10831
G1 X113.668 Y58.996 E40.13041
G1 X93.704 Y58.996 E41.17341
G92 E0
G1 X86.561 Y53.073 F15000.000
G1 F4800
G1 X113.668 Y53.073 E1.41618
G1 X113.668 Y52.649 E1.43829
G1 X88.060 Y52.649 E2.77616
G1 X88.379 Y52.550 E2.79362
G1 X89.235 Y52.226 E2.84139
G1 X113.668 Y52.226 E4.11791
G1 X113.668 Y51.803 E4.14002
G1 X90.352 Y51.803 E5.35815
G1 X91.469 Y51.380 E5.42058
G1 X113.668 Y51.380 E6.58034
G1 X113.668 Y50.957 E6.60244
G1 X92.587 Y50.957 E7.70382
G1 X93.704 Y50.534 E7.76624
G1 X113.668 Y50.534 E8.80924
G1 Z1.800 F15000.000
G1 F4800
G1 X93.704 Y50.534 E9.85224
G1 X92.587 Y50.957 E9.91467
G1 X113.668 Y50.957 E11.01605
G1 X113.668 Y51.380 E11.03815
G1 X91.469 Y51.380 E12.19791
G1 X90.352 Y51.803 E12.26033
G1 X113.668 Y51.803 E13.47847
G1 X113.668 Y52.226 E13.50058
G1 X89.235 Y52.226 E14.77709
G1 X88.379 Y52.550 E14.82487
G1 X88.060 Y52.649 E14.84233
G1 X113.668 Y52.649 E16.18020
G1 X113.668 Y53.073 E16.20230
G1 X86.561 Y53.073 E17.61849
G92 E0
G1 X93.704 Y58.996 F15000.000
G1 F4800
G1 X113.668 Y58.996 E1.04300
G1 X113.668 Y58.573 E1.06511
G1 X92.587 Y58.573 E2.16648
G1 X91.469 Y58.150 E2.22891
G1 X113.668 Y58.150 E3.38866
G1 X113.668 Y57.727 E3.41077
G1 X90.352 Y57.727 E4.62891
G1 X89.235 Y57.304 E4.69133
G1 X113.668 Y57.304 E5.96784
G1 X113.668 Y56.881 E5.98995
G1 X88.060 Y56.881 E7.32782
G1 X86.899 Y56.519 E7.39136
G1 X86.561 Y56.457 E7.40929
G1 X113.668 Y56.457 E8.82548
G1 X113.668 Y56.034 E8.84758
G1 X49.832 Y56.034 E12.18267
G1 X49.832 Y55.611 E12.20477
G1 X113.668 Y55.611 E15.53986
G1 X113.668 Y55.188 E15.56197
G1 X49.832 Y55.188 E18.89705
G1 X49.832 Y54.765 E18.91916
G1 X113.668 Y54.765 E22.25425
G1 X113.668 Y54.342 E22.27635
G1 X49.832 Y54.342 E25.61144
G1 X49.832 Y53.919 E25.63354
G1 X113.668 Y53.919 E28.96863
G1 X113.668 Y53.496 E28.99074
G1 X49.832 Y53.496 E32.32582
G1 X49.832 Y53.073 E32.34793
G1 X76.939 Y53.073 E33.76411
G1 X76.601 Y53.011 E33.78205
G1 X75.440 Y52.649 E33.84559
G1 X49.832 Y52.649 E35.18346
G1 X49.832 Y52.226 E35.20556
G1 X74.265 Y52.226 E36.48208
G1 X73.148 Y51.803 E36.54450
G1 X49.832 Y51.803 E37.76264
G1 X49.832 Y51.380 E37.78475
G1 X72.031 Y51.380 E38.94450
G1 X70.913 Y50.957 E39.00693
G1 X49.832 Y50.957 E40.10831
G1 X49.832 Y50.534 E40.13041
G1 X69.796 Y50.534 E41.17341
G92 E0
G1 X76.939 Y56.457 F15000.000
G1 F4800
G1 X49.832 Y56.457 E1.41618
G1 X49.832 Y56.881 E1.43829
G1 X75.440 Y56.881 E2.77615
G1 X75.121 Y56.980 E2.79361
G1 X74.265 Y57.304 E2.84139
G1 X49.832 Y57.304 E4.11790
G1 X49.832 Y57.727 E4.14001
G1 X73.148 Y57.727 E5.35815
G1 X72.031 Y58.150 E5.42057
G1 X49.832 Y58.150 E6.58033
G1 X49.832 Y58.573 E6.60243
G1 X70.913 Y58.573 E7.70381
G1 X69.796 Y58.996 E7.76623
G1 X49.832 Y58.996 E8.80923
G1 Z2.100 F15000.000
G1 F4800
G1 X69.796 Y58.996 E9.85223
G1 X70.913 Y58.573 E9.91466
G1 X49.832 Y58.573 E11.01603
G1 X49.832 Y58.150 E11.03814
G1 X72.031 Y58.150 E12.19790
G1 X73.148 Y57.727 E12.26032
G1 X49.832 Y57.727 E13.47846
G1 X49.832 Y57.304 E13.50056
G1 X74.265 Y57.304 E14.77708
G1 X75.121 Y56.980 E14.82485
G1 X75.440 Y56.881 E14.84231
G1 X49.832 Y56.881 E16.18018
G1 X49.832 Y56.457 E16.20228
G1 X76.939 Y56.457 E17.61847
G92 E0
G1 X69.796 Y50.534 F15000.000
G1 F4800
G1 X49.832 Y50.534 E1.04300
G1 X49.832 Y50.957 E1.06510
G1 X70.913 Y50.957 E2.16648
G1 X72.031 Y51.380 E2.22891
G1 X49.832 Y51.380 E3.38867
G1 X49.832 Y51.803 E3.41077
G1 X73.148 Y51.803 E4.62891
G1 X74.265 Y52.226 E4.69133
G1 X49.832 Y52.226 E5.96785
G1 X49.832 Y52.649 E5.98995
G1 X75.440 Y52.649 E7.32782
G1 X76.601 Y53.011 E7.39136
G1 X76.939 Y53.073 E7.40930
G1 X49.832 Y53.073 E8.82548
G1 X49.832 Y53.496 E8.84759
G1 X113.668 Y53.496 E12.18267
G1 X113.668 Y53.919 E12.20478
G1 X49.832 Y53.919 E15.53987
G1 X49.832 Y54.342 E15.56197
G1 X113.668 Y54.342 E18.89706
G1 X113.668 Y54.765 E18.91916
G1 X49.832 Y54.765 E22.25425
G1 X49.832 Y55.188 E22.27636
G1 X113.668 Y55.188 E25.61144
G1 X113.668 Y55.611 E25.63355
G1 X49.832 Y55.611 E28.96864
G1 X49.832 Y56.034 E28.99074
G1 X113.668 Y56.034 E32.32583
G1 X113.668 Y56.457 E32.34793
G1 X86.561 Y56.457 E33.76412
G1 X86.899 Y56.519 E33.78205
G1 X88.060 Y56.881 E33.84559
G1 X113.668 Y56.881 E35.18346
G1 X113.668 Y57.304 E35.20556
G1 X89.235 Y57.304 E36.48208
G1 X90.352 Y57.727 E36.54450
G1 X113.668 Y57.727 E37.76264
G1 X113.668 Y58.150 E37.78474
G1 X91.469 Y58.150 E38.94450
G1 X92.587 Y58.573 E39.00693
G1 X113.668 Y58.573 E40.10830
G1 X113.668 Y58.996 E40.13041
G1 X93.704 Y58.996 E41.17341
G92 E0
G1 X86.561 Y53.073 F15000.000
G1 F4800
G1 X113.668 Y53.073 E1.41618
G1 X113.668 Y52.649 E1.43829
G1 X88.060 Y52.649 E2.77616
G1 X88.379 Y52.550 E2.79362
G1 X89.235 Y52.226 E2.84139
G1 X113.668 Y52.226 E4.11791
G1 X113.668 Y51.803 E4.14002
G1 X90.352 Y51.803 E5.35815
G1 X91.469 Y51.380 E5.42058
G1 X113.668 Y51.380 E6.58034
G1 X113.668 Y50.957 E6.60244
G1 X92.587 Y50.957 E7.70382
G1 X93.704 Y50.534 E7.76624
G1 X113.668 Y50.534 E8.80924
