; generated by Slic3r 1.3.1-dev on 2019-06-17 at 16:31:46

; external perimeters extrusion width = 0.44mm (3.04mm^3/s)
; perimeters extrusion width = 0.40mm (6.04mm^3/s)
; infill extrusion width = 0.48mm (10.05mm^3/s)
; solid infill extrusion width = 0.48mm (3.02mm^3/s)
; top infill extrusion width = 0.45mm (2.22mm^3/s)

M107
M190 S80 ; set bed temperature and wait for it to be reached
M104 S230 ; set temperature
G28 ; home all axes
G1 X150 Y150 Z50 F10000
; Filament gcode

; layer 1

M109 S230 ; set temperature and wait for it to be reached
G21 ; set units to millimeters
G90 ; use absolute coordinates
M82 ; use absolute distances for extrusion
G92 E0
G92 E0
G1 Z0.300 F15000.000
G1 X35.911 Y69.135 F15000.000
G1 F3600
G1 X63.085 Y69.135 E1.81540
G1 X64.203 Y68.712 E1.89522
G1 X35.911 Y68.712 E3.78527
G1 X35.911 Y68.288 E3.81354
G1 X65.320 Y68.288 E5.77824
G1 X66.438 Y67.865 E5.85806
G1 X35.911 Y67.865 E7.89740
G1 X35.911 Y67.442 E7.92567
G1 X67.555 Y67.442 E10.03967
G1 X68.672 Y67.019 E10.11949
G1 X35.911 Y67.019 E12.30813
G1 X35.911 Y66.596 E12.33640
G1 X69.790 Y66.596 E14.59969
G1 X70.907 Y66.173 E14.67951
G1 X35.911 Y66.173 E17.01746
G1 X35.911 Y65.750 E17.04572
G1 X72.191 Y65.750 E19.46944
G1 X73.366 Y65.384 E19.55165
G1 X73.680 Y65.327 E19.57300
G1 X35.911 Y65.327 E22.09622
G1 X35.911 Y64.904 E22.12448
G1 X76.901 Y64.904 E24.86285
G92 E0
G1 X85.450 Y60.672 F15000.000
G1 F3600
G1 X126.440 Y60.672 E2.73837
G1 X126.440 Y60.249 E2.76664
G1 X88.670 Y60.249 E5.28985
G1 X88.985 Y60.192 E5.31120
G1 X90.160 Y59.826 E5.39341
G1 X126.440 Y59.826 E7.81713
G1 X126.440 Y59.403 E7.84540
G1 X91.444 Y59.403 E10.18334
G1 X92.561 Y58.980 E10.26316
G1 X126.440 Y58.980 E12.52646
G1 X126.440 Y58.557 E12.55472
G1 X93.679 Y58.557 E14.74337
G1 X94.796 Y58.134 E14.82319
G1 X126.440 Y58.134 E16.93719
G1 X126.440 Y57.711 E16.96545
G1 X95.913 Y57.711 E19.00480
G1 X97.031 Y57.288 E19.08462
G1 X126.440 Y57.288 E21.04932
G1 X126.440 Y56.864 E21.07759
G1 X98.148 Y56.864 E22.96764
G1 X99.266 Y56.441 E23.04746
G1 X126.440 Y56.441 E24.86286
G92 E0
G1 X99.266 Y69.135 F15000.000
G1 F3600
G1 X126.440 Y69.135 E1.81540
G1 X126.440 Y68.712 E1.84367
G1 X98.148 Y68.712 E3.73371
G1 X97.031 Y68.288 E3.81354
G1 X126.440 Y68.288 E5.77823
G1 X126.440 Y67.865 E5.80650
G1 X95.913 Y67.865 E7.84585
G1 X94.796 Y67.442 E7.92567
G1 X126.440 Y67.442 E10.03966
G1 X126.440 Y67.019 E10.06793
G1 X93.679 Y67.019 E12.25657
G1 X92.561 Y66.596 E12.33640
G1 X126.440 Y66.596 E14.59969
G1 X126.440 Y66.173 E14.62796
G1 X91.444 Y66.173 E16.96590
G1 X91.094 Y66.040 E16.99089
G1 X90.160 Y65.750 E17.05624
G1 X126.440 Y65.750 E19.47996
G1 X126.440 Y65.327 E19.50823
G1 X88.671 Y65.327 E22.03145
G1 X86.806 Y64.985 E22.15809
G1 X85.450 Y64.904 E22.24883
G1 X126.440 Y64.904 E24.98719
G1 X126.440 Y64.480 E25.01546
G1 X35.911 Y64.480 E31.06331
G1 X35.911 Y64.057 E31.09157
G1 X126.440 Y64.057 E37.13942
G1 X126.440 Y63.634 E37.16769
G1 X35.911 Y63.634 E43.21553
G1 X35.911 Y63.211 E43.24380
G1 X126.440 Y63.211 E49.29165
G1 X126.440 Y62.788 E49.31991
G1 X35.911 Y62.788 E55.36776
G1 X35.911 Y62.365 E55.39603
G1 X126.440 Y62.365 E61.44387
G1 X126.440 Y61.942 E61.47214
G1 X35.911 Y61.942 E67.51999
G1 X35.911 Y61.519 E67.54825
G1 X126.440 Y61.519 E73.59610
G1 X126.440 Y61.096 E73.62437
G1 X35.911 Y61.096 E79.67222
G1 X35.911 Y60.672 E79.70048
G1 X76.901 Y60.672 E82.43885
G1 X75.543 Y60.590 E82.52971
G1 X73.681 Y60.249 E82.65624
G1 X35.911 Y60.249 E85.17946
G1 X35.911 Y59.826 E85.20772
G1 X72.191 Y59.826 E87.63144
G1 X71.257 Y59.536 E87.69680
G1 X70.907 Y59.403 E87.72179
G1 X35.911 Y59.403 E90.05973
G1 X35.911 Y58.980 E90.08800
G1 X69.790 Y58.980 E92.35129
G1 X68.672 Y58.557 E92.43112
G1 X35.911 Y58.557 E94.61976
G1 X35.911 Y58.134 E94.64803
G1 X67.555 Y58.134 E96.76202
G1 X66.438 Y57.711 E96.84184
G1 X35.911 Y57.711 E98.88119
G1 X35.911 Y57.288 E98.90946
G1 X65.320 Y57.288 E100.87416
G1 X64.203 Y56.864 E100.95398
G1 X35.911 Y56.864 E102.84403
G1 X35.911 Y56.441 E102.87229
G1 X63.085 Y56.441 E104.68769
M104 S205 ; set temperature
M140 S55 ; set bed temperature
G1 Z0.600 F15000.000
G1 X63.070 Y56.441 F15000.000
G1 F4800
G1 X35.926 Y56.441 E106.10585
G1 X35.926 Y56.864 E106.12796
G1 X64.188 Y56.864 E107.60449
G1 X65.305 Y57.288 E107.66692
G1 X35.926 Y57.288 E109.20184
G1 X35.926 Y57.711 E109.22394
G1 X66.423 Y57.711 E110.81724
G1 X67.540 Y58.134 E110.87966
G1 X35.926 Y58.134 E112.53134
G1 X35.926 Y58.557 E112.55344
G1 X68.657 Y58.557 E114.26350
G1 X69.775 Y58.980 E114.32592
G1 X35.926 Y58.980 E116.09435
G1 X35.926 Y59.403 E116.11646
G1 X70.892 Y59.403 E117.94327
G1 X71.242 Y59.536 E117.96281
G1 X72.176 Y59.826 E118.01393
G1 X35.926 Y59.826 E119.90782
G1 X35.926 Y60.249 E119.92992
G1 X73.666 Y60.249 E121.90163
G1 X75.530 Y60.591 E122.00067
G1 X76.886 Y60.672 E122.07164
G1 X35.926 Y60.672 E124.21160
G1 X35.926 Y61.096 E124.23371
G1 X126.425 Y61.096 E128.96183
G1 X126.425 Y61.519 E128.98394
G1 X35.926 Y61.519 E133.71207
G1 X35.926 Y61.942 E133.73417
G1 X126.425 Y61.942 E138.46230
G1 X126.425 Y62.365 E138.48441
G1 X35.926 Y62.365 E143.21253
G1 X35.926 Y62.788 E143.23464
G1 X126.425 Y62.788 E147.96277
G1 X126.425 Y63.211 E147.98487
G1 X35.926 Y63.211 E152.71300
G1 X35.926 Y63.634 E152.73510
G1 X126.425 Y63.634 E157.46323
G1 X126.425 Y64.057 E157.48534
G1 X35.926 Y64.057 E162.21347
G1 X35.926 Y64.480 E162.23557
G1 X126.425 Y64.480 E166.96370
G1 X126.425 Y64.904 E166.98580
G1 X85.465 Y64.904 E169.12576
G1 X86.821 Y64.985 E169.19672
G1 X88.686 Y65.327 E169.29576
G1 X126.425 Y65.327 E171.26747
G1 X126.425 Y65.750 E171.28957
G1 X90.175 Y65.750 E173.18346
G1 X91.109 Y66.040 E173.23457
G1 X91.459 Y66.173 E173.25412
G1 X126.425 Y66.173 E175.08093
G1 X126.425 Y66.596 E175.10304
G1 X92.576 Y66.596 E176.87147
G1 X93.694 Y67.019 E176.93389
G1 X126.425 Y67.019 E178.64395
G1 X126.425 Y67.442 E178.66605
G1 X94.811 Y67.442 E180.31773
G1 X95.928 Y67.865 E180.38015
G1 X126.425 Y67.865 E181.97345
G1 X126.425 Y68.288 E181.99555
G1 X97.046 Y68.288 E183.53047
G1 X98.163 Y68.712 E183.59289
G1 X126.425 Y68.712 E185.06943
G1 X126.425 Y69.135 E185.09153
G1 X99.281 Y69.135 E186.50969
G92 E0
G1 X85.465 Y60.672 F15000.000
G1 F4800
G1 X126.425 Y60.672 E2.13996
G1 X126.425 Y60.249 E2.16207
G1 X88.685 Y60.249 E4.13377
G1 X89.000 Y60.192 E4.15047
G1 X90.175 Y59.826 E4.21476
G1 X126.425 Y59.826 E6.10866
G1 X126.425 Y59.403 E6.13076
G1 X91.459 Y59.403 E7.95757
G1 X92.576 Y58.980 E8.02000
G1 X126.425 Y58.980 E9.78843
G1 X126.425 Y58.557 E9.81054
G1 X93.694 Y58.557 E11.52059
G1 X94.811 Y58.134 E11.58301
G1 X126.425 Y58.134 E13.23469
G1 X126.425 Y57.711 E13.25679
G1 X95.928 Y57.711 E14.85009
G1 X97.046 Y57.288 E14.91251
G1 X126.425 Y57.288 E16.44743
G1 X126.425 Y56.864 E16.46954
G1 X98.163 Y56.864 E17.94607
G1 X99.281 Y56.441 E18.00850
G1 X126.425 Y56.441 E19.42666
G92 E0
G1 X76.886 Y64.904 F15000.000
G1 F4800
G1 X35.926 Y64.904 E2.13996
G1 X35.926 Y65.327 E2.16207
G1 X73.665 Y65.327 E4.13377
G1 X73.351 Y65.384 E4.15046
G1 X72.176 Y65.750 E4.21476
G1 X35.926 Y65.750 E6.10865
G1 X35.926 Y66.173 E6.13075
G1 X70.892 Y66.173 E7.95757
G1 X69.775 Y66.596 E8.01999
G1 X35.926 Y66.596 E9.78842
G1 X35.926 Y67.019 E9.81053
G1 X68.657 Y67.019 E11.52058
G1 X67.540 Y67.442 E11.58301
G1 X35.926 Y67.442 E13.23468
G1 X35.926 Y67.865 E13.25679
G1 X66.423 Y67.865 E14.85008
G1 X65.305 Y68.288 E14.91251
G1 X35.926 Y68.288 E16.44742
G1 X35.926 Y68.712 E16.46953
G1 X64.188 Y68.712 E17.94607
G1 X63.070 Y69.135 E18.00849
G1 X35.926 Y69.135 E19.42665
G1 Z0.900 F15000.000
G1 F4800
G1 X63.070 Y69.135 E20.84481
G1 X64.188 Y68.712 E20.90723
G1 X35.926 Y68.712 E22.38377
G1 X35.926 Y68.288 E22.40588
G1 X65.305 Y68.288 E23.94079
G1 X66.423 Y67.865 E24.00322
G1 X35.926 Y67.865 E25.59651
G1 X35.926 Y67.442 E25.61862
G1 X67.540 Y67.442 E27.27029
G1 X68.657 Y67.019 E27.33272
G1 X35.926 Y67.019 E29.04277
G1 X35.926 Y66.596 E29.06488
G1 X69.775 Y66.596 E30.83331
G1 X70.892 Y66.173 E30.89573
G1 X35.926 Y66.173 E32.72254
G1 X35.926 Y65.750 E32.74465
G1 X72.176 Y65.750 E34.63854
G1 X73.351 Y65.384 E34.70283
G1 X73.665 Y65.327 E34.71953
G1 X35.926 Y65.327 E36.69123
G1 X35.926 Y64.904 E36.71334
G1 X76.886 Y64.904 E38.85330
G92 E0
G1 X85.465 Y60.672 F15000.000
G1 F4800
G1 X126.425 Y60.672 E2.13996
G1 X126.425 Y60.249 E2.16207
G1 X88.685 Y60.249 E4.13377
G1 X89.000 Y60.192 E4.15047
G1 X90.175 Y59.826 E4.21476
G1 X126.425 Y59.826 E6.10866
G1 X126.425 Y59.403 E6.13076
G1 X91.459 Y59.403 E7.95757
G1 X92.576 Y58.980 E8.02000
G1 X126.425 Y58.980 E9.78843
G1 X126.425 Y58.557 E9.81054
G1 X93.694 Y58.557 E11.52059
G1 X94.811 Y58.134 E11.58301
G1 X126.425 Y58.134 E13.23469
G1 X126.425 Y57.711 E13.25679
G1 X95.928 Y57.711 E14.85009
G1 X97.046 Y57.288 E14.91251
G1 X126.425 Y57.288 E16.44743
G1 X126.425 Y56.864 E16.46954
G1 X98.163 Y56.864 E17.94607
G1 X99.281 Y56.441 E18.00850
G1 X126.425 Y56.441 E19.42666
G92 E0
G1 X99.281 Y69.135 F15000.000
G1 F4800
G1 X126.425 Y69.135 E1.41816
G1 X126.425 Y68.712 E1.44026
G1 X98.163 Y68.712 E2.91680
G1 X97.046 Y68.288 E2.97923
G1 X126.425 Y68.288 E4.51414
G1 X126.425 Y67.865 E4.53625
G1 X95.928 Y67.865 E6.12954
G1 X94.811 Y67.442 E6.19197
G1 X126.425 Y67.442 E7.84364
G1 X126.425 Y67.019 E7.86575
G1 X93.694 Y67.019 E9.57580
G1 X92.576 Y66.596 E9.63822
G1 X126.425 Y66.596 E11.40666
G1 X126.425 Y66.173 E11.42876
G1 X91.459 Y66.173 E13.25557
G1 X91.109 Y66.040 E13.27512
G1 X90.175 Y65.750 E13.32623
G1 X126.425 Y65.750 E15.22012
G1 X126.425 Y65.327 E15.24223
G1 X88.686 Y65.327 E17.21393
G1 X86.821 Y64.985 E17.31297
G1 X85.465 Y64.904 E17.38393
G1 X126.425 Y64.904 E19.52389
G1 X126.425 Y64.480 E19.54600
G1 X35.926 Y64.480 E24.27412
G1 X35.926 Y64.057 E24.29623
G1 X126.425 Y64.057 E29.02436
G1 X126.425 Y63.634 E29.04646
G1 X35.926 Y63.634 E33.77459
G1 X35.926 Y63.211 E33.79670
G1 X126.425 Y63.211 E38.52482
G1 X126.425 Y62.788 E38.54693
G1 X35.926 Y62.788 E43.27506
G1 X35.926 Y62.365 E43.29716
G1 X126.425 Y62.365 E48.02529
G1 X126.425 Y61.942 E48.04740
G1 X35.926 Y61.942 E52.77552
G1 X35.926 Y61.519 E52.79763
G1 X126.425 Y61.519 E57.52576
G1 X126.425 Y61.096 E57.54786
G1 X35.926 Y61.096 E62.27599
G1 X35.926 Y60.672 E62.29809
G1 X76.886 Y60.672 E64.43806
G1 X75.530 Y60.591 E64.50903
G1 X73.666 Y60.249 E64.60806
G1 X35.926 Y60.249 E66.57977
G1 X35.926 Y59.826 E66.60187
G1 X72.176 Y59.826 E68.49577
G1 X71.242 Y59.536 E68.54688
G1 X70.892 Y59.403 E68.56642
G1 X35.926 Y59.403 E70.39324
G1 X35.926 Y58.980 E70.41534
G1 X69.775 Y58.980 E72.18377
G1 X68.657 Y58.557 E72.24620
G1 X35.926 Y58.557 E73.95625
G1 X35.926 Y58.134 E73.97836
G1 X67.540 Y58.134 E75.63003
G1 X66.423 Y57.711 E75.69246
G1 X35.926 Y57.711 E77.28575
G1 X35.926 Y57.288 E77.30786
G1 X65.305 Y57.288 E78.84278
G1 X64.188 Y56.864 E78.90520
G1 X35.926 Y56.864 E80.38174
G1 X35.926 Y56.441 E80.40384
G1 X63.070 Y56.441 E81.82200
M106 S255
G1 Z1.200 F15000.000
G1 F4800
G1 X35.926 Y56.441 E83.24016
G1 X35.926 Y56.864 E83.26227
G1 X64.188 Y56.864 E84.73880
G1 X65.305 Y57.288 E84.80123
G1 X35.926 Y57.288 E86.33614
G1 X35.926 Y57.711 E86.35825
G1 X66.423 Y57.711 E87.95155
G1 X67.540 Y58.134 E88.01397
G1 X35.926 Y58.134 E89.66564
G1 X35.926 Y58.557 E89.68775
G1 X68.657 Y58.557 E91.39780
G1 X69.775 Y58.980 E91.46023
G1 X35.926 Y58.980 E93.22866
G1 X35.926 Y59.403 E93.25077
G1 X70.892 Y59.403 E95.07758
G1 X71.242 Y59.536 E95.09712
G1 X72.176 Y59.826 E95.14823
G1 X35.926 Y59.826 E97.04213
G1 X35.926 Y60.249 E97.06423
G1 X73.666 Y60.249 E99.03594
G1 X75.530 Y60.591 E99.13498
G1 X76.886 Y60.672 E99.20595
G1 X35.926 Y60.672 E101.34591
G1 X35.926 Y61.096 E101.36802
G1 X126.425 Y61.096 E106.09614
G1 X126.425 Y61.519 E106.11825
G1 X35.926 Y61.519 E110.84638
G1 X35.926 Y61.942 E110.86848
G1 X126.425 Y61.942 E115.59661
G1 X126.425 Y62.365 E115.61872
G1 X35.926 Y62.365 E120.34684
G1 X35.926 Y62.788 E120.36895
G1 X126.425 Y62.788 E125.09708
G1 X126.425 Y63.211 E125.11918
G1 X35.926 Y63.211 E129.84731
G1 X35.926 Y63.634 E129.86941
G1 X126.425 Y63.634 E134.59754
G1 X126.425 Y64.057 E134.61965
G1 X35.926 Y64.057 E139.34777
G1 X35.926 Y64.480 E139.36988
G1 X126.425 Y64.480 E144.09801
G1 X126.425 Y64.904 E144.12011
G1 X85.465 Y64.904 E146.26007
G1 X86.821 Y64.985 E146.33103
G1 X88.686 Y65.327 E146.43007
G1 X126.425 Y65.327 E148.40178
G1 X126.425 Y65.750 E148.42388
G1 X90.175 Y65.750 E150.31777
G1 X91.109 Y66.040 E150.36889
G1 X91.459 Y66.173 E150.38843
G1 X126.425 Y66.173 E152.21524
G1 X126.425 Y66.596 E152.23735
G1 X92.576 Y66.596 E154.00578
G1 X93.694 Y67.019 E154.06820
G1 X126.425 Y67.019 E155.77826
G1 X126.425 Y67.442 E155.80036
G1 X94.811 Y67.442 E157.45204
G1 X95.928 Y67.865 E157.51446
G1 X126.425 Y67.865 E159.10776
G1 X126.425 Y68.288 E159.12986
G1 X97.046 Y68.288 E160.66478
G1 X98.163 Y68.712 E160.72720
G1 X126.425 Y68.712 E162.20374
G1 X126.425 Y69.135 E162.22584
G1 X99.281 Y69.135 E163.64400
G92 E0
G1 X85.465 Y60.672 F15000.000
G1 F4800
G1 X126.425 Y60.672 E2.13996
G1 X126.425 Y60.249 E2.16207
G1 X88.685 Y60.249 E4.13377
G1 X89.000 Y60.192 E4.15047
G1 X90.175 Y59.826 E4.21476
G1 X126.425 Y59.826 E6.10866
G1 X126.425 Y59.403 E6.13076
G1 X91.459 Y59.403 E7.95757
G1 X92.576 Y58.980 E8.02000
G1 X126.425 Y58.980 E9.78843
G1 X126.425 Y58.557 E9.81054
G1 X93.694 Y58.557 E11.52059
G1 X94.811 Y58.134 E11.58301
G1 X126.425 Y58.134 E13.23469
G1 X126.425 Y57.711 E13.25679
G1 X95.928 Y57.711 E14.85009
G1 X97.046 Y57.288 E14.91251
G1 X126.425 Y57.288 E16.44743
G1 X126.425 Y56.864 E16.46954
G1 X98.163 Y56.864 E17.94607
G1 X99.281 Y56.441 E18.00850
G1 X126.425 Y56.441 E19.42666
G92 E0
G1 X76.886 Y64.904 F15000.000
G1 F4800
G1 X35.926 Y64.904 E2.13996
G1 X35.926 Y65.327 E2.16207
G1 X73.665 Y65.327 E4.13377
G1 X73.351 Y65.384 E4.15046
G1 X72.176 Y65.750 E4.21476
G1 X35.926 Y65.750 E6.10865
G1 X35.926 Y66.173 E6.13075
G1 X70.892 Y66.173 E7.95757
G1 X69.775 Y66.596 E8.01999
G1 X35.926 Y66.596 E9.78842
G1 X35.926 Y67.019 E9.81053
G1 X68.657 Y67.019 E11.52058
G1 X67.540 Y67.442 E11.58301
G1 X35.926 Y67.442 E13.23468
G1 X35.926 Y67.865 E13.25679
G1 X66.423 Y67.865 E14.85008
G1 X65.305 Y68.288 E14.91251
G1 X35.926 Y68.288 E16.44742
G1 X35.926 Y68.712 E16.46953
G1 X64.188 Y68.712 E17.94607
G1 X63.070 Y69.135 E18.00849
G1 X35.926 Y69.135 E19.42665
G1 Z1.500 F15000.000
G1 F4800
G1 X63.070 Y69.135 E20.84481
G1 X64.188 Y68.712 E20.90723
G1 X35.926 Y68.712 E22.38377
G1 X35.926 Y68.288 E22.40588
G1 X65.305 Y68.288 E23.94079
G1 X66.423 Y67.865 E24.00322
G1 X35.926 Y67.865 E25.59651
G1 X35.926 Y67.442 E25.61862
G1 X67.540 Y67.442 E27.27029
G1 X68.657 Y67.019 E27.33272
G1 X35.926 Y67.019 E29.04277
G1 X35.926 Y66.596 E29.06488
G1 X69.775 Y66.596 E30.83331
G1 X70.892 Y66.173 E30.89573
G1 X35.926 Y66.173 E32.72255
G1 X35.926 Y65.750 E32.74465
G1 X72.176 Y65.750 E34.63854
G1 X73.351 Y65.384 E34.70284
G1 X73.665 Y65.327 E34.71953
G1 X35.926 Y65.327 E36.69123
G1 X35.926 Y64.904 E36.71334
G1 X76.886 Y64.904 E38.85330
G92 E0
G1 X85.465 Y60.672 F15000.000
G1 F4800
G1 X126.425 Y60.672 E2.13996
G1 X126.425 Y60.249 E2.16207
G1 X88.685 Y60.249 E4.13377
G1 X89.000 Y60.192 E4.15047
G1 X90.175 Y59.826 E4.21476
G1 X126.425 Y59.826 E6.10866
G1 X126.425 Y59.403 E6.13076
G1 X91.459 Y59.403 E7.95757
G1 X92.576 Y58.980 E8.02000
G1 X126.425 Y58.980 E9.78843
G1 X126.425 Y58.557 E9.81053
G1 X93.694 Y58.557 E11.52059
G1 X94.811 Y58.134 E11.58301
G1 X126.425 Y58.134 E13.23469
G1 X126.425 Y57.711 E13.25679
G1 X95.928 Y57.711 E14.85009
G1 X97.046 Y57.288 E14.91251
G1 X126.425 Y57.288 E16.44743
G1 X126.425 Y56.864 E16.46954
G1 X98.163 Y56.864 E17.94607
G1 X99.281 Y56.441 E18.00850
G1 X126.425 Y56.441 E19.42666
G92 E0
G1 X99.281 Y69.135 F15000.000
G1 F4800
G1 X126.425 Y69.135 E1.41816
G1 X126.425 Y68.712 E1.44026
G1 X98.163 Y68.712 E2.91680
G1 X97.046 Y68.288 E2.97923
G1 X126.425 Y68.288 E4.51414
G1 X126.425 Y67.865 E4.53625
G1 X95.928 Y67.865 E6.12954
G1 X94.811 Y67.442 E6.19197
G1 X126.425 Y67.442 E7.84364
G1 X126.425 Y67.019 E7.86575
G1 X93.694 Y67.019 E9.57580
G1 X92.576 Y66.596 E9.63822
G1 X126.425 Y66.596 E11.40666
G1 X126.425 Y66.173 E11.42876
G1 X91.459 Y66.173 E13.25557
G1 X91.109 Y66.040 E13.27512
G1 X90.175 Y65.750 E13.32623
G1 X126.425 Y65.750 E15.22012
