; generated by Slic3r 1.3.1-dev on 2019-06-17 at 17:20:29

; external perimeters extrusion width = 0.44mm (3.04mm^3/s)
; perimeters extrusion width = 0.40mm (6.04mm^3/s)
; infill extrusion width = 0.48mm (10.05mm^3/s)
; solid infill extrusion width = 0.48mm (3.02mm^3/s)
; top infill extrusion width = 0.45mm (2.22mm^3/s)

M107
M190 S80 ; set bed temperature and wait for it to be reached
M104 S230 ; set temperature
G28 ; home all axes
G1 X150 Y150 Z50 F10000
; Filament gcode
; layer 1
M109 S230 ; set temperature and wait for it to be reached
G21 ; set units to millimeters
G90 ; use absolute coordinates
M82 ; use absolute distances for extrusion
G92 E0
G92 E0
G1 Z0.300 F15000.000
G1 X40.613 Y60.689 F15000.000
G1 F3600
G1 X64.851 Y60.689 E1.61922
G1 X65.968 Y60.265 E1.69905
G1 X40.613 Y60.265 E3.39292
G1 X40.613 Y59.842 E3.42119
G1 X67.086 Y59.842 E5.18971
G1 X68.203 Y59.419 E5.26953
G1 X40.613 Y59.419 E7.11270
G1 X40.613 Y58.996 E7.14097
G1 X69.320 Y58.996 E9.05879
G1 X70.438 Y58.573 E9.13861
G1 X40.613 Y58.573 E11.13108
G1 X40.613 Y58.150 E11.15935
G1 X71.555 Y58.150 E13.22647
G1 X72.673 Y57.727 E13.30629
G1 X40.613 Y57.727 E15.44806
G1 X40.613 Y57.304 E15.47632
G1 X74.019 Y57.304 E17.70806
G1 X74.653 Y57.107 E17.75236
G1 X75.888 Y56.881 E17.83627
G1 X40.613 Y56.881 E20.19285
G1 X40.613 Y56.457 E20.22112
G1 X122.887 Y56.457 E25.71749
G1 X122.887 Y56.034 E25.74575
G1 X40.613 Y56.034 E31.24212
G1 X40.613 Y55.611 E31.27039
G1 X122.887 Y55.611 E36.76676
G1 X122.887 Y55.188 E36.79502
G1 X40.613 Y55.188 E42.29139
G1 X40.613 Y54.765 E42.31966
G1 X122.887 Y54.765 E47.81603
G1 X122.887 Y54.342 E47.84429
G1 X40.613 Y54.342 E53.34066
G1 X40.613 Y53.919 E53.36893
G1 X122.887 Y53.919 E58.86530
G1 X122.887 Y53.496 E58.89356
G1 X40.613 Y53.496 E64.38993
G1 X40.613 Y53.073 E64.41820
G1 X122.887 Y53.073 E69.91457
G1 X122.887 Y52.649 E69.94283
G1 X87.612 Y52.649 E72.29941
G1 X88.847 Y52.423 E72.38333
G1 X89.481 Y52.226 E72.42763
G1 X122.887 Y52.226 E74.65936
G1 X122.887 Y51.803 E74.68763
G1 X90.827 Y51.803 E76.82940
G1 X91.945 Y51.380 E76.90922
G1 X122.887 Y51.380 E78.97634
G1 X122.887 Y50.957 E79.00460
G1 X93.062 Y50.957 E80.99707
G1 X94.180 Y50.534 E81.07689
G1 X122.887 Y50.534 E82.99471
G1 X122.887 Y50.111 E83.02298
G1 X95.297 Y50.111 E84.86615
G1 X96.414 Y49.688 E84.94597
G1 X122.887 Y49.688 E86.71449
G1 X122.887 Y49.265 E86.74276
G1 X97.532 Y49.265 E88.43663
G1 X98.649 Y48.841 E88.51645
G1 X122.887 Y48.841 E90.13568
G92 E0
G1 X122.887 Y56.881 F15000.000
G1 F3600
G1 X87.612 Y56.881 E2.35658
G1 X88.847 Y57.107 E2.44049
G1 X89.481 Y57.304 E2.48480
G1 X122.887 Y57.304 E4.71653
G1 X122.887 Y57.727 E4.74479
G1 X90.827 Y57.727 E6.88656
G1 X91.945 Y58.150 E6.96638
G1 X122.887 Y58.150 E9.03350
G1 X122.887 Y58.573 E9.06177
G1 X93.062 Y58.573 E11.05424
G1 X94.180 Y58.996 E11.13406
G1 X122.887 Y58.996 E13.05188
G1 X122.887 Y59.419 E13.08014
G1 X95.297 Y59.419 E14.92332
G1 X96.414 Y59.842 E15.00314
G1 X122.887 Y59.842 E16.77166
G1 X122.887 Y60.265 E16.79992
G1 X97.532 Y60.265 E18.49380
G1 X98.649 Y60.689 E18.57362
G1 X122.887 Y60.689 E20.19284
G1 X122.887 Y60.750 E20.19695
G1 X98.955 Y60.750 E21.79576
G1 X98.792 Y60.689 E21.80736
G92 E0
G1 X87.755 Y52.649 F15000.000
G1 F3600
G1 X87.007 Y52.786 E0.05077
G1 X85.001 Y52.907 E0.18504
G1 X78.642 Y52.907 E0.60988
G1 X76.636 Y52.786 E0.74415
G1 X75.888 Y52.649 E0.79492
G1 X40.613 Y52.649 E3.15150
G1 X40.613 Y52.226 E3.17977
G1 X74.019 Y52.226 E5.41150
G1 X72.673 Y51.803 E5.50580
G1 X40.613 Y51.803 E7.64757
G1 X40.613 Y51.380 E7.67584
G1 X71.555 Y51.380 E9.74296
G1 X70.438 Y50.957 E9.82278
G1 X40.613 Y50.957 E11.81525
G1 X40.613 Y50.534 E11.84351
G1 X69.320 Y50.534 E13.76133
G1 X68.203 Y50.111 E13.84115
G1 X40.613 Y50.111 E15.68433
G1 X40.613 Y49.688 E15.71259
G1 X67.086 Y49.688 E17.48111
G1 X65.968 Y49.265 E17.56094
G1 X40.613 Y49.265 E19.25481
G1 X40.613 Y48.841 E19.28307
G1 X64.851 Y48.841 E20.90230
M104 S205 ; set temperature
M140 S55 ; set bed temperature
G1 Z0.600 F15000.000
G1 X64.836 Y48.841 F15000.000
G1 F4800
G1 X40.628 Y48.841 E22.16704
G1 X40.628 Y49.265 E22.18914
G1 X65.953 Y49.265 E23.51226
G1 X67.071 Y49.688 E23.57469
G1 X40.628 Y49.688 E24.95619
G1 X40.628 Y50.111 E24.97829
G1 X68.188 Y50.111 E26.41817
G1 X69.305 Y50.534 E26.48059
G1 X40.628 Y50.534 E27.97885
G1 X40.628 Y50.957 E28.00095
G1 X70.423 Y50.957 E29.55759
G1 X71.540 Y51.380 E29.62001
G1 X40.628 Y51.380 E31.23503
G1 X40.628 Y51.803 E31.25713
G1 X72.658 Y51.803 E32.93053
G1 X74.004 Y52.226 E33.00427
G1 X40.628 Y52.226 E34.74803
G1 X40.628 Y52.649 E34.77013
G1 X75.873 Y52.649 E36.61152
G1 X76.621 Y52.786 E36.65123
G1 X78.627 Y52.907 E36.75623
G1 X84.986 Y52.907 E37.08847
G1 X86.992 Y52.786 E37.19348
G1 X87.740 Y52.649 E37.23318
G92 E0
G1 X98.777 Y60.689 F15000.000
G1 F4800
G1 X98.940 Y60.750 E0.00908
G1 X122.872 Y60.750 E1.25942
G1 X122.872 Y60.689 E1.26263
G1 X98.664 Y60.689 E2.52737
G1 X97.547 Y60.265 E2.58979
G1 X122.872 Y60.265 E3.91291
G1 X122.872 Y59.842 E3.93502
G1 X96.429 Y59.842 E5.31652
G1 X95.312 Y59.419 E5.37894
G1 X122.872 Y59.419 E6.81882
G1 X122.872 Y58.996 E6.84092
G1 X94.195 Y58.996 E8.33918
G1 X93.077 Y58.573 E8.40160
G1 X122.872 Y58.573 E9.95824
G1 X122.872 Y58.150 E9.98034
G1 X91.960 Y58.150 E11.59536
G1 X90.842 Y57.727 E11.65778
G1 X122.872 Y57.727 E13.33118
G1 X122.872 Y57.304 E13.35328
G1 X89.496 Y57.304 E15.09703
G1 X88.862 Y57.107 E15.13168
G1 X87.627 Y56.881 E15.19730
G1 X122.872 Y56.881 E17.03869
G92 E0
G1 X122.872 Y48.841 F15000.000
G1 F4800
G1 X98.664 Y48.841 E1.26474
G1 X97.547 Y49.265 E1.32716
G1 X122.872 Y49.265 E2.65028
G1 X122.872 Y49.688 E2.67239
G1 X96.429 Y49.688 E4.05389
G1 X95.312 Y50.111 E4.11631
G1 X122.872 Y50.111 E5.55619
G1 X122.872 Y50.534 E5.57829
G1 X94.195 Y50.534 E7.07655
G1 X93.077 Y50.957 E7.13897
G1 X122.872 Y50.957 E8.69561
G1 X122.872 Y51.380 E8.71771
G1 X91.960 Y51.380 E10.33273
G1 X90.842 Y51.803 E10.39515
G1 X122.872 Y51.803 E12.06854
G1 X122.872 Y52.226 E12.09065
G1 X89.496 Y52.226 E13.83440
G1 X88.862 Y52.423 E13.86905
G1 X87.627 Y52.649 E13.93467
G1 X122.872 Y52.649 E15.77606
G1 X122.872 Y53.073 E15.79816
G1 X40.628 Y53.073 E20.09501
G1 X40.628 Y53.496 E20.11711
G1 X122.872 Y53.496 E24.41396
G1 X122.872 Y53.919 E24.43607
G1 X40.628 Y53.919 E28.73291
G1 X40.628 Y54.342 E28.75502
G1 X122.872 Y54.342 E33.05186
G1 X122.872 Y54.765 E33.07397
G1 X40.628 Y54.765 E37.37081
G1 X40.628 Y55.188 E37.39292
G1 X122.872 Y55.188 E41.68976
G1 X122.872 Y55.611 E41.71187
G1 X40.628 Y55.611 E46.00872
G1 X40.628 Y56.034 E46.03082
G1 X122.872 Y56.034 E50.32767
G1 X122.872 Y56.457 E50.34977
G1 X40.628 Y56.457 E54.64662
G1 X40.628 Y56.881 E54.66872
G1 X75.873 Y56.881 E56.51011
G1 X74.638 Y57.107 E56.57573
G1 X74.004 Y57.304 E56.61038
G1 X40.628 Y57.304 E58.35413
G1 X40.628 Y57.727 E58.37624
G1 X72.658 Y57.727 E60.04963
G1 X71.540 Y58.150 E60.11206
G1 X40.628 Y58.150 E61.72707
G1 X40.628 Y58.573 E61.74918
G1 X70.423 Y58.573 E63.30581
G1 X69.305 Y58.996 E63.36824
G1 X40.628 Y58.996 E64.86649
G1 X40.628 Y59.419 E64.88860
G1 X68.188 Y59.419 E66.32848
G1 X67.071 Y59.842 E66.39090
G1 X40.628 Y59.842 E67.77240
G1 X40.628 Y60.265 E67.79450
G1 X65.953 Y60.265 E69.11762
G1 X64.836 Y60.689 E69.18005
G1 X40.628 Y60.689 E70.44479
G1 Z0.900 F15000.000
G1 F4800
G1 X64.836 Y60.689 E71.70953
G1 X65.953 Y60.265 E71.77195
G1 X40.628 Y60.265 E73.09507
G1 X40.628 Y59.842 E73.11718
G1 X67.071 Y59.842 E74.49868
G1 X68.188 Y59.419 E74.56110
G1 X40.628 Y59.419 E76.00098
G1 X40.628 Y58.996 E76.02308
G1 X69.305 Y58.996 E77.52134
G1 X70.423 Y58.573 E77.58377
G1 X40.628 Y58.573 E79.14040
G1 X40.628 Y58.150 E79.16251
G1 X71.540 Y58.150 E80.77752
G1 X72.658 Y57.727 E80.83995
G1 X40.628 Y57.727 E82.51334
G1 X40.628 Y57.304 E82.53545
G1 X74.004 Y57.304 E84.27920
G1 X74.638 Y57.107 E84.31384
G1 X75.873 Y56.881 E84.37947
G1 X40.628 Y56.881 E86.22085
G1 X40.628 Y56.457 E86.24296
G1 X122.872 Y56.457 E90.53980
G1 X122.872 Y56.034 E90.56191
G1 X40.628 Y56.034 E94.85876
G1 X40.628 Y55.611 E94.88086
G1 X122.872 Y55.611 E99.17771
G1 X122.872 Y55.188 E99.19981
G1 X40.628 Y55.188 E103.49666
G1 X40.628 Y54.765 E103.51876
G1 X122.872 Y54.765 E107.81561
G1 X122.872 Y54.342 E107.83772
G1 X40.628 Y54.342 E112.13456
G1 X40.628 Y53.919 E112.15667
G1 X122.872 Y53.919 E116.45351
G1 X122.872 Y53.496 E116.47562
G1 X40.628 Y53.496 E120.77246
G1 X40.628 Y53.073 E120.79457
G1 X122.872 Y53.073 E125.09141
G1 X122.872 Y52.649 E125.11352
G1 X87.627 Y52.649 E126.95491
G1 X88.862 Y52.423 E127.02053
G1 X89.496 Y52.226 E127.05518
G1 X122.872 Y52.226 E128.79893
G1 X122.872 Y51.803 E128.82103
G1 X90.842 Y51.803 E130.49443
G1 X91.960 Y51.380 E130.55685
G1 X122.872 Y51.380 E132.17187
G1 X122.872 Y50.957 E132.19397
G1 X93.077 Y50.957 E133.75061
G1 X94.195 Y50.534 E133.81303
G1 X122.872 Y50.534 E135.31129
G1 X122.872 Y50.111 E135.33339
G1 X95.312 Y50.111 E136.77327
G1 X96.429 Y49.688 E136.83569
G1 X122.872 Y49.688 E138.21719
G1 X122.872 Y49.265 E138.23930
G1 X97.547 Y49.265 E139.56241
G1 X98.664 Y48.841 E139.62484
G1 X122.872 Y48.841 E140.88958
G92 E0
G1 X122.872 Y56.881 F15000.000
G1 F4800
G1 X87.627 Y56.881 E1.84139
G1 X88.862 Y57.107 E1.90701
G1 X89.496 Y57.304 E1.94166
G1 X122.872 Y57.304 E3.68541
G1 X122.872 Y57.727 E3.70751
G1 X90.842 Y57.727 E5.38091
G1 X91.960 Y58.150 E5.44333
G1 X122.872 Y58.150 E7.05834
G1 X122.872 Y58.573 E7.08045
G1 X93.077 Y58.573 E8.63708
G1 X94.195 Y58.996 E8.69951
G1 X122.872 Y58.996 E10.19776
G1 X122.872 Y59.419 E10.21987
G1 X95.312 Y59.419 E11.65975
G1 X96.429 Y59.842 E11.72217
G1 X122.872 Y59.842 E13.10367
G1 X122.872 Y60.265 E13.12577
G1 X97.547 Y60.265 E14.44889
G1 X98.664 Y60.689 E14.51132
G1 X122.872 Y60.689 E15.77606
G1 X122.872 Y60.750 E15.77927
G1 X98.940 Y60.750 E17.02961
G1 X98.777 Y60.689 E17.03869
G92 E0
G1 X87.740 Y52.649 F15000.000
G1 F4800
G1 X86.992 Y52.786 E0.03971
G1 X84.986 Y52.907 E0.14471
G1 X78.627 Y52.907 E0.47696
G1 X76.621 Y52.786 E0.58195
G1 X75.873 Y52.649 E0.62167
G1 X40.628 Y52.649 E2.46305
G1 X40.628 Y52.226 E2.48516
G1 X74.004 Y52.226 E4.22891
G1 X72.658 Y51.803 E4.30266
G1 X40.628 Y51.803 E5.97605
G1 X40.628 Y51.380 E5.99816
G1 X71.540 Y51.380 E7.61317
G1 X70.423 Y50.957 E7.67559
G1 X40.628 Y50.957 E9.23223
G1 X40.628 Y50.534 E9.25433
G1 X69.305 Y50.534 E10.75259
G1 X68.188 Y50.111 E10.81501
G1 X40.628 Y50.111 E12.25489
G1 X40.628 Y49.688 E12.27700
G1 X67.071 Y49.688 E13.65850
G1 X65.953 Y49.265 E13.72092
G1 X40.628 Y49.265 E15.04404
G1 X40.628 Y48.841 E15.06614
G1 X64.836 Y48.841 E16.33088
M106 S255
G1 Z1.200 F15000.000
G1 X64.836 Y48.841 F15000.000
G1 F4800
G1 X40.628 Y48.841 E17.59562
G1 X40.628 Y49.265 E17.61773
G1 X65.953 Y49.265 E18.94085
G1 X67.071 Y49.688 E19.00327
G1 X40.628 Y49.688 E20.38477
G1 X40.628 Y50.111 E20.40688
G1 X68.188 Y50.111 E21.84675
G1 X69.305 Y50.534 E21.90918
G1 X40.628 Y50.534 E23.40743
G1 X40.628 Y50.957 E23.42954
G1 X70.423 Y50.957 E24.98618
G1 X71.540 Y51.380 E25.04860
G1 X40.628 Y51.380 E26.66361
G1 X40.628 Y51.803 E26.68572
G1 X72.658 Y51.803 E28.35911
G1 X74.004 Y52.226 E28.43286
G1 X40.628 Y52.226 E30.17661
G1 X40.628 Y52.649 E30.19872
G1 X75.873 Y52.649 E32.04010
G1 X76.621 Y52.786 E32.07981
G1 X78.627 Y52.907 E32.18481
G1 X84.986 Y52.907 E32.51706
G1 X86.992 Y52.786 E32.62206
G1 X87.740 Y52.649 E32.66177
G92 E0
G1 X98.777 Y60.689 F15000.000
G1 F4800
G1 X98.940 Y60.750 E0.00908
G1 X122.872 Y60.750 E1.25942
G1 X122.872 Y60.689 E1.26263
G1 X98.664 Y60.689 E2.52737
G1 X97.547 Y60.265 E2.58979
G1 X122.872 Y60.265 E3.91291
G1 X122.872 Y59.842 E3.93502
G1 X96.429 Y59.842 E5.31652
G1 X95.312 Y59.419 E5.37894
G1 X122.872 Y59.419 E6.81882
G1 X122.872 Y58.996 E6.84092
G1 X94.195 Y58.996 E8.33918
G1 X93.077 Y58.573 E8.40160
G1 X122.872 Y58.573 E9.95824
G1 X122.872 Y58.150 E9.98034
G1 X91.960 Y58.150 E11.59536
G1 X90.842 Y57.727 E11.65778
G1 X122.872 Y57.727 E13.33118
G1 X122.872 Y57.304 E13.35328
G1 X89.496 Y57.304 E15.09703
G1 X88.862 Y57.107 E15.13168
G1 X87.627 Y56.881 E15.19730
G1 X122.872 Y56.881 E17.03869
G92 E0
G1 X122.872 Y48.841 F15000.000
G1 F4800
G1 X98.664 Y48.841 E1.26474
G1 X97.547 Y49.265 E1.32716
G1 X122.872 Y49.265 E2.65028
G1 X122.872 Y49.688 E2.67239
G1 X96.429 Y49.688 E4.05389
G1 X95.312 Y50.111 E4.11631
G1 X122.872 Y50.111 E5.55619
G1 X122.872 Y50.534 E5.57829
G1 X94.195 Y50.534 E7.07655
G1 X93.077 Y50.957 E7.13897
G1 X122.872 Y50.957 E8.69561
G1 X122.872 Y51.380 E8.71771
G1 X91.960 Y51.380 E10.33273
G1 X90.842 Y51.803 E10.39515
G1 X122.872 Y51.803 E12.06854
G1 X122.872 Y52.226 E12.09065
G1 X89.496 Y52.226 E13.83440
G1 X88.862 Y52.423 E13.86905
G1 X87.627 Y52.649 E13.93467
G1 X122.872 Y52.649 E15.77606
G1 X122.872 Y53.073 E15.79816
G1 X40.628 Y53.073 E20.09501
G1 X40.628 Y53.496 E20.11711
G1 X122.872 Y53.496 E24.41396
G1 X122.872 Y53.919 E24.43607
G1 X40.628 Y53.919 E28.73291
G1 X40.628 Y54.342 E28.75502
G1 X122.872 Y54.342 E33.05186
G1 X122.872 Y54.765 E33.07397
G1 X40.628 Y54.765 E37.37081
G1 X40.628 Y55.188 E37.39292
G1 X122.872 Y55.188 E41.68976
G1 X122.872 Y55.611 E41.71187
G1 X40.628 Y55.611 E46.00872
G1 X40.628 Y56.034 E46.03082
G1 X122.872 Y56.034 E50.32767
G1 X122.872 Y56.457 E50.34977
G1 X40.628 Y56.457 E54.64662
G1 X40.628 Y56.881 E54.66872
G1 X75.873 Y56.881 E56.51011
G1 X74.638 Y57.107 E56.57573
G1 X74.004 Y57.304 E56.61038
G1 X40.628 Y57.304 E58.35413
G1 X40.628 Y57.727 E58.37624
G1 X72.658 Y57.727 E60.04963
G1 X71.540 Y58.150 E60.11206
G1 X40.628 Y58.150 E61.72707
G1 X40.628 Y58.573 E61.74918
G1 X70.423 Y58.573 E63.30581
G1 X69.305 Y58.996 E63.36824
G1 X40.628 Y58.996 E64.86649
G1 X40.628 Y59.419 E64.88860
G1 X68.188 Y59.419 E66.32848
G1 X67.071 Y59.842 E66.39090
G1 X40.628 Y59.842 E67.77240
G1 X40.628 Y60.265 E67.79450
G1 X65.953 Y60.265 E69.11762
G1 X64.836 Y60.689 E69.18005
G1 X40.628 Y60.689 E70.44479
G1 Z1.500 F15000.000
G1 F4800
G1 X64.836 Y60.689 E71.70953
G1 X65.953 Y60.265 E71.77195
G1 X40.628 Y60.265 E73.09507
G1 X40.628 Y59.842 E73.11718
G1 X67.071 Y59.842 E74.49868
G1 X68.188 Y59.419 E74.56110
G1 X40.628 Y59.419 E76.00098
G1 X40.628 Y58.996 E76.02308
G1 X69.305 Y58.996 E77.52134
G1 X70.423 Y58.573 E77.58376
G1 X40.628 Y58.573 E79.14040
G1 X40.628 Y58.150 E79.16251
G1 X71.540 Y58.150 E80.77752
G1 X72.658 Y57.727 E80.83994
G1 X40.628 Y57.727 E82.51334
G1 X40.628 Y57.304 E82.53544
G1 X74.004 Y57.304 E84.27920
G1 X74.638 Y57.107 E84.31384
G1 X75.873 Y56.881 E84.37947
G1 X40.628 Y56.881 E86.22085
G1 X40.628 Y56.457 E86.24296
G1 X122.872 Y56.457 E90.53980
G1 X122.872 Y56.034 E90.56191
G1 X40.628 Y56.034 E94.85875
G1 X40.628 Y55.611 E94.88086
G1 X122.872 Y55.611 E99.17771
G1 X122.872 Y55.188 E99.19981
G1 X40.628 Y55.188 E103.49666
G1 X40.628 Y54.765 E103.51876
G1 X122.872 Y54.765 E107.81561
G1 X122.872 Y54.342 E107.83771
G1 X40.628 Y54.342 E112.13456
G1 X40.628 Y53.919 E112.15667
G1 X122.872 Y53.919 E116.45351
G1 X122.872 Y53.496 E116.47562
G1 X40.628 Y53.496 E120.77246
G1 X40.628 Y53.073 E120.79457
G1 X122.872 Y53.073 E125.09141
G1 X122.872 Y52.649 E125.11352
G1 X87.627 Y52.649 E126.95491
G1 X88.862 Y52.423 E127.02053
G1 X89.496 Y52.226 E127.05518
G1 X122.872 Y52.226 E128.79893
G1 X122.872 Y51.803 E128.82103
G1 X90.842 Y51.803 E130.49443
G1 X91.960 Y51.380 E130.55685
G1 X122.872 Y51.380 E132.17186
G1 X122.872 Y50.957 E132.19397
G1 X93.077 Y50.957 E133.75060
G1 X94.195 Y50.534 E133.81303
G1 X122.872 Y50.534 E135.31128
G1 X122.872 Y50.111 E135.33339
G1 X95.312 Y50.111 E136.77327
G1 X96.429 Y49.688 E136.83569
G1 X122.872 Y49.688 E138.21719
G1 X122.872 Y49.265 E138.23929
G1 X97.547 Y49.265 E139.56241
G1 X98.664 Y48.841 E139.62484
G1 X122.872 Y48.841 E140.88958
G92 E0
G1 X122.872 Y56.881 F15000.000
G1 F4800
G1 X87.627 Y56.881 E1.84139
G1 X88.862 Y57.107 E1.90701
G1 X89.496 Y57.304 E1.94166
G1 X122.872 Y57.304 E3.68541
G1 X122.872 Y57.727 E3.70751
G1 X90.842 Y57.727 E5.38091
G1 X91.960 Y58.150 E5.44333
G1 X122.872 Y58.150 E7.05834
G1 X122.872 Y58.573 E7.08045
G1 X93.077 Y58.573 E8.63708
G1 X94.195 Y58.996 E8.69951
G1 X122.872 Y58.996 E10.19776
G1 X122.872 Y59.419 E10.21987
G1 X95.312 Y59.419 E11.65975
G1 X96.429 Y59.842 E11.72217
G1 X122.872 Y59.842 E13.10367
G1 X122.872 Y60.265 E13.12577
